P3
400 225
255
173 196 0
175 198 0
174 197 0
172 197 0
173 197 0
174 198 0
172 196 0
174 197 0
175 198 0
175 198 0
170 194 0
174 197 0
173 196 0
174 197 0
174 197 0
173 197 0
173 197 0
174 197 0
173 197 0
174 197 0
174 198 0
174 197 0
173 197 0
175 198 0
175 198 0
172 196 0
173 197 0
173 197 0
174 198 0
172 195 0
171 195 0
175 197 0
173 196 0
173 197 0
174 197 0
173 197 0
173 197 0
174 197 0
173 196 0
173 197 0
175 197 0
172 195 0
174 197 0
174 198 0
173 196 0
173 197 0
174 198 0
172 195 0
171 195 0
173 196 0
173 196 0
171 195 0
174 197 0
176 198 0
173 197 0
174 197 0
173 197 0
173 197 0
172 196 0
172 196 0
175 198 0
172 197 0
173 196 0
174 198 0
173 196 0
171 194 0
175 198 0
175 198 0
174 197 0
175 198 0
175 198 0
174 197 0
171 195 0
174 197 0
173 197 0
174 197 0
172 195 0
173 196 0
174 197 0
173 197 0
173 196 0
174 197 0
173 197 0
173 196 0
173 197 0
174 197 0
174 196 0
174 197 0
173 196 0
174 197 0
175 198 0
173 197 0
174 198 0
173 197 0
172 197 0
174 198 0
173 196 0
173 196 0
172 196 0
174 197 0
172 196 0
172 195 0
175 198 0
175 198 0
173 197 0
174 198 0
174 198 0
174 198 0
175 197 0
174 197 0
174 197 0
173 197 0
172 195 0
173 196 0
173 195 0
173 196 0
172 196 0
174 197 0
175 198 0
170 194 0
174 197 0
173 197 0
175 198 0
173 197 0
174 197 0
172 195 0
175 198 0
174 197 0
172 196 0
174 197 0
173 196 0
174 197 0
173 196 0
174 197 0
174 198 0
171 195 0
172 196 0
174 197 0
174 198 0
174 197 0
174 197 0
172 196 0
174 197 0
174 197 0
173 197 0
174 196 0
173 196 0
171 195 0
173 197 0
174 197 0
174 198 0
175 197 0
174 197 0
173 196 0
170 194 0
171 195 0
173 196 0
174 197 0
173 197 0
172 196 0
173 197 0
175 198 0
174 198 0
173 197 0
173 196 0
172 196 0
172 195 0
175 198 0
171 195 0
173 196 0
172 196 0
171 194 0
172 196 0
172 196 0
173 196 0
171 195 0
174 197 0
169 192 0
174 197 0
174 197 0
174 197 0
170 193 0
172 195 0
173 196 0
173 195 0
171 194 0
172 195 0
170 195 0
172 195 0
172 196 0
173 196 0
173 196 0
173 196 0
172 195 0
175 198 0
173 197 0
172 196 0
173 196 0
174 196 0
172 195 0
174 197 0
173 196 0
174 198 0
172 195 0
174 197 0
173 196 0
174 198 0
170 193 0
173 196 0
175 197 0
170 194 0
172 195 0
172 196 0
171 195 0
175 198 0
173 196 0
174 197 0
174 197 0
173 196 0
174 197 0
173 196 0
173 196 0
175 198 0
171 194 0
175 198 0
172 196 0
173 196 0
174 198 0
172 195 0
172 194 0
174 197 0
173 196 0
174 197 0
173 196 0
172 196 0
175 197 0
173 195 0
175 198 0
171 194 0
174 196 11
170 192 16
165 185 16
167 188 19
168 186 34
169 186 42
164 179 42
162 174 54
157 170 49
156 169 44
157 167 60
153 159 61
155 163 60
158 164 66
153 156 66
149 150 71
151 153 76
153 152 80
152 148 84
147 143 86
152 146 85
145 141 89
145 140 86
149 144 89
153 148 92
147 142 88
151 147 88
151 147 94
160 155 96
142 137 88
159 155 99
147 143 91
160 155 99
164 159 103
153 148 95
163 157 101
156 152 100
160 155 99
164 160 105
155 151 99
160 156 103
158 154 102
161 157 104
157 154 102
157 154 102
164 160 106
162 158 104
154 151 101
156 153 102
156 154 103
165 161 108
160 158 105
165 162 108
160 158 106
163 160 107
164 160 107
161 159 106
164 162 108
159 157 104
168 165 110
164 161 107
162 159 106
164 161 107
167 164 109
162 160 107
163 160 107
161 159 106
161 158 106
163 161 108
166 164 110
167 164 109
166 164 109
162 160 107
167 164 109
166 164 110
161 159 107
161 159 106
165 163 109
163 161 107
165 162 108
166 164 110
167 165 110
166 164 109
169 166 110
169 167 112
166 164 109
159 157 105
163 160 106
159 156 104
167 165 110
164 162 109
164 161 108
164 162 108
164 161 107
166 162 108
165 162 108
161 158 106
163 160 107
164 161 107
161 157 104
165 162 108
170 166 110
162 159 106
163 160 106
162 160 106
159 156 103
165 161 106
156 151 100
163 159 106
168 163 107
160 156 101
162 158 104
168 163 108
164 161 105
161 157 101
154 149 97
166 162 106
157 152 97
158 154 100
165 160 104
158 153 98
155 151 97
150 145 94
156 150 95
146 142 87
156 151 96
146 140 90
154 149 92
155 151 97
158 152 93
159 153 93
155 149 94
142 137 84
151 146 85
142 141 75
154 153 81
153 153 75
156 160 70
148 151 66
156 163 60
161 171 59
163 178 44
159 175 45
163 179 37
169 185 44
168 184 36
167 188 19
170 193 0
173 196 11
176 198 11
176 197 0
173 197 0
175 198 0
174 197 0
175 198 0
174 198 0
175 198 0
173 196 0
175 198 0
174 198 0
173 197 0
174 198 0
173 196 0
175 198 0
175 198 0
173 196 0
174 197 0
175 198 0
175 198 0
173 196 0
175 198 0
174 197 0
174 197 0
173 197 0
173 196 0
175 198 0
174 198 0
173 197 0
172 196 0
175 198 0
173 197 0
175 198 0
175 198 0
172 196 0
176 198 0
173 197 0
172 196 0
175 198 0
173 197 0
174 197 0
175 198 0
174 197 0
175 198 0
174 197 0
174 198 0
174 197 0
175 198 0
174 197 0
173 196 0
175 198 0
173 196 0
173 196 0
172 196 0
174 197 0
175 198 0
173 197 0
174 197 0
175 198 0
173 197 0
174 198 0
171 195 0
174 198 0
174 197 0
170 194 0
175 198 0
174 198 0
175 198 0
173 197 0
173 197 0
174 197 0
175 198 0
174 197 0
173 197 0
174 196 0
174 198 0
174 198 0
175 197 0
174 198 0
173 197 0
174 198 0
174 198 0
174 197 0
175 198 0
173 196 0
173 197 0
175 198 0
175 198 0
175 198 0
173 197 0
175 198 0
176 198 0
174 197 0
174 197 0
175 198 0
172 195 0
174 198 0
173 197 0
174 198 0
171 195 0
175 198 0
174 198 0
173 197 0
175 198 0
174 197 0
175 198 0
172 197 0
174 197 0
171 196 0
174 197 0
172 197 0
176 198 0
174 198 0
175 198 0
173 196 0
172 196 0
174 198 0
173 196 0
173 196 0
172 195 0
173 197 0
175 198 0
174 198 0
173 196 0
174 197 0
172 195 0
173 196 0
173 197 0
174 197 0
173 197 0
172 195 0
173 197 0
172 196 0
173 197 0
172 195 0
172 195 0
175 198 0
172 195 0
173 197 0
170 194 0
173 196 0
174 197 0
171 194 0
175 198 0
171 195 0
172 197 0
172 196 0
174 197 0
172 196 0
174 197 0
173 196 0
173 197 0
172 195 0
173 196 0
174 197 0
171 194 0
174 197 0
172 196 0
172 195 0
173 197 0
175 198 0
171 195 0
171 195 0
173 197 0
173 196 0
174 198 0
172 196 0
174 197 0
176 199 0
175 198 0
174 197 0
174 197 0
174 197 0
174 197 0
174 197 0
175 198 0
172 196 0
172 196 0
171 195 0
172 195 0
174 197 0
175 197 0
173 197 0
175 198 0
173 196 0
172 196 0
169 194 0
173 196 0
174 196 0
172 196 0
172 195 0
174 197 0
174 196 0
172 195 0
172 196 0
172 195 0
173 196 0
171 194 0
174 196 0
171 195 0
172 195 0
173 196 0
171 194 0
173 196 0
174 196 0
173 196 0
174 196 0
175 197 0
170 194 0
174 197 0
175 197 0
173 196 0
173 197 0
173 196 0
174 197 0
174 198 0
173 197 0
174 197 0
172 195 0
173 197 0
174 197 0
172 196 0
173 196 0
174 197 0
173 196 0
170 193 0
174 197 0
172 195 0
173 196 0
174 197 0
172 195 0
171 195 0
172 196 0
172 195 0
174 197 0
173 196 0
174 197 0
172 196 0
173 196 0
172 195 0
173 197 0
171 195 0
174 197 0
174 196 0
173 197 0
174 197 0
172 195 0
175 197 0
174 197 0
174 197 0
174 196 0
174 194 16
168 188 28
167 187 19
168 186 36
162 179 36
165 182 37
163 178 44
155 164 49
164 178 49
161 169 66
156 160 65
145 153 54
150 155 68
153 156 68
146 147 73
148 150 71
156 153 86
139 135 78
141 137 80
141 136 84
150 144 91
151 145 90
143 138 85
146 142 89
152 147 93
159 153 98
154 149 95
151 147 93
151 147 94
152 148 97
146 143 92
158 154 99
159 155 100
152 148 95
166 161 104
160 155 100
156 153 100
158 154 101
161 157 103
159 155 102
153 150 99
163 160 107
166 162 107
158 155 103
157 154 102
162 159 105
159 156 103
155 152 100
157 153 101
161 158 105
157 154 103
163 160 107
164 160 106
158 156 104
157 154 102
161 158 106
166 162 108
166 163 108
166 163 109
164 161 106
166 162 108
166 163 109
169 166 110
163 161 108
169 167 111
162 159 106
166 164 109
163 160 107
157 155 104
165 163 108
164 161 108
164 161 108
162 160 107
157 155 104
165 162 108
167 164 109
166 163 109
163 161 108
167 164 109
164 162 108
166 164 109
168 165 110
161 159 106
168 166 111
169 167 112
164 162 108
161 159 106
158 156 104
165 162 108
161 159 106
154 153 103
170 167 111
163 160 107
162 160 106
163 160 106
168 164 109
158 155 103
165 163 109
163 160 107
169 165 109
161 157 103
161 158 105
167 164 109
167 164 109
165 161 107
159 156 103
161 157 104
160 156 103
162 158 104
154 151 100
165 162 108
157 153 100
160 157 103
159 156 103
161 156 101
159 155 101
157 153 97
163 158 101
165 160 104
162 156 102
162 157 99
155 150 97
152 146 93
152 147 94
155 150 97
159 153 99
150 145 92
149 144 91
156 150 93
150 145 87
155 150 92
151 145 90
143 138 85
157 151 93
144 140 78
145 144 77
153 153 77
148 153 68
150 154 65
161 168 68
154 164 52
153 163 52
160 175 44
161 176 44
162 178 44
169 188 39
165 185 22
168 190 0
173 195 16
173 196 11
175 198 0
174 197 0
173 197 0
174 197 0
173 196 0
172 196 0
176 198 0
174 197 0
175 198 0
172 196 0
172 196 0
174 197 0
175 198 0
174 197 0
174 197 0
172 196 0
173 197 0
175 198 0
174 197 0
173 196 0
174 198 0
173 197 0
175 198 0
170 194 0
175 198 0
171 194 0
174 198 0
174 197 0
172 195 0
174 198 0
173 196 0
173 197 0
173 196 0
174 197 0
172 196 0
173 196 0
174 197 0
174 197 0
175 198 0
175 198 0
174 197 0
173 196 0
174 198 0
176 199 0
173 197 0
175 198 0
173 196 0
174 197 0
174 198 0
172 196 0
173 197 0
173 197 0
175 198 0
173 197 0
173 196 0
173 196 0
171 195 0
174 197 0
173 197 0
173 196 0
173 196 0
174 198 0
174 197 0
173 196 0
175 198 0
173 197 0
175 198 0
174 198 0
172 196 0
172 195 0
173 196 0
175 198 0
173 196 0
173 197 0
174 197 0
174 197 0
174 198 0
171 195 0
172 196 0
174 197 0
174 197 0
175 198 0
173 196 0
173 197 0
172 196 0
171 195 0
173 196 0
173 196 0
175 198 0
173 196 0
171 194 0
173 197 0
175 198 0
173 197 0
173 197 0
173 197 0
172 196 0
172 195 0
174 198 0
173 196 0
172 195 0
174 197 0
175 197 0
173 196 0
174 197 0
172 196 0
174 198 0
172 195 0
174 197 0
173 196 0
174 197 0
173 196 0
173 196 0
174 197 0
172 195 0
174 197 0
176 199 0
172 196 0
172 194 0
175 198 0
174 198 0
173 196 0
174 197 0
173 196 0
173 197 0
172 195 0
175 198 0
172 195 0
172 196 0
173 196 0
173 197 0
173 197 0
173 196 0
176 198 0
171 196 0
173 197 0
172 195 0
172 196 0
172 195 0
174 197 0
173 196 0
174 197 0
172 196 0
172 196 0
173 196 0
173 196 0
174 197 0
171 195 0
175 198 0
173 196 0
173 196 0
174 197 0
174 196 0
172 195 0
174 197 0
171 194 0
174 197 0
175 198 0
175 198 0
173 196 0
172 196 0
172 195 0
173 197 0
173 197 0
173 196 0
171 196 0
172 196 0
175 198 0
174 197 0
170 194 0
174 197 0
175 197 0
175 197 0
173 196 0
175 198 0
173 196 0
174 196 0
174 196 0
173 196 0
170 194 0
172 195 0
173 197 0
173 196 0
175 197 0
173 197 0
173 196 0
173 196 0
173 196 0
170 194 0
176 198 0
171 194 0
174 197 0
173 196 0
172 196 0
174 196 0
173 197 0
173 196 0
173 196 0
173 196 0
175 198 0
175 198 0
173 197 0
174 197 0
173 196 0
173 195 0
172 197 0
172 196 0
174 196 0
171 195 0
174 197 0
173 196 0
174 197 0
173 197 0
174 197 0
171 194 0
172 195 0
172 195 0
173 195 0
174 197 0
173 196 0
173 196 0
173 196 0
173 197 0
174 197 0
171 195 0
172 195 0
173 196 0
171 194 0
174 197 0
172 195 0
173 196 0
174 197 0
175 198 0
169 192 0
173 197 0
174 197 0
173 195 0
170 194 0
175 198 0
171 195 0
173 196 0
172 196 0
175 197 0
173 196 0
175 197 0
174 197 0
173 196 0
172 195 0
172 195 11
171 193 16
170 191 16
165 185 25
163 182 28
162 181 22
168 185 34
163 178 37
168 180 56
164 175 51
150 160 53
157 163 64
147 153 60
159 162 75
155 157 75
139 139 66
147 149 73
139 139 73
154 150 87
149 144 83
148 143 87
143 139 82
150 145 92
151 146 92
144 140 85
146 142 88
152 147 91
157 152 96
155 150 96
157 151 93
160 154 98
150 145 93
160 155 98
156 151 96
159 153 98
155 151 99
165 160 104
153 149 97
157 154 100
160 156 102
163 159 105
157 153 101
161 157 102
156 152 101
151 148 99
157 154 102
161 158 104
157 154 102
160 156 103
165 161 107
168 164 108
163 160 106
167 164 109
164 160 106
165 162 108
168 164 109
164 160 107
156 153 102
159 157 105
164 162 108
165 163 109
166 164 109
161 159 106
164 161 108
166 163 109
166 163 109
165 162 108
166 163 108
167 164 109
168 166 111
165 162 108
168 166 110
165 163 109
162 160 107
168 165 110
165 163 109
165 163 109
163 162 108
164 162 108
166 164 109
163 161 108
163 161 108
163 161 108
166 164 110
162 160 107
163 161 108
167 164 109
169 166 110
163 161 108
159 156 104
169 165 110
169 166 110
166 163 109
164 161 107
165 162 108
170 167 110
163 160 106
163 161 107
167 164 109
168 166 110
158 155 103
162 160 106
159 156 103
164 160 106
158 155 103
162 158 104
169 165 109
165 161 107
163 159 106
165 162 106
163 160 105
166 162 106
156 152 100
163 159 104
159 155 102
161 157 102
160 156 101
164 160 104
162 158 103
163 157 102
163 158 103
167 161 104
166 160 103
158 153 99
158 151 95
151 147 92
154 150 95
151 146 92
149 145 89
150 144 92
155 150 94
158 151 95
146 140 88
145 140 87
151 145 88
150 143 87
148 143 87
148 145 82
157 154 85
143 145 68
148 151 64
157 159 72
152 155 67
154 163 57
161 174 52
165 178 54
164 181 41
164 182 36
158 177 25
168 189 22
172 195 11
173 196 0
173 196 0
172 196 0
173 195 0
173 197 0
175 198 0
173 197 0
176 198 0
175 198 0
176 198 0
175 197 0
175 197 0
175 198 0
172 196 0
174 197 0
174 197 0
172 196 0
174 198 0
174 197 0
172 196 0
174 197 0
172 195 0
172 195 0
173 196 0
171 196 0
174 197 0
174 197 0
173 196 0
173 197 0
174 198 0
173 197 0
174 197 0
174 198 0
175 198 0
176 199 0
173 197 0
174 197 0
177 199 0
174 197 0
173 197 0
171 195 0
173 197 0
175 198 0
171 194 0
174 197 0
172 196 0
173 196 0
174 197 0
175 197 0
173 197 0
174 197 0
173 197 0
173 196 0
174 198 0
172 196 0
172 196 0
175 198 0
175 198 0
174 197 0
176 198 0
173 197 0
171 195 0
173 197 0
174 197 0
173 197 0
176 198 0
172 196 0
174 196 0
173 196 0
173 197 0
172 195 0
174 197 0
174 197 0
174 197 0
171 194 0
172 197 0
173 196 0
174 198 0
174 198 0
174 197 0
175 198 0
174 197 0
176 198 0
174 197 0
174 197 0
172 196 0
173 197 0
173 197 0
174 197 0
171 194 0
172 196 0
174 197 0
175 197 0
173 197 0
174 198 0
173 197 0
173 197 0
175 198 0
173 197 0
171 194 0
172 196 0
173 197 0
175 198 0
173 197 0
174 197 0
173 196 0
173 196 0
174 198 0
174 197 0
174 198 0
171 194 0
172 196 0
172 196 0
173 197 0
173 197 0
173 196 0
173 197 0
173 197 0
173 196 0
173 196 0
174 198 0
173 197 0
174 198 0
172 196 0
172 196 0
174 197 0
174 197 0
174 197 0
173 195 0
174 197 0
173 196 0
171 196 0
174 197 0
171 194 0
171 195 0
174 197 0
172 196 0
174 197 0
175 197 0
175 198 0
173 196 0
173 197 0
171 195 0
176 198 0
171 195 0
174 197 0
173 197 0
172 196 0
172 196 0
173 196 0
174 197 0
176 198 0
174 198 0
174 198 0
173 197 0
170 193 0
173 197 0
172 195 0
172 196 0
174 197 0
173 196 0
173 196 0
171 194 0
173 197 0
174 197 0
171 195 0
173 197 0
173 197 0
172 196 0
174 197 0
175 198 0
173 196 0
174 198 0
172 195 0
174 197 0
172 195 0
173 197 0
174 198 0
173 196 0
173 197 0
172 195 0
174 196 0
174 196 0
173 195 0
173 197 0
172 197 0
172 195 0
173 196 0
175 198 0
172 195 0
172 195 0
173 196 0
173 196 0
173 196 0
171 195 0
171 194 0
173 197 0
174 197 0
174 196 0
174 197 0
171 194 0
173 197 0
173 197 0
174 197 0
173 196 0
171 195 0
172 195 0
171 194 0
173 196 0
170 193 0
174 197 0
173 196 0
172 196 0
172 196 0
175 198 0
172 195 0
174 197 0
170 194 0
173 196 0
172 196 0
173 196 0
172 196 0
172 195 0
172 195 0
172 195 0
171 195 0
170 194 0
172 195 0
173 196 0
174 198 0
172 196 0
173 197 0
173 197 0
171 195 0
173 197 0
173 196 0
175 198 0
175 198 0
172 195 0
174 197 0
171 195 0
173 196 0
173 195 0
172 196 0
171 194 0
174 197 0
174 196 0
171 195 0
172 195 0
174 196 19
172 194 19
171 193 0
169 190 25
168 187 36
165 181 41
157 172 37
163 176 49
160 171 54
157 169 52
155 164 60
152 158 64
155 161 63
152 158 66
138 141 62
140 141 69
152 149 79
142 138 82
151 147 85
146 141 82
147 142 86
144 139 85
150 144 86
156 151 90
149 145 90
156 150 93
152 148 93
156 151 97
156 151 96
151 145 94
155 150 94
161 156 101
154 150 98
150 145 93
153 150 98
159 153 99
152 150 98
153 150 99
167 163 105
152 150 100
154 151 99
161 158 104
160 157 103
163 159 104
158 154 101
161 156 101
157 155 103
162 158 105
162 160 107
166 162 108
162 159 107
164 160 105
165 162 108
163 161 108
165 161 107
160 157 104
162 159 106
161 159 106
162 159 105
161 159 106
170 167 111
165 163 108
166 163 109
165 163 108
172 168 112
166 163 109
161 158 105
167 164 109
162 159 107
166 164 110
162 160 107
167 165 110
169 167 112
168 165 110
166 164 109
165 163 109
163 161 108
173 169 113
162 160 108
165 162 108
166 164 110
168 166 110
164 162 108
163 161 108
167 165 110
167 164 109
171 169 113
165 163 109
165 163 109
163 161 108
168 165 110
167 163 109
166 164 110
161 160 107
165 162 108
166 164 109
160 158 105
166 163 108
168 165 110
165 162 108
162 159 106
165 162 108
168 164 108
161 158 105
168 165 109
158 154 102
159 156 103
160 156 103
159 155 102
159 156 103
170 165 109
165 162 106
160 158 104
157 154 102
155 152 101
156 151 99
159 155 103
159 155 99
163 159 102
162 158 104
161 157 102
161 157 102
161 156 100
153 150 95
154 149 95
156 151 97
153 149 95
159 153 96
159 154 97
158 152 97
154 148 90
146 141 89
154 148 90
147 142 86
154 148 91
166 159 99
141 136 75
152 147 87
151 146 82
147 146 75
160 160 76
149 151 70
154 160 66
149 154 65
163 173 58
163 176 48
160 175 41
166 182 42
164 184 30
171 190 22
171 192 28
171 193 11
176 198 0
174 198 0
176 198 0
174 196 0
173 196 0
174 197 0
170 195 0
173 197 0
174 197 0
175 198 0
173 196 0
173 197 0
174 197 0
173 196 0
173 197 0
173 197 0
174 197 0
175 198 0
172 195 0
173 197 0
173 197 0
171 194 0
171 195 0
173 197 0
175 198 0
173 197 0
173 197 0
175 198 0
172 195 0
174 198 0
174 197 0
173 197 0
173 197 0
175 198 0
174 197 0
174 197 0
173 196 0
176 198 0
173 196 0
173 197 0
174 197 0
173 197 0
176 198 0
173 197 0
174 197 0
173 196 0
173 197 0
173 197 0
172 196 0
172 196 0
173 196 0
176 198 0
173 197 0
174 197 0
172 196 0
173 196 0
172 196 0
172 196 0
172 196 0
173 196 0
174 197 0
173 197 0
174 198 0
173 197 0
173 197 0
173 197 0
172 196 0
175 198 0
173 197 0
174 197 0
173 196 0
173 196 0
173 197 0
173 196 0
174 198 0
174 197 0
174 198 0
173 196 0
173 196 0
171 195 0
170 194 0
175 198 0
174 197 0
174 197 0
174 198 0
173 197 0
173 195 0
174 197 0
174 197 0
173 196 0
173 196 0
175 198 0
172 196 0
174 197 0
175 198 0
174 196 0
173 197 0
173 197 0
173 196 0
173 196 0
173 197 0
174 197 0
171 195 0
173 196 0
174 197 0
175 198 0
172 196 0
173 196 0
172 196 0
174 197 0
172 196 0
173 196 0
173 197 0
173 196 0
173 196 0
174 197 0
174 198 0
171 195 0
173 196 0
174 197 0
171 195 0
174 197 0
171 195 0
172 195 0
173 196 0
172 196 0
173 196 0
175 198 0
173 196 0
175 197 0
173 197 0
172 196 0
174 197 0
174 196 0
174 198 0
171 195 0
175 198 0
170 193 0
171 195 0
170 193 0
174 198 0
172 196 0
172 195 0
172 195 0
172 196 0
174 198 0
171 194 0
173 196 0
172 195 0
173 196 0
174 197 0
174 197 0
172 195 0
173 197 0
174 197 0
173 196 0
173 196 0
173 196 0
171 194 0
175 198 0
172 196 0
173 197 0
172 196 0
173 196 0
172 195 0
175 198 0
174 198 0
173 196 0
171 193 0
169 192 0
170 194 0
174 196 0
173 196 0
171 195 0
172 194 0
172 195 0
174 198 0
171 194 0
173 196 0
174 197 0
173 196 0
173 197 0
173 196 0
174 197 0
172 196 0
172 195 0
174 197 0
174 196 0
173 196 0
173 197 0
174 197 0
174 196 0
173 196 0
174 197 0
175 198 0
173 196 0
174 197 0
174 197 0
174 197 0
173 196 0
176 198 0
174 197 0
174 197 0
172 195 0
174 197 0
175 198 0
174 196 0
172 196 0
173 196 0
173 197 0
172 196 0
173 196 0
174 198 0
173 197 0
173 196 0
173 195 0
171 194 0
173 197 0
173 196 0
174 197 0
173 196 0
173 196 0
175 197 0
171 194 0
174 197 0
173 195 0
174 196 0
172 195 0
172 195 0
175 198 0
173 196 0
172 196 0
174 197 0
171 194 0
173 196 0
172 194 0
172 196 0
173 197 0
170 194 0
172 194 0
173 197 0
174 196 0
173 196 0
174 197 0
174 197 0
174 197 0
174 197 0
170 192 11
170 193 11
168 189 25
170 189 28
166 185 22
169 187 34
165 182 37
154 168 41
160 174 41
154 168 40
146 158 45
156 167 54
153 158 65
145 148 63
144 148 67
151 151 76
151 151 75
143 142 77
142 138 80
142 137 81
152 147 89
144 139 81
145 141 86
149 144 90
159 154 98
152 147 89
149 145 93
147 142 90
150 145 93
143 138 88
160 156 96
154 150 96
158 155 100
157 153 97
158 152 96
165 160 104
154 150 100
161 156 102
158 155 99
157 153 101
159 155 102
162 159 106
157 154 100
165 160 105
154 151 100
159 155 103
163 159 104
157 154 103
158 155 103
163 159 106
156 152 100
163 161 107
162 159 105
168 164 109
159 157 105
164 162 108
157 155 104
170 166 110
160 158 106
166 164 109
163 161 108
165 163 109
166 163 108
170 166 110
164 161 107
163 161 108
169 167 111
167 165 110
168 165 111
166 164 109
164 161 108
166 164 110
160 158 106
166 164 109
165 163 109
165 162 108
161 158 105
163 160 107
167 164 110
168 165 110
163 161 108
164 162 108
163 160 107
168 165 110
169 167 112
166 164 109
166 163 109
163 161 108
167 165 110
168 165 110
167 164 109
165 163 109
167 165 110
164 162 108
164 161 107
167 163 109
166 164 109
164 161 107
162 160 107
166 163 108
167 163 108
167 164 109
164 160 106
165 162 108
164 160 106
161 158 105
161 157 103
163 159 106
166 163 108
164 160 106
160 156 103
157 153 100
164 161 105
160 156 103
164 160 104
163 158 104
163 158 101
163 159 104
160 156 101
158 154 99
154 150 98
154 151 96
162 156 100
156 153 99
164 159 103
151 147 93
161 156 99
158 154 99
166 161 104
160 155 95
162 156 101
152 147 90
155 149 95
159 154 96
155 149 93
156 150 95
146 141 88
152 146 93
148 143 89
136 131 76
147 145 79
149 151 71
151 153 76
158 163 68
155 162 65
155 163 59
152 164 44
158 171 44
167 181 45
160 175 41
167 185 32
171 191 28
170 192 22
172 196 0
173 196 0
174 197 0
174 197 0
175 198 0
174 197 0
174 197 0
174 197 0
171 196 0
173 197 0
173 196 0
172 196 0
174 197 0
174 197 0
174 198 0
174 198 0
174 197 0
173 196 0
173 196 0
175 198 0
174 197 0
175 198 0
172 196 0
174 197 0
176 199 0
173 197 0
174 198 0
175 198 0
173 197 0
175 198 0
173 197 0
174 197 0
174 198 0
172 196 0
176 198 0
173 196 0
174 197 0
174 198 0
175 198 0
174 198 0
173 197 0
173 197 0
173 197 0
174 197 0
171 195 0
173 197 0
175 198 0
173 197 0
173 197 0
174 197 0
174 198 0
174 197 0
174 197 0
172 196 0
172 195 0
172 195 0
172 195 0
172 195 0
174 197 0
176 198 0
171 194 0
173 196 0
169 193 0
173 197 0
175 198 0
171 195 0
174 197 0
171 195 0
172 196 0
172 196 0
174 196 0
174 197 0
173 197 0
174 197 0
173 197 0
172 196 0
175 198 0
172 196 0
175 198 0
175 198 0
174 197 0
173 196 0
174 197 0
171 195 0
174 198 0
173 196 0
173 197 0
173 196 0
172 196 0
174 197 0
170 195 0
175 198 0
173 196 0
174 196 0
173 197 0
175 198 0
173 197 0
173 197 0
175 198 0
174 197 0
173 196 0
174 197 0
173 197 0
174 197 0
173 197 0
175 197 0
172 196 0
172 195 0
173 197 0
174 198 0
172 196 0
172 196 0
172 196 0
174 196 0
174 197 0
172 196 0
174 198 0
174 197 0
174 197 0
174 197 0
173 196 0
174 198 0
172 196 0
175 198 0
175 198 0
170 193 0
174 197 0
172 195 0
174 196 0
173 196 0
174 197 0
172 196 0
172 196 0
171 194 0
171 195 0
173 197 0
174 197 0
172 196 0
173 197 0
173 196 0
174 198 0
172 195 0
173 197 0
173 197 0
174 198 0
172 195 0
171 195 0
175 198 0
172 195 0
174 197 0
171 195 0
175 198 0
173 197 0
173 197 0
170 195 0
174 197 0
174 197 0
170 193 0
173 196 0
173 196 0
173 196 0
173 197 0
171 195 0
175 198 0
173 196 0
173 197 0
174 198 0
170 194 0
172 196 0
172 196 0
176 198 0
172 196 0
171 194 0
173 197 0
172 195 0
174 197 0
173 195 0
173 197 0
172 196 0
173 196 0
174 197 0
172 196 0
172 196 18
176 199 0
173 196 0
174 197 0
172 195 0
174 198 0
173 196 0
174 197 0
172 195 0
173 196 0
173 196 0
173 196 0
171 195 0
173 197 0
173 197 0
173 195 0
173 195 0
170 194 0
171 195 0
172 196 0
173 197 0
173 196 0
174 197 0
173 196 0
172 195 0
172 196 0
171 193 0
171 196 0
171 194 0
173 196 0
174 198 0
175 198 0
172 196 0
173 196 0
173 196 0
171 194 0
173 196 0
173 196 0
173 197 0
173 197 0
172 196 0
173 196 0
172 195 0
174 196 0
172 195 0
172 195 0
170 194 0
172 195 0
173 196 0
173 195 0
172 195 0
172 196 0
175 198 0
174 197 0
173 196 0
173 195 0
172 195 0
171 194 0
172 195 0
172 196 0
172 195 0
175 198 0
170 194 0
172 195 0
170 193 0
174 196 11
174 195 22
171 192 30
168 188 25
166 186 28
167 182 41
162 177 44
161 174 49
154 167 41
156 164 64
157 164 63
152 158 64
154 160 61
143 147 61
150 151 75
162 159 89
143 140 77
145 141 81
144 139 86
147 141 83
146 141 86
153 147 91
150 144 88
146 141 88
156 150 91
156 150 95
148 143 91
159 153 97
159 155 98
151 145 90
160 154 98
155 151 97
161 157 99
153 149 94
158 154 100
158 153 97
152 149 98
158 155 102
164 161 106
154 151 100
153 150 99
153 150 101
155 152 101
153 150 100
162 158 104
156 152 100
160 157 105
159 157 104
163 160 107
160 157 104
160 157 105
164 161 107
172 168 111
164 161 107
160 157 105
163 160 107
165 163 109
167 163 108
163 161 108
163 161 108
168 166 110
162 159 107
166 163 109
166 163 109
167 164 110
165 162 108
167 164 110
164 161 107
157 156 106
165 162 108
168 165 110
166 164 109
166 164 110
168 165 110
164 162 109
170 168 112
168 165 110
167 166 111
167 164 109
163 160 107
168 166 110
169 167 111
168 166 111
168 165 110
167 165 110
166 165 110
162 160 107
165 162 108
163 161 108
164 162 108
160 157 105
166 163 109
164 162 108
167 164 109
169 166 110
166 164 109
169 166 110
166 164 109
171 168 112
169 165 109
171 169 112
169 165 109
168 164 109
165 161 105
165 161 106
161 159 104
161 158 105
166 163 107
163 160 106
165 161 106
168 163 107
158 154 101
164 162 106
165 161 106
161 158 103
159 155 101
167 163 106
164 159 104
163 158 103
165 161 106
162 157 100
164 159 103
164 160 103
159 153 99
161 157 101
161 157 102
163 158 98
160 154 96
164 159 101
155 149 94
162 156 97
154 150 93
154 149 95
160 154 97
151 146 90
161 153 95
148 143 89
150 144 85
153 146 87
149 143 87
155 151 82
148 147 77
156 156 81
155 160 63
161 165 76
154 165 49
157 166 54
158 168 57
163 177 45
158 175 32
169 189 28
168 187 30
171 192 22
172 194 16
172 196 0
173 196 0
175 198 0
173 197 0
174 197 0
173 197 0
174 198 0
174 198 0
174 198 0
173 197 0
174 197 0
174 198 0
174 197 0
174 197 0
174 198 0
175 198 0
174 198 0
174 198 0
174 197 0
176 199 0
175 197 0
173 197 0
175 198 0
174 197 0
174 197 0
171 195 0
175 198 0
173 196 0
172 197 0
174 197 0
172 196 0
175 198 0
175 198 0
172 196 0
173 196 0
173 197 0
173 197 0
174 197 0
174 198 0
173 197 0
173 196 0
171 195 0
172 194 0
173 196 0
171 195 0
174 197 0
172 195 0
175 198 0
171 195 0
173 195 0
174 198 0
174 198 0
172 196 0
172 196 0
174 198 0
173 196 0
174 197 0
174 197 0
174 198 0
173 197 0
175 198 0
175 198 0
175 197 0
173 196 0
175 198 0
175 198 0
172 195 0
172 196 0
172 196 0
173 196 0
175 198 0
174 197 0
173 197 0
173 197 0
174 197 0
173 196 0
175 198 0
173 197 0
173 196 0
174 198 0
173 196 0
174 198 0
172 196 0
175 198 0
172 197 0
173 197 0
174 197 0
173 196 0
175 198 0
172 196 0
172 196 0
175 198 0
173 197 0
175 198 0
172 195 0
174 197 0
174 198 0
169 192 0
170 195 0
171 195 0
171 194 0
174 197 0
173 196 0
175 197 0
173 196 0
174 197 0
174 197 0
173 197 0
174 197 0
174 197 0
174 197 0
174 197 0
173 196 0
174 197 0
174 197 0
173 195 0
172 196 0
173 197 0
172 196 0
173 196 0
172 195 0
171 194 0
171 196 0
173 196 0
175 198 0
174 197 0
174 197 0
168 192 0
174 196 0
174 197 0
173 196 0
173 197 0
176 198 0
173 196 0
174 198 0
171 194 0
173 196 0
176 199 0
172 196 0
174 197 0
172 195 0
173 197 0
174 197 0
171 195 0
172 196 0
172 195 0
173 197 0
172 196 0
170 193 0
172 196 0
174 197 0
170 193 0
172 196 0
173 197 0
172 195 0
171 195 0
173 196 0
174 196 0
174 197 0
173 196 0
172 195 0
172 195 0
171 195 0
171 195 0
173 197 0
175 198 0
174 197 0
173 196 0
174 197 0
172 195 0
172 195 0
171 195 18
174 197 18
170 193 31
169 192 36
172 195 18
167 191 47
169 193 40
165 188 54
163 187 67
166 189 51
160 183 76
160 183 72
164 188 57
169 192 44
163 186 51
164 188 60
164 189 60
167 191 51
164 187 60
168 192 44
170 193 36
173 196 18
169 193 40
170 193 25
170 194 31
172 196 0
172 196 0
172 196 18
173 195 0
174 197 0
173 196 0
173 197 0
174 196 0
172 195 0
169 193 0
171 195 0
174 196 0
171 194 0
173 196 0
174 197 0
174 197 0
175 197 0
173 197 0
171 194 0
173 196 0
174 196 0
171 194 0
173 196 0
171 194 0
172 195 0
172 195 0
173 196 0
170 192 0
172 195 0
173 197 0
173 196 0
171 195 0
171 195 0
172 195 0
173 195 0
173 196 0
174 196 0
172 194 0
173 196 0
171 195 0
173 196 0
175 198 0
174 197 0
173 195 0
172 195 0
175 197 0
173 196 0
172 195 0
173 196 16
172 195 0
170 192 19
170 191 19
168 187 28
166 184 32
162 178 36
163 179 33
165 179 46
155 168 45
154 166 47
158 169 52
161 168 65
146 152 64
154 155 75
150 154 65
145 144 71
152 149 80
144 139 78
141 136 79
148 142 82
157 152 91
154 147 91
156 150 91
147 142 87
148 143 89
147 142 90
156 150 92
152 147 91
161 155 99
149 145 93
152 148 96
150 147 95
151 147 93
141 138 90
156 152 99
158 154 101
161 156 102
154 152 99
148 145 96
162 158 104
154 150 99
154 152 101
166 162 105
160 156 104
164 160 105
162 158 104
163 160 106
156 153 101
163 160 107
162 158 105
161 158 104
158 156 103
162 159 106
161 158 106
157 155 104
163 160 107
161 159 106
165 161 107
158 155 103
164 161 108
166 164 109
168 165 110
167 164 110
160 157 105
168 165 110
169 167 112
169 167 112
161 159 106
169 166 111
161 159 108
167 165 110
168 164 109
167 165 111
167 163 109
167 164 109
167 165 110
164 162 108
165 163 109
168 166 111
167 165 110
169 167 111
166 164 109
166 164 110
170 166 110
170 168 112
168 166 111
168 164 109
169 165 110
167 165 110
165 163 109
167 164 109
166 162 108
165 163 109
162 160 107
168 164 109
166 163 109
163 161 108
170 166 110
166 163 108
170 165 109
166 163 108
168 164 109
161 159 106
161 158 105
163 160 106
167 163 109
168 163 108
168 164 108
161 158 104
163 160 106
160 158 103
163 159 104
160 158 105
160 155 101
161 157 102
164 160 104
158 155 101
157 153 99
156 153 99
164 159 104
165 160 105
156 152 99
162 158 103
158 154 100
165 160 102
165 160 103
152 147 90
159 154 100
162 158 101
161 155 99
153 148 93
151 147 90
160 154 96
163 157 98
155 150 95
156 150 90
150 146 89
153 146 87
147 142 88
141 135 84
139 134 80
147 142 81
145 142 79
141 138 67
139 140 65
144 146 66
154 163 58
156 163 63
161 170 64
162 174 47
165 180 45
161 177 39
164 181 36
168 187 32
168 189 16
175 196 11
173 197 0
173 197 0
175 198 0
175 198 0
173 197 0
174 197 0
175 198 0
173 197 0
174 197 0
175 198 0
174 198 0
171 195 0
173 197 0
173 197 0
174 198 0
173 197 0
173 197 0
174 198 0
174 198 0
173 196 0
172 196 0
171 196 0
173 197 0
173 197 0
172 196 0
175 198 0
172 196 0
174 197 0
174 197 0
176 198 0
172 195 0
174 197 0
174 198 0
173 196 0
171 195 0
174 198 0
173 197 0
174 198 0
174 198 0
175 198 0
172 196 0
173 197 0
174 197 0
173 197 0
173 197 0
172 195 0
174 198 0
174 197 0
171 195 0
174 197 0
175 198 0
173 197 0
173 196 0
173 197 0
174 197 0
172 195 0
174 197 0
174 197 0
172 196 0
173 195 0
173 197 0
174 197 0
173 196 0
175 197 0
175 198 0
172 196 0
174 197 0
174 198 0
175 198 0
173 197 0
174 197 0
175 198 0
175 198 0
174 197 0
171 194 0
176 198 0
173 197 0
172 195 0
172 196 0
176 198 0
173 197 0
173 197 0
174 198 0
173 197 0
170 194 0
174 198 0
175 198 0
172 195 0
175 198 0
172 196 0
172 196 0
174 197 0
173 196 0
174 197 0
172 196 0
172 196 0
174 197 0
173 197 0
172 196 0
172 195 0
174 198 0
174 197 0
175 198 0
172 195 0
173 196 0
172 196 0
175 198 0
173 196 0
174 196 0
172 195 0
169 193 0
173 197 0
172 196 0
174 197 0
174 198 0
172 195 0
171 195 0
175 198 0
174 197 0
174 197 0
174 197 0
174 197 0
171 194 0
171 194 0
174 197 0
172 196 0
174 197 0
174 197 0
174 197 0
172 195 0
172 196 0
172 195 0
171 194 0
175 198 0
173 196 0
171 195 0
173 196 0
175 198 0
172 196 0
173 197 0
173 197 0
173 197 0
171 195 0
171 194 0
175 198 0
172 196 0
174 197 0
173 196 0
175 198 0
173 196 0
173 196 0
174 197 0
173 196 0
175 198 0
173 196 0
173 196 0
173 197 0
175 197 0
171 193 0
176 198 0
173 196 0
171 194 0
173 196 0
172 196 0
173 196 0
171 195 0
174 196 0
169 192 31
162 186 60
167 190 51
160 184 67
155 179 80
161 184 76
156 180 82
144 169 100
153 177 84
138 163 115
140 165 113
144 169 105
131 156 126
141 166 113
142 167 110
141 166 114
134 159 118
148 173 99
126 153 130
140 165 113
143 168 108
141 166 107
152 176 94
153 177 90
147 171 100
148 172 96
155 179 85
159 182 78
163 186 62
158 182 75
164 188 62
164 188 40
169 193 31
171 193 25
173 196 25
172 196 0
174 197 18
171 194 0
172 195 0
174 197 0
171 194 0
173 197 0
172 195 0
173 196 0
171 194 0
173 196 0
171 195 0
173 196 0
175 198 0
173 196 0
173 197 0
170 193 0
173 196 0
172 195 0
172 196 0
174 197 0
171 195 0
173 196 0
173 197 0
174 197 0
173 196 0
174 197 0
170 193 0
172 196 0
173 197 0
173 197 0
171 194 0
175 197 0
174 198 0
173 196 0
173 196 0
171 195 0
172 195 0
172 195 0
171 195 0
172 194 0
172 196 0
172 194 11
170 192 22
165 186 11
169 190 19
157 176 25
165 181 39
159 176 34
161 175 47
166 179 49
157 170 47
152 160 63
151 157 62
152 157 64
145 145 67
140 141 65
154 154 79
144 142 76
148 144 85
147 141 82
143 138 85
146 141 84
151 145 88
141 137 85
143 139 84
150 145 93
143 139 86
148 144 90
149 145 90
159 155 99
154 149 95
158 154 100
150 146 95
162 158 99
154 150 99
161 157 100
160 156 103
159 155 101
153 150 97
155 152 99
160 157 104
159 156 104
158 154 100
158 154 101
159 156 103
160 157 104
159 156 103
157 154 102
162 160 106
166 162 106
164 160 106
160 158 105
156 153 102
164 160 107
159 156 103
151 149 100
163 162 109
170 166 110
164 162 108
164 161 107
160 157 105
164 161 108
161 159 108
163 161 108
167 165 110
170 166 111
166 163 108
167 165 110
165 162 108
167 164 110
165 163 109
168 165 110
165 163 109
166 164 110
168 165 110
166 163 109
165 163 109
164 161 107
162 160 108
165 163 109
164 162 108
165 163 109
168 165 110
164 162 108
170 168 112
163 161 108
162 160 107
170 167 112
168 165 110
165 163 109
166 163 108
167 164 109
168 166 110
169 165 110
166 163 109
166 163 109
168 165 110
167 165 110
166 163 109
169 165 109
170 166 110
165 162 108
166 163 109
169 166 110
168 165 109
163 161 106
163 160 106
168 165 109
165 162 108
166 163 107
159 155 102
159 157 103
163 158 103
162 157 103
167 163 106
160 156 103
162 159 103
159 155 100
159 155 101
164 160 103
165 161 104
167 162 105
158 153 99
151 147 95
153 149 95
161 156 102
164 158 103
159 155 101
162 157 101
163 157 100
158 153 97
158 152 96
156 150 95
161 155 95
164 158 99
156 150 96
153 147 90
148 142 87
154 147 92
142 136 87
151 145 87
140 135 80
152 146 85
145 139 80
146 144 75
146 144 78
142 143 67
153 157 67
156 162 61
160 168 63
155 166 49
164 178 51
162 176 42
167 183 39
166 185 32
166 186 19
169 192 11
173 197 11
173 197 0
172 197 0
175 197 0
173 197 0
174 198 0
173 196 0
174 197 0
174 196 0
174 197 0
174 198 0
173 197 0
174 198 0
175 198 0
173 197 0
174 198 0
172 196 0
172 196 0
171 196 0
172 196 0
174 197 0
174 198 0
175 198 0
175 198 0
171 195 0
173 196 0
174 197 0
175 198 0
176 198 0
173 196 0
175 198 0
172 196 0
174 198 0
175 198 0
174 197 0
174 197 0
172 196 0
174 197 0
174 198 0
173 196 0
174 198 0
174 197 0
172 196 0
173 196 0
173 197 0
175 198 0
174 197 0
175 198 0
174 197 0
172 196 0
173 197 0
172 196 0
174 198 0
173 196 0
174 198 0
174 197 0
174 196 0
173 196 0
173 197 0
173 196 0
171 195 0
174 197 0
172 196 0
172 195 0
172 196 0
173 197 0
174 197 0
175 198 0
174 197 0
174 197 0
172 195 0
175 198 0
174 197 0
172 195 0
173 196 0
175 198 0
175 197 0
174 197 0
173 196 0
173 196 0
173 197 0
175 198 0
174 197 0
171 196 0
173 196 0
172 195 0
173 196 0
172 195 0
174 197 0
173 197 0
174 197 0
173 196 0
174 197 0
174 197 0
172 195 0
171 193 0
173 197 0
172 195 0
172 196 0
172 196 0
173 196 0
174 197 0
174 198 0
174 197 0
174 197 0
174 197 0
174 197 0
171 194 0
172 196 0
175 198 0
173 196 0
175 198 0
174 198 0
174 197 0
173 196 0
172 195 0
174 196 0
172 196 0
172 196 0
171 195 0
175 197 0
172 195 0
172 196 0
174 197 0
174 197 0
171 194 0
173 197 0
172 196 0
174 196 0
172 194 0
174 196 0
173 196 0
171 195 0
173 196 0
173 196 0
173 196 0
173 197 0
174 197 0
172 196 0
171 196 0
172 195 0
173 197 0
172 195 0
175 198 0
175 198 0
173 197 0
173 197 0
174 197 0
174 197 0
173 196 0
175 198 0
173 197 0
172 196 0
174 197 0
171 194 0
175 197 0
174 197 0
172 195 0
171 194 0
172 195 0
173 196 0
171 194 36
168 192 44
165 188 57
158 182 74
158 182 80
155 179 88
151 175 90
146 170 103
143 168 107
131 157 126
116 143 143
113 140 142
114 141 142
108 135 151
95 125 161
112 139 148
93 123 162
95 124 161
88 119 165
96 126 160
80 113 170
83 114 169
81 113 167
87 118 164
90 121 164
84 116 168
94 124 159
98 126 158
86 117 167
93 123 163
117 143 142
117 144 138
118 144 138
122 148 137
133 158 124
130 156 125
135 160 120
148 172 98
150 174 95
146 170 105
157 181 78
165 188 65
166 189 51
166 191 37
170 192 25
171 195 0
170 194 0
173 195 0
169 192 0
171 194 0
172 196 0
175 198 0
174 197 0
173 197 0
169 192 0
175 198 0
172 196 0
175 198 0
170 193 0
171 193 0
171 195 0
173 196 0
173 195 0
175 198 0
173 196 0
174 196 0
173 196 0
171 194 0
171 195 0
173 196 0
173 197 0
169 192 0
171 194 0
172 196 0
172 195 0
171 194 0
173 196 0
172 195 0
173 197 0
172 195 0
170 193 0
172 195 11
171 193 0
170 191 16
166 187 25
165 184 30
163 183 34
161 180 25
167 183 41
162 175 48
159 170 49
157 167 57
155 163 57
148 151 67
145 148 63
153 156 68
147 151 64
131 131 68
145 144 74
148 144 85
144 140 82
153 147 89
151 145 86
153 147 92
145 140 82
147 143 88
154 149 93
146 142 91
151 147 94
145 142 89
147 143 89
159 154 98
155 151 97
152 148 94
151 146 95
149 145 95
158 154 99
153 150 99
153 150 98
158 154 100
161 157 103
154 151 100
160 157 104
155 152 101
163 159 106
158 155 103
162 157 103
159 155 102
158 154 101
163 158 104
155 152 101
162 159 105
164 161 107
163 160 107
162 160 107
165 161 107
160 157 106
165 161 108
161 159 106
166 163 108
161 159 106
163 160 107
167 164 110
157 155 104
159 157 105
166 163 109
165 163 109
165 162 108
170 168 112
168 165 110
169 166 110
165 163 109
166 163 108
167 164 110
163 161 107
161 159 106
169 166 111
164 162 109
166 163 108
166 164 110
167 164 109
160 158 105
169 165 110
169 166 111
162 159 106
162 161 108
170 167 112
171 168 112
164 162 108
169 167 111
168 165 110
167 164 109
168 165 110
168 165 110
166 164 109
167 164 109
171 168 112
168 165 109
168 164 109
164 161 108
166 163 108
163 159 106
167 164 109
168 165 109
168 165 110
165 162 108
168 164 108
164 160 106
160 156 103
165 162 108
167 163 106
169 164 108
160 157 104
165 162 106
167 163 106
166 162 106
167 163 108
165 162 106
168 165 109
163 158 104
163 158 104
161 157 103
159 155 100
159 155 99
162 157 101
165 161 105
155 150 97
156 152 98
160 156 99
164 159 99
159 153 97
165 160 102
156 151 96
157 152 98
150 145 89
153 148 92
157 151 93
160 154 97
158 152 93
159 154 93
154 148 93
160 153 93
147 141 79
144 139 81
163 156 97
143 138 81
154 151 80
142 141 75
146 146 74
150 151 71
152 159 60
152 162 48
152 161 54
162 172 56
159 174 42
167 184 36
167 187 34
169 189 25
166 188 0
170 192 11
172 195 0
173 197 0
172 195 0
173 197 0
175 198 0
174 198 0
173 196 0
174 197 0
174 197 0
174 197 0
172 196 0
174 197 0
174 197 0
171 194 0
172 196 0
173 197 0
174 197 0
174 197 0
173 196 0
174 197 0
173 196 0
174 198 0
174 198 0
173 197 0
174 197 0
174 198 0
175 198 0
173 197 0
173 196 0
172 197 0
171 195 0
173 197 0
174 198 0
174 197 0
174 197 0
175 198 0
174 197 0
171 194 0
175 198 0
171 195 0
173 196 0
173 196 0
172 195 0
175 198 0
174 197 0
174 197 0
174 197 0
175 198 0
174 197 0
173 196 0
175 198 0
172 196 0
175 198 0
175 198 0
175 198 0
171 195 0
173 197 0
173 197 0
174 197 0
174 197 0
175 198 0
172 196 0
174 198 0
174 198 0
172 196 0
172 196 0
173 196 0
172 196 0
173 197 0
172 196 0
171 195 0
172 196 0
174 197 0
173 196 0
173 197 0
174 198 0
173 196 0
175 198 0
174 198 0
172 196 0
173 196 0
172 196 0
172 196 0
173 197 0
173 195 0
173 196 0
174 197 0
174 197 0
173 196 0
173 196 0
174 197 0
174 198 0
173 196 0
170 194 0
173 197 0
174 197 0
172 195 0
172 196 0
173 197 0
173 196 0
173 196 0
172 196 0
172 196 0
173 196 0
174 197 0
173 197 0
173 196 0
173 196 0
174 197 0
173 196 0
174 197 0
171 195 0
172 195 0
172 195 0
171 193 0
171 195 0
173 197 0
174 197 0
173 197 0
172 196 0
174 196 0
173 197 0
170 192 0
174 197 0
172 195 0
172 196 0
175 197 0
173 197 0
175 198 0
175 198 0
172 196 0
173 197 0
173 197 0
173 197 0
175 197 0
174 197 0
173 196 0
174 197 0
173 196 0
174 197 0
174 196 0
172 195 0
171 195 0
173 197 0
174 197 0
169 192 0
174 197 0
171 195 0
173 197 0
173 195 0
172 196 0
173 196 0
173 196 0
171 194 0
173 195 0
174 197 0
171 195 25
169 193 36
168 192 44
167 189 54
154 178 88
152 176 92
144 168 108
128 154 129
115 142 144
110 137 148
113 140 147
101 129 156
86 117 168
74 108 174
77 110 173
65 101 178
61 99 180
65 102 179
63 100 179
61 98 180
62 99 181
61 98 180
61 99 181
62 99 181
62 99 181
61 98 181
61 99 181
61 99 181
62 99 180
61 98 180
61 98 180
61 99 181
61 98 181
61 99 181
62 99 179
66 102 179
67 103 178
84 116 167
83 115 169
78 111 169
87 118 165
106 134 153
118 144 141
122 148 136
129 154 126
145 169 104
146 170 101
151 175 89
151 175 90
163 187 65
167 191 44
167 191 44
171 194 26
175 198 0
172 195 0
173 196 0
173 196 0
172 194 0
172 196 0
173 196 0
173 195 0
172 196 0
168 192 0
169 193 0
173 196 0
171 195 0
174 196 0
172 195 0
172 194 0
174 196 0
172 195 0
171 195 0
175 198 0
173 197 0
175 197 0
173 196 0
172 196 0
174 197 0
175 198 0
172 196 0
175 198 0
171 194 0
174 196 0
170 194 0
172 195 0
171 194 0
170 192 11
170 192 19
170 189 32
167 185 32
164 181 34
163 180 36
163 179 40
160 173 48
164 176 54
158 169 53
159 166 63
149 155 54
149 152 64
141 143 64
148 148 74
143 140 76
147 143 72
146 142 84
150 144 86
149 143 85
150 145 86
130 127 73
146 141 87
147 143 91
152 147 91
147 142 89
153 148 94
159 153 96
150 146 94
149 145 93
156 152 97
150 146 94
159 154 97
147 145 94
154 150 98
159 155 101
158 154 100
156 153 99
162 159 104
155 152 101
154 150 97
158 155 103
155 153 101
153 151 101
160 157 104
152 150 100
153 151 101
156 153 102
161 158 105
160 156 104
158 156 104
162 159 105
163 160 107
159 157 106
165 162 106
168 165 110
167 164 109
167 165 110
160 158 106
166 162 107
166 163 109
168 165 110
160 158 107
161 159 107
169 165 110
160 158 106
165 162 108
167 163 108
170 167 112
166 163 109
162 159 107
163 160 108
169 166 111
166 164 110
169 166 110
166 164 109
171 168 112
169 167 111
158 157 105
171 168 112
168 165 110
164 161 108
167 164 109
167 164 109
172 169 113
169 166 110
170 168 112
166 164 110
166 163 108
167 165 110
168 165 110
170 166 110
165 163 109
167 164 109
169 166 111
168 165 109
171 168 112
164 161 107
171 168 112
170 167 111
163 160 107
164 162 108
171 167 110
164 161 106
166 163 108
169 166 110
170 167 110
167 163 108
162 158 104
158 154 101
161 158 104
163 160 106
157 153 101
165 160 103
164 160 104
167 162 106
158 154 100
164 159 104
166 162 106
163 159 103
159 155 101
163 159 101
160 156 103
159 154 100
171 166 105
164 159 101
154 150 96
162 158 99
158 153 97
158 153 99
165 160 101
159 154 97
151 146 90
158 152 93
151 146 91
148 143 91
157 151 92
158 152 96
150 144 87
142 138 85
137 132 81
146 141 85
149 144 87
148 142 84
150 145 84
148 146 75
145 146 68
148 150 68
154 158 67
154 158 72
156 165 57
161 172 53
162 175 45
162 176 44
163 180 34
166 186 25
169 189 28
166 187 22
171 193 11
174 197 0
174 198 0
172 196 0
173 196 0
172 196 0
173 197 0
174 198 0
175 198 0
174 198 0
172 196 0
173 197 0
173 197 0
174 198 0
172 195 0
175 198 0
174 198 0
175 198 0
172 196 0
170 194 0
170 195 0
173 197 0
172 196 0
173 197 0
172 195 0
172 196 0
174 197 0
174 198 0
174 198 0
175 198 0
171 194 0
174 198 0
171 194 0
173 197 0
173 196 0
173 197 0
172 196 0
174 197 0
172 196 0
173 196 0
173 197 0
174 197 0
174 198 0
172 196 0
174 197 0
172 196 0
173 196 0
175 198 0
174 197 0
173 196 0
174 198 0
171 195 0
173 196 0
173 197 0
173 197 0
173 197 0
174 197 0
173 197 0
173 197 0
174 197 0
173 197 0
175 198 0
175 198 0
174 197 0
175 198 0
172 196 0
172 197 0
176 198 0
173 197 0
174 197 0
172 196 0
172 195 0
174 197 0
173 196 0
174 197 0
172 196 0
172 196 0
173 197 0
175 198 0
171 195 0
173 196 0
172 196 0
174 198 0
174 197 0
172 196 0
175 198 0
173 197 0
172 196 0
173 197 0
175 197 0
175 198 0
174 197 0
173 197 0
172 195 0
173 196 0
170 194 0
171 194 0
174 196 0
172 196 0
174 197 0
173 197 0
171 195 0
173 196 0
173 196 0
173 197 0
173 196 0
174 197 0
173 197 0
172 196 0
174 198 0
173 196 0
174 197 0
174 197 0
174 197 0
173 197 0
174 197 0
173 196 0
171 194 0
174 197 0
174 197 0
173 197 0
175 198 0
172 195 0
173 196 0
173 197 0
172 196 0
175 197 0
175 198 0
174 198 0
171 194 0
174 197 0
173 197 0
169 193 0
175 198 0
172 196 0
174 197 0
175 198 0
174 197 0
174 197 0
169 192 0
173 197 0
173 196 0
173 196 0
176 198 0
172 196 0
170 194 0
173 196 0
173 197 0
174 198 0
173 196 0
173 197 0
171 193 0
171 195 0
171 194 18
172 196 25
164 187 47
153 177 92
154 178 92
144 168 105
132 157 122
115 142 142
115 142 144
88 119 164
79 112 171
75 109 174
71 106 173
61 99 180
62 99 180
62 99 181
62 99 181
62 99 181
62 99 181
62 99 181
61 99 181
61 99 181
62 99 181
61 99 181
61 99 181
61 99 181
61 99 181
62 99 181
61 99 181
61 99 180
61 98 181
61 99 181
62 99 181
61 99 181
62 99 181
61 99 181
62 99 181
62 99 180
61 98 180
61 98 179
61 98 179
61 99 180
61 98 179
62 99 180
63 100 180
65 102 179
72 106 173
88 119 166
92 122 161
107 135 151
120 147 136
125 151 132
146 171 103
141 166 110
149 173 100
157 181 79
167 191 51
168 192 41
172 195 0
173 197 0
172 194 0
172 195 0
174 196 0
174 197 0
173 196 0
173 196 0
173 196 0
173 195 0
172 195 0
172 195 0
173 196 0
174 196 0
172 196 0
174 197 0
175 197 0
173 196 0
173 196 0
172 195 0
172 195 0
173 197 0
172 196 0
173 196 0
172 195 0
174 197 0
172 195 0
170 194 0
170 193 0
173 197 0
169 192 0
169 190 11
172 192 22
164 184 22
167 184 32
162 179 39
164 178 48
163 180 39
155 166 46
156 168 42
151 160 55
147 154 58
142 148 53
142 146 63
151 152 77
148 145 77
151 146 81
143 140 79
147 142 78
146 140 82
144 139 80
141 135 80
139 135 80
143 138 85
150 145 90
157 152 95
147 142 87
154 149 95
146 142 94
147 144 91
153 149 94
152 148 94
144 142 92
147 144 92
153 149 97
156 152 99
157 153 102
148 145 98
159 156 102
160 156 101
156 153 101
151 148 98
156 153 102
157 153 103
158 154 103
159 156 105
158 155 104
161 157 104
163 160 105
164 161 107
160 157 106
159 156 104
167 164 109
159 157 106
161 158 106
158 156 104
163 160 107
164 161 107
162 158 104
167 164 109
161 159 106
165 162 108
171 167 110
163 161 108
164 162 108
166 164 110
168 165 110
166 164 109
161 159 106
163 161 108
165 163 110
170 166 111
169 165 110
169 167 111
169 166 111
169 167 112
167 164 110
168 166 111
164 161 107
163 161 108
172 168 112
167 165 110
168 166 111
167 165 110
171 168 112
172 169 113
166 164 109
171 168 112
169 166 110
170 167 111
167 164 109
168 165 110
169 166 111
166 164 109
163 161 108
169 166 110
170 166 110
170 166 110
170 167 110
168 165 110
171 167 111
169 166 111
170 166 110
171 168 111
166 162 108
167 163 106
168 164 109
171 167 110
167 164 109
167 164 108
167 164 108
165 161 106
165 162 107
166 162 106
167 163 107
169 164 108
163 160 105
171 167 109
167 163 108
169 165 109
171 166 108
167 163 106
162 158 103
163 158 101
170 165 106
164 160 104
159 154 99
158 153 100
160 155 102
159 155 100
154 150 96
163 158 98
160 154 97
159 154 96
154 148 93
155 150 95
147 142 86
160 154 95
149 143 88
156 150 96
157 151 92
162 157 93
147 142 90
140 136 81
161 154 96
155 149 85
150 146 82
144 142 76
145 147 61
146 148 68
154 158 67
153 162 54
156 168 44
159 169 49
156 168 48
169 185 41
160 179 22
168 187 32
172 193 16
172 194 19
174 197 0
174 197 0
175 197 0
175 198 0
174 197 0
174 197 0
175 198 0
173 197 0
174 197 0
174 197 0
171 195 0
174 197 0
174 198 0
174 198 0
173 197 0
175 198 0
171 195 0
173 197 0
175 198 0
174 198 0
174 197 0
173 197 0
171 194 0
173 197 0
172 196 0
173 197 0
173 196 0
173 196 0
174 197 0
174 198 0
174 197 0
173 197 0
174 197 0
175 198 0
174 198 0
174 197 0
172 196 0
173 197 0
174 196 0
175 198 0
172 196 0
175 197 0
173 197 0
176 199 0
174 197 0
175 198 0
175 198 0
172 196 0
174 198 0
174 197 0
172 196 0
175 198 0
173 197 0
173 197 0
175 198 0
172 196 0
174 198 0
174 198 0
174 197 0
172 195 0
172 196 0
174 198 0
176 197 0
173 196 0
174 197 0
174 197 0
172 196 0
173 197 0
172 196 0
173 197 0
175 197 0
172 195 0
172 197 0
173 196 0
173 196 0
171 195 0
174 198 0
173 196 0
173 197 0
173 196 0
175 198 0
174 197 0
175 198 0
172 195 0
174 197 0
172 196 0
174 198 0
173 197 0
173 196 0
173 197 0
173 197 0
174 197 0
173 196 0
173 196 0
174 197 0
170 194 0
173 195 0
173 195 0
174 197 0
174 197 0
173 196 0
175 197 0
173 197 0
170 194 0
173 197 0
174 197 0
172 194 0
172 195 0
172 196 0
174 198 0
173 196 0
172 195 0
174 198 0
172 196 0
171 194 0
173 197 0
176 199 0
172 196 0
175 197 0
173 196 0
175 198 0
173 196 0
174 197 0
172 195 0
173 196 0
173 197 0
171 195 0
175 198 0
172 195 0
174 197 0
173 196 0
172 195 0
173 197 0
173 197 0
174 196 0
172 195 0
172 195 0
172 195 0
174 198 0
173 196 0
172 196 0
173 195 0
172 195 0
172 195 0
171 194 0
174 197 0
172 195 0
173 196 0
173 196 0
172 196 18
170 194 36
162 186 67
157 181 84
139 164 114
136 162 114
136 160 122
119 146 140
94 124 161
88 119 165
70 105 176
64 100 180
62 99 181
61 99 181
62 99 180
61 98 181
61 99 181
62 99 181
62 99 181
62 99 181
61 99 181
61 99 181
61 98 181
62 99 181
62 99 181
62 99 181
61 98 181
61 99 181
61 98 181
61 99 181
61 99 181
61 99 181
61 99 181
62 99 181
61 99 181
61 99 181
62 99 180
61 99 181
62 99 181
61 99 181
62 99 180
61 99 181
62 99 180
62 99 181
61 98 178
62 99 180
62 99 180
62 99 180
61 98 180
61 98 180
61 98 177
62 98 177
70 105 176
71 105 171
72 105 174
93 123 160
109 136 149
114 142 142
125 151 132
146 170 107
151 175 90
148 172 87
167 189 51
173 196 8
169 193 19
169 193 0
172 196 0
171 195 0
174 197 0
173 196 0
173 196 0
174 197 0
173 196 0
173 196 0
170 193 0
174 196 0
173 196 0
172 195 0
174 196 0
171 193 0
174 196 0
173 196 0
173 197 0
173 195 0
172 194 0
174 197 0
175 198 0
171 194 0
170 193 0
171 194 0
170 193 0
173 195 11
172 194 16
169 189 28
170 189 28
170 190 28
162 180 36
158 175 37
157 173 32
153 162 52
154 162 54
146 151 65
151 160 54
150 152 66
154 153 78
149 150 74
147 145 76
142 139 82
150 143 84
147 143 87
141 136 82
140 136 82
145 141 83
145 140 85
149 144 90
147 143 89
144 140 90
153 148 95
148 144 94
145 141 91
158 154 100
152 148 96
145 141 92
153 149 98
149 145 94
139 136 89
153 150 99
150 147 95
160 156 103
154 150 99
157 154 103
166 162 107
163 159 105
158 155 102
153 150 100
152 150 100
156 153 102
159 156 102
156 154 104
162 159 105
156 152 101
164 161 107
161 159 106
162 159 107
164 161 108
158 156 105
165 163 108
161 158 105
160 158 106
163 160 107
166 164 110
161 158 106
167 164 109
169 166 111
168 165 110
163 161 108
166 164 110
164 161 108
166 163 108
167 164 110
165 162 109
169 166 111
166 164 109
165 163 109
168 165 110
168 165 110
163 160 107
169 166 110
172 170 113
171 169 113
169 165 110
170 167 112
171 168 112
168 164 109
171 167 111
170 169 113
168 165 110
169 166 110
170 168 112
166 164 109
172 169 112
168 165 110
168 164 109
165 162 108
172 169 113
169 166 110
170 166 110
168 165 110
164 162 109
168 165 110
168 166 110
169 165 110
168 165 110
164 162 108
166 162 106
167 165 109
168 164 109
165 162 107
162 159 104
167 164 108
166 162 108
164 160 104
173 169 112
164 160 105
163 159 104
168 164 107
163 158 101
163 160 104
164 162 106
162 157 101
162 157 103
159 155 101
164 160 103
166 161 104
161 157 101
164 159 101
157 153 98
166 161 103
162 157 101
158 153 99
164 159 101
164 159 101
162 157 99
153 149 95
155 150 94
158 152 93
164 158 95
159 154 97
154 149 93
155 150 89
159 153 93
146 141 87
148 142 84
151 145 88
145 139 83
154 148 91
150 144 83
150 145 83
148 147 81
157 155 81
152 151 77
159 162 69
152 158 54
161 167 65
162 174 49
155 168 42
168 183 45
165 180 44
167 186 28
167 187 19
173 194 19
174 197 11
172 196 0
173 197 0
174 197 0
172 195 0
172 196 0
173 197 0
174 198 0
174 198 0
173 196 0
173 196 0
174 197 0
174 197 0
174 197 0
173 196 0
173 196 0
174 197 0
174 197 0
175 198 0
172 195 0
171 195 0
171 195 0
173 197 0
173 197 0
172 196 0
173 197 0
174 197 0
173 197 0
172 196 0
173 197 0
174 197 0
175 198 0
174 197 0
175 198 0
171 195 0
175 198 0
170 193 0
173 197 0
174 197 0
173 197 0
174 197 0
174 198 0
171 195 0
173 196 0
171 195 0
171 195 0
174 197 0
173 197 0
171 195 0
174 197 0
172 196 0
171 195 0
173 197 0
174 197 0
172 195 0
173 196 0
173 196 0
171 195 0
173 196 0
174 196 0
175 198 0
173 196 0
174 197 0
174 197 0
175 198 0
174 198 0
173 196 0
173 194 0
174 197 0
173 196 0
172 195 0
172 196 0
172 196 0
174 197 0
173 197 0
175 198 0
171 194 0
172 195 0
173 197 0
174 198 0
171 195 0
173 197 0
175 198 0
174 197 0
173 196 0
173 196 0
174 197 0
174 197 0
175 198 0
173 197 0
171 195 0
173 197 0
171 195 0
175 198 0
173 197 0
175 198 0
172 196 0
172 195 0
175 198 0
173 197 0
171 194 0
174 198 0
175 198 0
173 196 0
174 197 0
172 195 0
173 197 0
174 197 0
173 196 0
172 195 0
173 197 0
172 196 0
170 194 0
174 197 0
172 195 0
174 198 0
172 196 0
171 196 0
171 195 0
174 197 0
170 193 0
173 196 0
173 196 0
174 197 0
173 196 0
173 196 0
174 197 0
173 196 0
174 198 0
174 197 0
173 197 0
173 196 0
172 196 0
174 197 0
171 195 0
169 192 0
174 196 0
175 198 0
170 192 0
172 197 0
172 196 0
174 197 0
170 193 0
172 195 0
172 195 0
174 197 0
172 195 18
170 193 36
167 190 51
159 181 82
149 173 99
138 163 115
108 135 149
100 129 155
94 124 160
70 104 176
64 101 179
61 99 180
62 99 181
62 99 181
62 99 181
61 99 181
62 99 181
62 99 181
61 99 181
61 99 181
61 99 180
61 99 181
61 99 181
61 99 181
61 99 181
61 98 181
62 99 181
62 99 181
62 99 181
61 98 181
61 99 181
61 99 181
62 99 181
61 99 181
62 99 181
62 99 181
62 99 181
62 99 181
61 99 181
62 99 181
61 99 181
62 99 181
62 99 181
61 98 181
62 99 181
61 99 181
61 98 179
61 98 179
61 98 181
61 99 181
62 99 180
61 98 180
62 99 180
62 99 180
62 98 179
61 98 180
61 99 180
62 98 177
61 98 176
65 101 178
72 106 174
92 121 163
109 136 149
113 140 142
136 160 114
143 167 101
151 175 92
161 184 72
169 193 36
172 195 18
173 196 18
173 196 0
172 193 0
170 193 0
172 196 0
173 197 0
170 194 0
171 194 0
172 196 0
174 198 0
172 196 0
171 195 0
170 193 0
170 194 0
172 195 0
172 194 0
169 193 0
170 193 0
172 195 0
170 194 0
170 193 0
174 196 0
171 194 0
173 196 11
169 190 16
170 192 19
166 186 28
160 179 30
159 177 25
163 178 37
161 175 41
163 176 45
157 169 47
156 164 57
154 162 58
152 157 64
151 157 66
150 152 72
155 155 77
150 149 80
141 137 79
140 136 75
146 140 83
149 144 88
152 146 90
143 138 82
154 148 92
147 143 88
147 142 90
150 145 87
157 153 97
152 147 94
148 144 93
154 149 96
152 148 94
155 151 96
155 152 99
157 153 100
155 151 96
156 152 97
161 156 103
151 149 97
153 150 99
150 147 97
153 150 99
149 147 96
155 152 100
154 151 100
149 147 99
158 156 104
156 153 102
159 156 103
162 158 104
158 155 103
161 158 106
157 154 103
159 157 106
155 153 104
160 157 105
162 159 106
162 160 107
163 160 107
161 159 107
167 164 109
166 163 108
160 158 106
164 162 108
163 161 108
167 164 109
174 170 113
168 165 110
166 164 109
167 164 109
164 162 108
168 165 110
169 166 110
162 160 107
168 166 110
169 166 111
169 167 112
170 168 112
168 166 111
165 162 108
170 167 110
167 164 110
166 163 108
168 165 110
165 163 109
169 166 110
168 165 110
170 167 111
171 168 112
171 168 112
171 169 112
169 167 111
165 162 108
166 164 109
171 167 111
167 164 109
168 164 109
169 166 109
168 166 110
173 169 112
168 165 110
166 163 108
170 167 110
169 165 109
168 164 109
170 167 110
167 164 108
173 169 112
163 160 106
159 157 104
166 163 108
171 167 110
165 162 107
168 164 108
164 160 103
170 165 109
172 167 110
167 162 106
169 164 106
164 160 104
162 159 101
162 158 103
164 160 102
159 155 101
159 154 100
163 159 103
165 160 103
159 155 99
156 151 99
164 159 101
163 156 99
168 163 104
159 154 96
160 155 97
153 148 93
159 153 95
158 152 95
160 154 93
162 156 96
163 157 95
151 147 87
155 149 93
153 147 87
157 150 87
149 142 85
148 143 84
157 150 88
139 134 79
154 150 84
145 143 75
149 148 74
155 158 68
156 164 56
157 165 58
163 173 57
161 173 51
165 180 42
165 181 32
168 188 22
169 189 22
172 193 19
171 194 11
172 196 0
172 196 0
174 198 0
173 196 0
173 197 0
173 196 0
175 198 0
173 196 0
176 198 0
173 197 0
173 197 0
175 198 0
175 198 0
173 197 0
175 197 0
174 197 0
172 196 0
174 197 0
176 199 0
173 196 0
174 197 0
173 196 0
176 198 0
173 197 0
173 197 0
172 196 0
173 196 0
175 198 0
176 199 0
172 196 0
173 197 0
173 197 0
173 197 0
175 198 0
173 197 0
173 196 0
174 198 0
174 198 0
173 196 0
172 196 0
170 195 0
174 197 0
175 197 0
175 198 0
172 196 0
172 195 0
173 197 0
173 197 0
174 197 0
173 196 0
172 195 0
176 198 0
174 198 0
172 195 0
174 197 0
174 198 0
173 197 0
172 195 0
173 197 0
172 196 0
172 196 0
174 197 0
174 197 0
175 198 0
174 197 0
174 198 0
173 196 0
174 197 0
172 195 0
173 197 0
173 197 0
172 196 0
174 197 0
174 197 0
172 196 0
172 195 0
172 196 0
172 195 0
174 197 0
174 197 0
174 198 0
174 197 0
172 196 0
172 196 0
174 197 0
175 198 0
174 198 0
173 196 0
175 197 0
173 196 0
175 198 0
173 196 0
173 197 0
171 195 0
172 195 0
174 198 0
175 198 0
174 197 0
171 195 0
171 195 0
173 196 0
173 197 0
172 196 0
174 197 0
175 198 0
175 197 0
174 197 0
172 194 0
173 197 0
174 197 0
173 196 0
175 198 0
171 195 0
174 197 0
174 197 0
172 195 0
175 197 0
174 197 0
172 195 0
172 195 0
173 196 0
174 197 0
171 195 0
171 195 0
168 193 0
173 196 0
175 198 0
173 197 0
173 197 0
172 195 0
172 195 0
174 197 0
173 196 0
173 197 0
173 196 0
171 195 0
174 197 0
173 197 0
173 197 0
171 194 0
171 195 0
171 194 0
174 197 0
173 196 0
168 191 47
164 188 62
150 174 94
136 161 120
126 152 130
107 135 151
85 116 169
65 101 177
64 100 179
62 99 179
62 99 180
61 99 181
62 99 180
61 99 181
61 98 181
62 99 181
61 99 181
62 99 181
61 99 181
62 99 181
61 99 181
61 99 181
61 99 181
62 99 181
61 98 181
61 99 181
62 99 181
61 99 181
61 99 181
61 99 181
61 99 181
62 99 181
61 99 181
61 99 181
61 99 181
61 98 181
61 99 181
61 98 181
61 98 181
62 99 181
61 99 181
61 98 180
61 98 181
61 99 181
62 99 181
61 99 181
61 99 181
62 99 181
61 98 181
62 99 181
61 99 181
61 99 181
62 99 181
61 98 181
61 98 179
62 99 179
62 99 180
61 99 181
61 98 179
62 99 181
62 99 181
62 99 178
61 98 178
62 99 179
67 103 176
81 113 169
114 141 143
112 139 146
129 154 125
146 170 104
153 177 80
163 186 63
170 194 40
171 195 18
173 196 0
170 194 0
172 194 0
173 196 0
171 195 0
171 195 0
171 194 0
173 196 0
174 197 0
175 198 0
173 196 0
172 195 0
174 197 0
172 194 0
173 195 0
173 196 0
172 195 0
172 195 0
173 196 0
172 195 0
170 193 0
170 192 19
165 184 30
165 184 30
159 177 28
158 174 37
158 174 41
158 169 54
157 168 52
160 169 58
149 155 56
155 159 70
145 151 60
151 150 68
151 151 74
140 138 68
144 142 78
139 135 76
152 147 89
153 147 91
143 137 82
152 146 91
141 136 83
142 138 86
142 138 89
145 141 90
157 152 94
148 143 91
152 147 95
148 144 92
163 158 101
149 145 94
158 154 100
154 150 97
157 153 101
151 147 95
150 147 96
146 145 94
153 150 99
152 149 100
157 154 101
158 154 102
161 157 103
152 150 99
158 155 102
156 153 102
160 157 105
161 158 106
158 155 104
157 154 103
154 152 103
158 156 106
160 157 105
149 148 100
162 158 105
168 165 109
168 164 108
160 158 106
164 161 108
164 160 107
157 155 104
162 160 108
162 160 108
168 164 110
167 164 110
161 158 105
165 163 110
167 165 110
164 162 108
166 164 110
168 165 110
170 167 111
171 167 111
169 167 111
169 166 111
172 169 112
163 160 106
168 165 110
168 165 110
164 161 108
166 163 108
171 168 112
167 164 109
167 166 111
170 167 111
172 169 112
170 167 112
169 166 111
167 164 108
171 167 110
168 165 110
173 170 113
173 169 112
166 163 108
170 167 110
169 165 109
171 167 111
172 168 110
169 165 110
166 164 109
171 167 110
172 169 112
170 166 110
167 163 108
162 159 104
163 160 106
163 159 104
165 162 106
166 162 106
169 164 107
163 158 104
170 165 108
173 167 109
160 157 104
172 167 109
162 159 104
172 167 107
166 163 106
161 157 101
168 163 105
168 163 106
166 162 105
165 161 103
164 160 104
164 159 103
164 160 103
164 158 97
157 152 95
160 155 98
168 163 106
157 153 98
163 157 99
161 155 100
160 155 97
163 158 98
160 155 98
161 156 96
155 150 94
155 149 89
152 148 90
156 150 93
148 142 82
149 144 85
156 151 92
150 143 85
154 148 85
151 145 84
158 152 90
155 149 86
139 137 73
140 137 72
146 147 70
153 156 64
151 157 61
154 162 58
159 173 44
162 175 47
163 180 41
166 182 34
169 189 30
170 192 16
171 194 16
173 196 11
174 197 0
174 197 0
174 196 0
173 196 0
174 198 0
172 196 0
173 197 0
173 197 0
174 197 0
173 197 0
174 197 0
172 196 0
174 197 0
174 197 0
175 198 0
175 198 0
174 197 0
172 196 0
173 197 0
175 198 0
172 195 0
172 196 0
174 198 0
174 197 0
172 196 0
173 197 0
174 197 0
173 196 0
174 198 0
172 196 0
175 198 0
175 198 0
173 196 0
172 195 0
174 198 0
174 197 0
172 196 0
173 196 0
174 197 0
173 196 0
172 196 0
174 198 0
172 196 0
175 198 0
172 196 0
173 197 0
172 195 0
174 197 0
173 196 0
171 195 0
171 195 0
173 197 0
173 196 0
174 197 0
175 198 0
174 197 0
172 196 0
171 195 0
175 198 0
173 197 0
172 196 0
174 198 0
173 196 0
173 196 0
173 197 0
173 196 0
173 196 0
172 196 0
172 195 0
174 198 0
175 197 0
172 196 0
172 196 0
174 197 0
174 197 0
173 196 0
171 195 0
173 196 0
173 196 0
174 196 0
175 198 0
173 196 0
174 198 0
173 196 0
172 196 0
172 196 0
171 195 0
173 196 0
173 197 0
168 192 0
170 194 0
174 198 0
174 197 0
174 197 0
173 196 0
172 196 0
172 195 0
172 195 0
172 195 0
173 196 0
173 197 0
171 194 0
175 198 0
175 198 0
173 196 0
174 196 0
175 197 0
173 196 0
172 196 0
172 196 0
171 195 0
174 196 0
172 196 0
174 197 0
173 196 0
170 194 0
173 196 0
175 197 0
172 196 0
170 194 0
174 197 0
174 197 0
175 198 0
173 196 0
175 198 0
175 198 0
172 195 0
173 197 0
170 194 0
174 197 0
173 196 0
173 196 0
174 197 0
171 195 0
173 196 0
174 196 0
174 198 0
175 197 0
173 196 0
173 197 0
172 195 18
165 188 60
152 177 88
141 165 113
133 158 118
121 147 139
93 123 162
87 118 167
61 99 180
61 99 181
62 99 181
62 99 181
61 99 181
62 99 181
61 98 181
62 99 181
61 99 181
61 98 181
62 99 181
62 99 181
61 99 181
61 99 181
61 99 181
61 99 181
61 99 181
61 99 181
61 99 181
61 98 181
62 99 181
62 99 181
61 98 181
61 98 181
61 98 181
61 99 181
61 99 181
61 99 181
61 98 181
61 98 181
61 99 181
61 99 181
61 98 181
62 99 181
62 99 181
61 98 181
62 99 181
61 98 180
62 99 181
61 99 181
62 99 181
62 99 181
62 99 181
62 99 180
62 99 181
61 98 180
62 99 181
61 98 180
61 99 181
62 99 180
61 99 181
61 99 181
61 99 181
62 99 180
61 99 180
62 99 180
61 98 179
61 98 179
62 99 180
61 98 179
62 99 179
64 100 177
77 110 172
87 118 163
109 136 147
128 153 127
138 162 114
151 175 95
154 176 78
163 185 54
168 192 40
173 196 0
173 196 0
171 194 0
173 196 0
172 195 0
174 197 0
172 196 0
169 192 0
172 195 0
173 196 0
168 190 0
173 195 0
172 195 0
172 195 0
173 196 0
172 195 0
173 197 0
169 191 0
169 192 0
170 190 16
170 189 22
160 179 32
164 181 32
161 179 30
161 176 37
152 162 51
158 168 56
153 163 45
156 163 64
145 147 64
148 153 63
145 144 74
144 141 76
159 154 86
144 139 77
142 137 83
152 147 86
155 150 88
155 149 90
146 141 88
143 138 84
149 145 86
141 138 86
144 141 87
140 136 85
155 150 97
150 146 94
149 145 93
151 147 94
150 147 95
153 149 98
153 149 98
157 152 98
153 149 98
155 152 100
161 157 103
157 153 100
159 155 101
159 156 102
156 153 102
150 148 100
154 151 102
164 159 106
158 155 103
163 159 105
159 156 104
161 157 105
160 158 106
163 160 108
160 158 106
156 153 103
164 161 108
161 159 107
163 160 108
161 157 104
158 156 105
161 159 106
158 155 104
163 160 106
164 161 108
164 161 109
164 162 109
172 169 112
164 161 108
168 165 110
171 167 111
162 160 107
163 160 107
169 166 110
169 166 111
165 163 109
171 167 111
166 163 109
171 168 112
174 171 114
171 168 112
169 168 112
171 169 112
169 166 111
168 165 110
170 166 110
170 167 111
172 170 113
172 168 111
164 162 108
172 169 112
164 161 106
172 168 111
166 163 109
164 161 107
170 167 112
172 169 111
172 168 111
171 168 112
173 170 113
166 163 109
171 168 111
172 169 112
170 167 110
171 167 110
169 165 108
169 165 109
168 165 109
169 166 110
168 165 108
170 166 109
174 170 113
169 164 106
170 165 108
163 159 105
167 162 105
165 162 107
168 163 105
167 164 106
170 166 108
165 161 103
163 160 103
166 161 105
169 165 107
168 164 108
169 163 106
170 164 106
169 164 103
163 159 101
157 154 98
168 163 103
160 155 97
167 162 103
167 162 106
165 159 101
166 161 98
161 155 97
164 159 101
160 154 97
157 152 95
167 161 102
154 148 91
146 140 86
161 155 93
159 153 88
159 153 95
159 153 92
147 142 82
146 140 80
150 144 86
151 145 84
160 154 94
145 141 76
145 146 62
153 152 79
148 150 63
151 155 63
148 157 51
156 165 58
154 167 42
158 169 51
163 181 25
168 188 22
168 188 22
171 194 0
170 193 16
174 198 0
175 198 0
176 198 0
173 197 0
173 196 0
172 196 0
174 197 0
173 197 0
173 197 0
171 195 0
173 196 0
171 195 0
174 197 0
173 197 0
173 197 0
173 197 0
172 196 0
172 196 0
174 198 0
173 196 0
174 197 0
174 198 0
173 197 0
172 196 0
174 198 0
175 198 0
175 197 0
173 197 0
175 198 0
172 195 0
174 198 0
173 196 0
172 196 0
173 197 0
174 197 0
173 196 0
174 198 0
172 195 0
175 198 0
175 198 0
174 198 0
172 196 0
173 197 0
174 197 0
173 197 0
173 196 0
173 197 0
173 196 0
173 196 0
172 196 0
175 198 0
172 196 0
172 196 0
174 197 0
175 198 0
175 198 0
174 197 0
174 197 0
172 195 0
173 197 0
170 194 0
173 196 0
171 194 0
172 196 0
173 196 0
173 196 0
173 197 0
173 196 0
173 197 0
172 195 0
172 195 0
173 196 0
173 196 0
174 197 0
173 197 0
171 195 0
175 198 0
175 197 0
173 196 0
173 197 0
173 197 0
176 198 0
171 194 0
172 195 0
174 197 0
175 198 0
171 195 0
170 194 0
171 194 0
174 197 0
173 195 0
171 195 0
175 198 0
175 198 0
175 198 0
172 195 0
173 197 0
174 197 0
175 198 0
172 196 0
171 195 0
174 197 0
172 196 0
170 192 0
170 192 0
174 198 0
176 199 0
170 193 0
173 196 0
174 197 0
174 197 0
173 196 0
171 194 0
173 196 0
171 194 0
172 195 0
174 197 0
172 196 0
175 198 0
173 196 0
174 198 0
173 197 0
174 197 0
173 196 0
173 196 0
174 197 0
174 197 0
171 195 0
175 197 0
172 196 0
174 197 0
172 195 0
173 196 0
173 196 0
172 196 0
173 197 0
174 197 0
173 196 18
173 196 25
169 192 40
155 179 82
141 165 114
124 150 131
108 135 152
85 116 167
66 102 179
64 100 179
61 98 180
62 99 181
61 99 181
62 99 181
62 99 181
61 98 180
61 99 181
62 99 181
61 99 181
62 99 181
62 99 181
62 99 181
61 99 181
61 98 181
62 99 181
61 99 181
61 99 181
61 99 181
62 99 181
61 99 181
61 99 181
61 99 181
61 99 181
61 98 181
62 99 181
61 98 181
61 99 181
61 99 181
61 98 181
62 99 181
62 99 181
61 98 181
62 99 181
61 99 181
61 99 181
62 99 181
62 99 181
61 98 181
61 98 181
61 99 181
61 98 181
61 99 181
61 99 181
61 98 181
61 98 181
62 99 181
61 99 181
62 99 181
62 99 180
62 99 181
61 98 181
61 99 180
62 99 180
61 99 181
61 99 180
62 99 180
61 98 179
62 99 181
61 98 176
61 98 178
62 99 179
62 99 180
62 99 178
61 97 175
61 98 177
68 103 174
72 106 173
100 129 157
126 152 130
137 161 115
150 172 91
163 186 67
163 186 48
167 191 31
172 195 0
171 194 0
170 194 0
173 195 0
173 196 0
173 196 0
173 195 0
169 193 0
172 196 0
173 195 0
172 196 0
171 193 0
173 196 0
173 196 0
172 196 0
172 195 11
163 184 19
168 189 16
164 182 32
167 184 37
162 178 37
157 173 32
161 177 38
151 158 60
154 164 55
150 158 57
153 158 66
145 147 61
143 148 62
144 148 64
149 146 77
147 143 79
141 138 76
133 130 75
146 140 81
144 140 87
152 146 89
145 141 89
139 135 86
153 147 91
146 141 89
150 146 92
151 146 92
146 142 89
147 143 90
150 147 97
152 148 97
143 140 93
153 149 98
165 161 104
153 150 98
149 147 99
157 152 100
147 143 93
160 156 102
162 158 104
150 147 98
153 151 100
158 154 103
155 152 100
159 155 102
152 149 100
156 153 103
160 158 106
150 148 99
160 157 106
169 165 110
160 157 105
161 158 105
164 161 107
168 164 108
159 157 106
166 161 107
164 161 107
168 166 110
161 159 106
165 162 109
165 163 109
156 154 103
169 166 110
168 165 110
165 163 110
167 164 109
164 161 107
165 163 110
164 161 107
163 161 108
168 164 109
167 164 110
168 165 110
167 164 109
173 170 113
167 164 110
170 167 111
166 164 110
172 168 112
173 170 113
174 170 113
168 165 110
173 170 113
168 164 109
172 168 112
167 165 110
171 168 111
171 167 110
173 170 113
170 166 110
169 166 110
171 166 110
167 164 109
171 167 111
175 171 113
172 169 112
169 166 110
172 169 112
173 170 113
170 165 108
166 162 108
169 165 109
168 165 108
170 166 108
163 160 106
164 161 103
169 166 108
169 165 109
168 164 107
163 160 104
170 166 108
171 167 110
171 167 108
165 161 103
165 162 106
162 158 104
160 156 103
165 161 105
165 161 104
171 166 107
165 160 104
166 161 103
170 165 105
167 163 104
163 159 100
160 155 98
159 154 97
163 159 103
161 158 104
163 157 99
162 157 95
159 154 95
158 153 97
163 157 101
158 154 94
148 144 90
148 144 86
154 148 92
155 150 92
155 150 90
154 149 87
160 155 96
159 152 93
149 144 81
159 152 90
154 148 88
141 136 80
141 136 80
149 144 79
137 133 73
142 142 69
147 149 66
148 151 68
157 164 65
155 163 57
160 173 45
162 174 45
169 185 39
162 182 19
171 191 32
168 190 16
174 195 19
174 197 0
172 196 0
172 195 0
174 198 0
175 198 0
174 197 0
174 198 0
173 197 0
173 196 0
171 195 0
172 196 0
174 198 0
173 196 0
173 196 0
172 196 0
172 196 0
175 198 0
172 196 0
175 198 0
175 198 0
174 197 0
172 196 0
174 197 0
174 197 0
175 198 0
172 195 0
175 198 0
175 198 0
175 198 0
174 197 0
172 196 0
172 195 0
172 196 0
173 197 0
174 197 0
172 196 0
172 196 0
175 198 0
174 197 0
175 198 0
174 198 0
173 196 0
174 197 0
172 196 0
174 197 0
171 195 0
172 196 0
175 198 0
174 198 0
172 195 0
173 197 0
175 198 0
175 198 0
174 197 0
174 197 0
173 197 0
174 197 0
171 194 0
174 197 0
172 196 0
172 196 0
171 195 0
173 197 0
169 193 0
172 196 0
172 195 0
174 197 0
174 197 0
172 197 0
172 197 0
174 197 0
173 197 0
173 196 0
172 195 0
172 195 0
174 197 0
174 197 0
174 197 0
172 196 0
174 197 0
174 197 0
174 197 0
174 197 0
173 196 0
172 195 0
173 197 0
174 197 0
173 196 0
171 195 0
172 196 0
172 196 0
171 195 0
174 197 0
173 197 0
172 196 0
174 197 0
171 195 0
171 195 0
172 195 0
172 195 0
174 197 0
174 197 0
172 195 0
173 196 0
172 195 0
172 195 0
173 197 0
172 195 0
173 196 0
173 196 0
173 196 0
174 197 0
172 195 0
171 195 0
174 197 0
172 195 0
170 194 0
174 197 0
174 198 0
174 197 0
172 196 0
175 198 0
172 195 0
169 192 0
173 197 0
172 196 0
172 196 0
174 197 0
173 196 0
172 196 0
175 198 0
173 196 0
169 192 0
172 195 0
173 196 0
171 195 0
174 197 25
169 192 40
157 181 76
142 167 108
133 158 124
101 130 157
78 111 170
62 99 181
62 99 179
62 99 181
62 99 181
62 99 180
61 98 181
61 98 180
61 98 181
62 99 181
61 98 181
62 99 181
61 99 181
61 98 181
62 99 181
61 99 181
62 99 181
62 99 181
62 99 181
62 99 181
61 98 181
61 99 181
61 99 181
61 99 181
61 99 181
61 99 181
61 99 181
62 99 181
61 99 181
61 98 181
62 99 181
61 99 181
61 99 181
61 98 181
62 99 181
61 99 181
61 99 181
62 99 181
61 99 181
60 98 181
61 99 181
61 98 181
61 99 181
62 99 181
62 99 181
61 99 181
62 99 181
61 99 180
61 99 181
62 99 180
62 99 181
62 99 181
62 99 181
61 99 181
61 99 181
61 98 178
61 98 180
62 99 181
61 99 181
62 99 181
61 99 180
61 99 181
61 99 181
62 99 181
62 99 181
61 98 180
62 99 179
61 98 177
61 98 177
62 99 180
62 99 178
62 99 179
66 101 175
71 104 170
102 130 152
117 143 139
125 150 129
148 173 96
161 185 60
170 192 26
171 194 0
170 193 0
175 198 0
172 196 0
170 192 0
173 195 0
173 196 0
173 196 0
171 195 0
172 196 0
173 196 0
171 193 0
172 194 0
172 196 0
172 193 16
169 191 16
166 185 32
168 187 28
161 180 31
164 183 25
159 174 34
156 169 37
152 161 52
154 160 61
150 156 58
147 152 59
139 144 64
147 147 71
136 136 68
148 147 75
140 135 74
149 143 85
138 133 74
135 131 79
142 138 82
148 142 88
142 138 88
149 144 88
143 138 89
150 146 88
159 154 97
145 142 91
148 143 90
139 135 88
152 148 93
150 146 97
149 146 95
148 144 93
146 144 98
145 142 94
156 153 101
150 147 98
145 141 94
149 146 93
148 145 96
155 151 100
154 151 101
154 151 100
156 153 100
155 152 101
156 153 102
150 148 100
158 155 104
162 160 106
160 156 104
159 157 105
162 159 106
164 161 107
155 153 103
163 161 108
160 158 105
162 160 107
165 161 108
162 160 108
165 163 109
159 156 104
165 162 108
159 156 104
165 162 108
163 160 107
170 166 110
165 162 108
168 165 110
163 160 107
171 168 112
168 164 109
167 163 108
171 168 112
165 162 108
167 164 109
169 166 111
169 166 110
165 162 108
169 166 110
172 168 112
169 167 111
170 166 110
170 166 110
166 164 109
169 166 111
166 162 108
171 168 112
171 168 111
173 169 112
170 167 111
169 166 110
173 170 112
171 167 109
171 167 111
170 166 110
172 169 112
170 167 110
170 167 109
171 167 109
170 167 109
165 163 108
168 165 110
173 168 109
167 164 108
171 168 111
166 162 106
160 156 102
170 167 110
169 165 108
171 166 109
168 165 109
169 165 109
173 168 108
170 165 108
168 164 108
167 164 108
162 158 102
164 160 105
160 155 101
168 163 103
163 159 102
162 157 102
162 157 102
168 164 106
169 164 103
168 163 103
153 149 94
164 159 101
166 160 99
159 155 98
169 163 104
162 157 100
160 155 99
163 158 97
158 153 95
162 156 99
161 155 95
152 147 93
165 159 96
164 158 96
147 142 88
160 153 92
149 144 84
154 148 91
158 151 93
156 150 90
153 148 88
142 136 81
143 137 80
141 136 76
150 144 83
146 145 69
148 148 73
146 148 63
153 159 59
158 166 57
155 164 57
164 176 57
165 181 41
164 182 36
168 188 30
171 193 19
171 193 11
174 196 11
173 196 0
169 193 0
175 198 0
175 198 0
174 197 0
171 195 0
174 197 0
174 197 0
174 197 0
173 197 0
175 198 0
174 197 0
173 197 0
172 196 0
176 199 0
174 198 0
174 196 0
174 197 0
172 195 0
172 195 0
173 196 0
174 198 0
175 198 0
173 196 0
175 198 0
173 197 0
175 198 0
171 195 0
172 195 0
174 198 0
173 196 0
173 197 0
172 196 0
173 196 0
175 198 0
174 197 0
172 196 0
173 197 0
174 197 0
173 196 0
173 197 0
174 197 0
173 197 0
171 195 0
174 198 0
173 196 0
174 197 0
173 197 0
174 197 0
175 198 0
174 197 0
173 196 0
174 197 0
175 198 0
174 197 0
173 197 0
173 197 0
172 196 0
171 194 0
171 195 0
174 197 0
175 198 0
173 196 0
174 197 0
175 198 0
175 198 0
174 197 0
174 197 0
174 197 0
175 198 0
175 198 0
174 198 0
172 196 0
174 197 0
173 197 0
172 196 0
175 198 0
172 195 0
172 196 0
174 197 0
172 196 0
174 198 0
173 197 0
172 195 0
173 196 0
175 197 0
170 195 0
174 197 0
171 195 0
174 198 0
174 197 0
173 197 0
172 195 0
173 197 0
173 197 0
170 194 0
173 197 0
173 196 0
173 197 0
172 195 0
172 196 0
174 198 0
171 195 0
172 195 0
173 195 0
173 196 0
171 194 0
168 191 0
174 197 0
172 195 0
174 197 0
174 197 0
172 196 0
171 194 0
173 197 0
170 195 0
171 194 0
176 198 0
174 196 0
173 196 0
173 196 0
173 196 0
170 193 0
173 196 0
171 195 0
172 195 0
173 196 0
172 195 0
171 195 0
175 198 0
171 194 0
172 195 0
169 193 0
171 194 25
168 191 51
155 179 82
144 168 103
131 156 128
88 119 167
81 113 170
66 102 179
62 99 181
62 99 181
61 99 181
62 99 181
61 98 181
62 99 181
62 99 181
61 99 180
61 99 181
62 99 181
62 99 181
62 99 181
61 99 181
62 99 181
62 99 181
61 99 181
61 98 181
62 99 181
61 99 181
62 99 181
61 98 181
62 99 181
62 99 181
62 99 181
61 99 181
62 99 181
61 98 181
61 99 181
62 99 181
62 99 181
61 99 181
62 99 181
61 98 181
61 98 181
62 99 181
61 99 181
62 99 181
62 99 181
61 99 181
61 98 181
61 99 181
62 99 181
61 99 181
61 99 181
62 99 181
61 99 181
62 99 181
62 99 181
62 99 181
61 98 181
62 99 181
61 99 181
62 99 181
61 99 181
61 99 181
61 99 181
62 99 181
62 99 181
62 99 181
62 99 181
62 99 181
61 99 180
62 99 180
61 98 175
61 98 179
61 98 178
62 98 177
62 99 181
61 98 179
62 99 179
61 98 177
62 99 179
61 98 178
62 99 180
63 99 175
67 102 174
98 126 154
110 138 145
135 160 121
147 170 102
159 183 71
167 190 19
171 195 18
173 196 0
173 195 0
169 193 0
173 195 0
170 194 0
172 195 0
171 195 0
171 194 0
173 196 0
171 194 0
169 192 0
171 193 11
172 193 19
165 185 22
165 185 25
162 179 29
163 180 38
153 165 41
156 166 49
158 168 57
151 159 53
154 162 53
139 146 50
149 152 66
146 143 77
149 144 81
143 139 75
145 142 79
128 124 73
144 140 83
149 145 86
141 136 81
145 141 85
154 149 93
141 136 84
138 135 86
148 144 90
142 139 86
151 148 97
139 136 88
148 145 93
147 143 92
144 142 94
145 142 94
152 147 96
148 145 97
143 140 92
144 141 92
155 151 101
151 148 99
147 145 98
147 145 97
162 159 104
154 151 100
154 152 100
159 156 104
155 152 102
157 154 102
161 158 105
161 158 106
157 155 105
158 155 102
159 157 106
157 155 105
158 156 104
162 159 106
153 151 102
161 158 106
165 162 108
158 155 104
156 154 104
168 165 110
164 162 108
167 165 110
164 162 108
173 169 112
164 161 108
167 164 110
166 163 108
166 164 110
171 167 112
164 162 108
170 167 110
168 164 109
171 167 111
169 166 111
166 163 109
169 166 111
172 168 111
170 167 110
172 169 113
167 164 109
169 166 110
172 168 111
167 164 109
173 169 110
166 164 109
169 165 109
168 165 110
171 167 111
172 168 111
171 168 111
170 166 110
177 172 113
171 168 112
175 171 113
169 166 109
171 167 109
168 163 108
168 165 110
168 165 109
169 165 109
172 168 110
173 169 111
171 167 110
168 164 108
167 164 109
169 165 108
169 165 106
174 168 108
168 164 106
168 164 107
169 165 109
163 159 105
169 165 107
168 163 106
168 164 108
166 163 108
172 167 108
165 161 103
166 162 101
169 165 105
168 162 103
171 166 106
171 166 108
167 162 103
163 159 103
159 155 99
166 160 102
158 155 99
163 158 100
160 155 101
165 161 101
162 157 97
159 155 96
158 154 98
162 157 98
165 159 99
155 150 93
155 150 94
149 144 88
158 153 92
160 154 95
163 157 97
150 145 82
158 152 90
152 147 89
147 141 86
155 149 87
151 145 85
141 135 74
155 149 88
141 135 75
134 132 64
145 144 66
149 151 70
152 156 63
157 162 61
151 165 49
156 166 51
162 174 44
162 178 36
165 182 39
164 185 19
173 194 16
172 193 19
173 197 0
174 198 0
174 197 0
173 196 0
173 197 0
175 198 0
174 197 0
175 198 0
175 198 0
172 196 0
174 197 0
176 198 0
175 198 0
173 197 0
172 196 0
172 195 0
174 197 0
173 196 0
172 196 0
173 196 0
172 196 0
172 196 0
175 197 0
174 197 0
174 198 0
171 196 0
172 197 0
174 197 0
173 196 0
173 197 0
174 197 0
173 197 0
171 195 0
174 197 0
173 197 0
170 194 0
174 197 0
173 197 0
174 197 0
173 197 0
173 197 0
173 197 0
172 196 0
173 197 0
174 197 0
174 196 0
174 197 0
173 196 0
171 195 0
174 198 0
171 195 0
171 196 0
174 197 0
172 196 0
170 194 0
174 197 0
171 194 0
173 196 0
174 198 0
170 193 0
175 198 0
173 196 0
174 196 0
175 198 0
174 198 0
173 197 0
176 198 0
175 197 0
172 195 0
172 195 0
175 198 0
172 196 0
173 197 0
174 197 0
175 198 0
174 197 0
174 197 0
173 197 0
173 196 0
175 198 0
173 196 0
172 195 0
173 196 0
172 195 0
172 195 0
174 197 0
171 194 0
175 198 0
175 198 0
172 196 0
172 195 0
172 196 0
173 196 0
174 197 0
174 197 0
171 195 0
173 196 0
170 194 0
173 196 0
171 195 0
176 198 0
173 196 0
172 197 0
174 198 0
173 197 0
172 195 0
172 195 0
172 195 0
172 196 0
175 198 0
173 196 0
171 194 0
173 196 0
174 197 0
175 198 0
174 197 0
173 197 0
174 197 0
173 196 0
172 195 0
172 195 0
173 196 0
173 196 0
172 196 0
173 196 0
174 197 0
171 194 0
172 196 0
175 198 0
174 196 0
172 195 0
170 194 0
169 193 44
152 176 84
144 169 108
127 153 131
101 130 155
72 106 174
66 102 179
61 98 179
61 99 180
62 99 180
61 99 181
62 99 181
61 99 181
61 99 181
61 99 180
62 99 181
62 99 181
62 99 181
62 99 181
61 99 181
62 99 181
61 98 181
61 99 181
62 99 181
61 99 181
61 99 181
61 98 181
61 98 181
61 98 181
61 99 181
61 99 181
61 99 181
61 99 181
61 99 181
61 98 181
62 99 181
62 99 181
62 99 181
61 98 181
62 99 181
61 98 181
62 99 181
61 99 181
61 99 181
61 99 181
61 98 181
62 99 181
61 99 181
61 99 181
61 99 181
61 99 181
61 98 181
62 99 181
61 99 181
61 99 181
61 99 181
61 98 181
61 99 181
62 99 181
62 99 181
61 99 181
62 99 181
61 98 181
62 99 181
61 98 181
62 99 181
61 98 181
61 98 179
62 99 181
61 98 179
61 98 180
62 99 181
61 99 181
61 99 181
62 99 181
62 99 180
62 99 179
62 99 180
61 98 176
61 99 181
62 99 181
61 97 176
62 98 179
61 98 177
62 98 175
61 98 177
67 102 173
94 124 160
116 142 140
135 159 115
151 175 83
165 189 51
169 193 26
168 190 26
170 193 0
171 193 0
173 196 0
173 197 0
170 193 0
171 194 0
172 194 0
174 197 0
170 192 11
168 188 22
170 189 25
169 187 25
160 177 32
162 180 36
168 183 45
162 176 42
154 164 48
144 152 53
146 154 54
154 161 57
142 146 62
147 150 73
145 146 69
138 135 76
141 136 78
142 138 78
151 145 89
141 137 81
128 124 75
139 135 78
142 138 82
145 141 88
140 138 91
149 145 88
159 154 99
142 139 91
136 133 85
146 141 86
142 139 89
153 148 96
142 138 88
148 145 96
150 147 95
141 138 90
158 154 100
142 140 94
144 142 94
142 140 95
150 148 99
150 147 97
152 149 99
155 153 101
158 155 104
152 149 100
156 153 103
146 146 99
158 156 105
148 146 98
153 150 100
151 149 100
160 157 104
159 157 106
162 160 107
170 166 110
158 156 105
160 158 107
167 164 108
164 161 107
163 160 108
159 155 103
160 158 107
167 164 110
164 161 108
163 161 108
160 158 105
164 162 109
171 168 112
173 169 112
163 160 106
164 161 107
165 162 109
169 167 111
165 163 109
170 167 111
169 166 111
168 164 108
169 166 110
170 167 111
170 167 110
173 168 111
170 166 111
171 169 112
175 170 112
173 168 110
174 170 112
171 168 112
165 162 109
172 168 111
170 166 110
170 166 109
168 165 109
172 167 109
171 166 109
169 165 109
169 165 109
173 169 112
170 166 109
170 166 110
173 170 112
171 167 110
175 170 113
170 167 110
172 168 110
172 169 111
167 164 109
173 169 110
170 167 110
168 164 105
171 167 110
169 164 106
168 163 106
166 162 107
165 162 106
166 162 105
171 167 108
166 161 106
165 159 102
168 163 105
170 165 104
172 166 106
161 156 101
165 161 103
162 158 102
167 162 103
170 166 104
161 157 96
164 160 102
163 159 100
161 157 99
162 157 97
168 162 101
166 160 98
167 162 101
159 154 94
164 158 98
161 154 93
160 155 96
163 157 96
151 146 90
161 156 96
161 156 93
164 158 97
153 148 93
158 152 93
156 150 92
150 145 84
154 148 85
161 155 95
143 138 81
153 147 87
156 149 85
149 145 76
139 139 65
147 148 66
145 148 57
152 157 60
154 164 56
158 171 45
160 175 39
164 180 41
163 181 22
169 189 16
171 192 11
172 195 0
174 197 0
174 197 0
173 197 0
174 197 0
172 196 0
172 195 0
174 197 0
171 195 0
172 196 0
174 197 0
173 197 0
173 196 0
170 194 0
173 197 0
174 197 0
170 194 0
174 198 0
173 197 0
175 198 0
174 197 0
175 198 0
174 197 0
175 198 0
175 198 0
174 198 0
175 197 0
171 194 0
173 197 0
171 195 0
171 195 0
173 197 0
176 199 0
175 198 0
173 197 0
174 197 0
174 198 0
170 193 0
173 196 0
173 196 0
174 198 0
173 197 0
172 195 0
173 197 0
174 197 0
173 196 0
173 196 0
172 196 0
172 196 0
172 196 0
174 197 0
174 197 0
172 196 0
173 196 0
171 195 0
174 197 0
172 196 0
174 196 0
175 198 0
173 196 0
173 196 0
174 197 0
174 198 0
174 198 0
174 197 0
173 197 0
173 196 0
175 198 0
174 197 0
174 198 0
175 198 0
170 193 0
174 198 0
173 196 0
175 198 0
175 198 0
172 195 0
175 198 0
174 197 0
172 196 0
171 195 0
174 197 0
174 197 0
173 196 0
173 197 0
171 195 0
173 196 0
172 196 0
172 196 0
173 197 0
174 198 0
171 194 0
172 196 0
172 195 0
170 193 0
174 197 0
174 197 0
173 196 0
173 197 0
174 198 0
175 198 0
172 195 0
170 193 0
171 194 0
173 195 0
172 195 0
171 194 0
172 196 0
172 196 0
171 196 0
173 197 0
172 196 0
171 195 0
170 194 0
173 197 0
173 197 0
172 195 0
171 194 0
172 196 0
173 196 0
174 197 0
172 196 0
172 195 0
173 196 0
174 197 0
173 197 0
172 196 0
173 196 0
173 196 0
173 196 0
173 196 0
170 192 44
163 187 65
151 175 92
136 161 120
99 128 157
83 115 167
63 100 180
62 99 181
62 99 181
61 98 181
62 99 181
62 99 181
62 99 181
61 99 181
61 99 181
61 99 181
61 98 181
61 98 181
62 99 181
62 99 181
61 99 181
61 98 181
62 99 181
61 99 181
61 98 181
61 99 181
61 99 181
61 98 181
62 99 181
61 99 181
61 99 181
62 99 181
61 98 181
61 99 181
62 99 181
61 99 181
62 99 181
61 99 181
61 98 181
61 99 181
61 99 181
62 99 181
62 99 181
61 98 181
61 98 181
62 99 181
62 99 181
62 99 181
61 99 181
62 99 181
61 99 181
61 98 181
61 99 181
62 99 181
61 99 181
62 99 181
61 99 181
62 99 181
62 99 181
62 99 181
61 98 180
61 99 181
62 99 181
62 99 181
61 99 181
62 99 181
61 99 181
61 99 181
61 98 179
62 99 180
62 99 181
62 99 181
62 99 181
62 99 181
62 99 181
62 99 180
62 99 181
61 98 179
62 99 180
62 99 180
62 99 180
61 98 179
62 99 181
62 99 178
61 98 178
62 99 178
62 99 178
61 98 178
62 98 178
60 96 173
74 107 171
95 124 155
124 151 129
139 164 110
154 179 77
161 184 63
171 195 25
173 196 0
173 196 0
171 194 0
173 196 0
172 196 0
170 193 0
172 195 0
169 192 16
167 188 16
169 190 25
157 177 19
164 181 32
158 174 34
159 174 41
162 177 40
157 167 51
145 151 57
154 157 68
146 151 58
151 152 71
146 146 71
142 138 74
148 145 78
136 132 75
145 140 83
141 137 85
150 145 87
147 142 86
143 139 87
137 133 84
147 143 88
144 141 91
136 133 87
141 138 90
147 144 91
145 142 92
153 149 96
152 149 94
150 146 93
142 139 88
147 144 91
152 148 97
152 150 97
154 151 101
147 143 95
153 150 100
146 143 96
153 149 98
150 147 99
139 138 94
143 141 95
153 149 100
156 154 104
158 155 104
159 155 102
151 150 101
157 154 102
151 150 102
154 152 103
161 158 107
159 156 105
163 161 107
165 162 108
158 157 105
166 162 108
160 158 108
164 161 107
165 162 108
160 157 106
160 157 105
168 165 110
170 166 111
162 160 108
163 161 108
169 166 111
166 163 109
164 162 108
166 164 110
166 163 108
164 161 107
170 166 111
166 163 108
164 162 108
171 168 110
169 167 112
167 165 110
170 167 112
166 163 108
169 167 111
173 169 111
172 167 110
171 168 112
172 169 113
171 168 110
171 168 111
169 166 110
174 170 113
173 169 112
174 170 112
168 165 110
170 167 110
171 167 110
173 169 112
171 168 110
174 170 112
169 167 110
172 168 109
175 171 113
171 167 109
172 168 111
167 164 108
173 169 111
174 169 110
169 165 108
172 168 110
166 163 107
169 165 108
171 166 109
169 165 108
161 156 101
171 167 109
173 168 108
170 166 108
167 163 106
168 164 107
171 166 107
165 162 103
170 165 108
162 159 103
169 164 105
172 166 106
171 167 108
164 159 102
169 164 106
165 160 103
160 155 96
170 164 105
163 158 100
169 164 102
170 164 102
159 154 97
166 160 99
161 154 95
169 163 103
160 154 97
165 159 97
158 152 95
164 159 97
155 150 86
149 144 87
152 147 84
158 152 90
153 147 87
157 150 93
160 153 92
152 146 88
154 148 88
150 144 84
145 140 80
145 139 86
148 144 75
146 142 74
145 146 71
146 149 65
154 157 65
153 164 54
163 172 56
156 169 39
163 177 44
160 178 28
169 189 25
171 192 22
168 190 0
173 196 0
174 196 0
174 196 0
172 196 0
174 196 0
174 197 0
174 197 0
174 197 0
173 196 0
172 196 0
174 197 0
174 198 0
174 197 0
172 195 0
175 198 0
175 198 0
174 197 0
175 198 0
175 198 0
173 197 0
176 198 0
174 198 0
173 197 0
174 197 0
175 198 0
172 195 0
176 199 0
174 197 0
173 196 0
173 197 0
173 197 0
174 197 0
174 197 0
174 197 0
173 197 0
174 198 0
175 198 0
173 196 0
171 195 0
173 197 0
174 197 0
173 197 0
173 196 0
174 198 0
172 196 0
171 195 0
174 197 0
175 198 0
174 197 0
172 196 0
171 195 0
171 194 0
174 198 0
175 197 0
173 197 0
175 198 0
172 195 0
173 196 0
173 196 0
173 195 0
172 195 0
174 197 0
174 197 0
172 195 0
173 196 0
173 197 0
171 195 0
174 197 0
171 195 0
173 196 0
173 196 0
175 198 0
174 197 0
174 197 0
172 196 0
174 196 0
172 196 0
175 198 0
172 195 0
174 197 0
174 197 0
172 196 0
174 197 0
174 196 0
173 196 0
172 195 0
173 196 0
174 198 0
172 196 0
172 196 0
173 196 0
172 196 0
173 195 0
173 197 0
173 196 0
173 197 0
174 198 0
174 197 0
174 197 0
173 197 0
172 195 0
170 193 0
171 195 0
171 194 0
172 195 0
174 197 0
173 196 0
172 194 0
176 199 0
173 195 0
175 197 0
172 195 0
175 198 0
175 197 0
173 196 0
171 195 0
173 195 0
173 196 0
173 196 0
173 197 0
170 193 0
173 197 0
173 196 0
173 197 0
169 192 0
174 197 0
172 195 0
171 195 0
172 195 0
167 190 54
154 178 92
134 158 120
108 137 145
80 113 171
62 99 181
62 99 181
61 99 181
61 99 181
62 99 181
61 98 181
61 99 181
62 99 181
61 98 181
61 99 181
62 99 181
62 99 181
61 98 180
61 99 181
62 99 181
62 99 181
62 99 181
62 99 181
61 99 181
61 99 181
62 99 181
61 99 181
61 98 181
61 98 181
61 99 181
61 99 181
61 99 181
61 99 181
61 98 181
61 98 181
62 99 181
62 99 181
61 99 181
62 99 181
61 98 181
62 99 181
62 99 181
62 99 181
61 99 181
61 99 181
61 99 181
62 99 181
62 99 181
61 98 181
61 98 181
61 98 181
62 99 181
62 99 181
61 99 181
61 98 181
62 99 181
61 99 181
61 98 181
62 99 181
62 99 181
62 99 181
61 99 181
62 99 181
62 99 181
62 99 181
61 99 181
61 99 180
62 99 181
61 98 181
62 99 181
62 99 181
62 99 181
62 99 181
62 99 180
61 99 181
62 99 179
61 99 181
62 99 181
61 98 179
62 99 180
62 99 179
62 99 180
61 98 179
62 99 179
61 98 178
62 99 180
62 99 178
61 97 176
62 99 180
61 98 176
61 98 175
61 98 177
64 100 176
80 111 163
98 127 150
132 157 121
145 169 98
149 172 94
164 187 51
172 195 18
172 195 0
171 195 0
174 195 0
171 194 0
170 192 0
171 193 19
168 189 22
171 192 22
162 179 34
166 184 39
162 177 39
160 176 35
157 169 46
153 160 58
149 156 55
143 149 58
146 151 63
148 150 70
150 149 77
144 141 78
135 133 73
133 130 76
146 141 80
140 135 79
138 134 80
143 138 84
141 137 81
143 139 84
142 139 86
143 139 87
140 136 88
136 133 86
148 143 87
143 139 90
144 141 91
143 139 88
137 134 88
148 145 93
140 137 91
146 143 96
143 142 96
143 141 97
149 146 97
145 143 92
150 148 98
149 146 99
152 150 99
151 148 99
148 145 99
151 149 101
157 154 105
155 153 103
150 148 100
156 154 105
156 153 104
161 157 103
154 151 101
160 157 106
156 153 103
163 161 108
154 152 103
160 157 106
161 157 105
154 153 102
161 158 106
163 161 107
166 164 110
163 159 105
162 160 108
161 158 106
162 160 109
165 163 109
169 165 109
169 166 110
170 166 111
162 159 107
163 161 106
166 164 110
173 169 112
168 165 110
169 166 111
166 164 109
167 164 110
170 167 111
168 165 110
172 169 113
173 168 110
172 168 110
168 166 110
171 168 110
168 164 108
173 169 111
170 166 110
171 167 110
170 167 110
170 166 109
172 169 112
174 169 111
173 168 110
174 170 112
175 170 111
174 170 111
172 168 110
174 170 110
171 167 110
170 167 108
171 167 109
171 167 110
169 165 108
166 163 107
171 167 110
168 164 108
173 168 110
176 171 112
171 168 109
170 167 110
172 168 110
167 163 107
164 158 103
165 161 104
167 164 107
170 166 109
170 165 108
166 161 105
167 163 106
172 167 105
166 162 105
164 160 102
170 166 107
164 160 101
169 164 104
167 162 103
164 161 101
163 158 97
165 159 98
155 151 97
167 163 103
161 157 97
161 156 101
163 158 100
163 157 98
154 149 94
158 152 94
151 145 90
163 157 96
163 158 97
169 163 100
156 151 93
161 155 91
158 153 90
165 159 94
155 149 87
150 145 87
150 145 88
149 144 87
156 150 89
146 141 81
141 135 77
144 139 80
144 143 72
147 146 73
152 153 73
152 157 57
154 162 56
153 167 39
159 174 39
157 171 37
166 181 41
168 187 30
169 189 22
170 190 28
173 195 11
174 197 0
174 197 0
174 198 0
173 196 0
174 197 0
174 197 0
174 197 0
176 198 0
174 198 0
173 196 0
174 197 0
174 198 0
173 196 0
171 195 0
175 198 0
173 197 0
174 197 0
175 198 0
174 197 0
173 196 0
172 196 0
173 196 0
175 198 0
175 198 0
173 196 0
175 198 0
173 196 0
172 196 0
173 197 0
174 197 0
172 196 0
174 197 0
174 197 0
175 198 0
172 195 0
174 197 0
173 197 0
172 196 0
173 197 0
171 195 0
174 197 0
174 197 0
174 197 0
175 198 0
175 198 0
173 196 0
172 196 0
173 196 0
172 195 0
171 195 0
173 197 0
174 197 0
174 197 0
173 197 0
174 197 0
175 198 0
175 198 0
171 196 0
176 198 0
171 194 0
174 197 0
173 197 0
172 196 0
174 196 0
175 198 0
174 197 0
171 194 0
173 197 0
170 192 0
172 197 0
173 197 0
175 197 0
169 193 0
175 198 0
171 195 0
172 196 0
172 196 0
172 196 0
174 198 0
174 197 0
170 194 0
173 196 0
174 197 0
174 197 0
172 196 0
171 194 0
175 197 0
174 197 0
174 197 0
173 197 0
173 196 0
174 198 0
173 196 0
173 196 0
173 197 0
172 195 0
172 196 0
174 198 0
172 195 0
171 195 0
176 198 0
174 197 0
171 195 0
173 196 0
174 197 0
171 194 0
173 195 0
172 196 0
171 195 0
173 197 0
174 197 0
171 195 0
172 195 0
172 196 0
175 198 0
171 195 0
173 195 0
173 197 0
170 193 0
169 193 0
173 197 0
172 195 0
175 198 0
172 196 0
170 193 0
174 197 0
168 192 44
158 182 78
143 166 110
124 149 133
84 116 169
67 103 178
61 99 180
62 99 181
61 99 181
62 99 181
62 99 181
62 99 180
62 99 181
62 99 181
62 99 181
62 99 181
61 99 181
61 98 181
62 99 181
61 99 181
62 99 181
62 99 181
62 99 181
62 99 181
62 99 181
62 99 181
61 98 181
61 99 181
62 99 181
62 99 181
61 98 181
62 99 181
61 99 181
61 99 181
62 99 181
61 99 181
61 99 181
61 98 181
62 99 181
61 99 181
61 99 181
62 99 181
61 98 181
61 99 181
61 99 181
62 99 181
61 99 181
61 99 181
62 99 181
62 99 181
62 99 181
61 99 181
61 99 181
62 99 181
61 98 181
62 99 181
61 99 181
61 99 181
62 99 181
61 98 181
62 99 181
61 99 181
62 99 181
61 99 181
62 99 181
62 99 180
62 99 181
61 99 181
61 99 180
62 99 181
62 99 180
61 98 180
62 99 181
61 99 181
61 99 181
62 99 181
62 99 180
62 99 181
61 98 180
62 99 180
61 98 179
62 99 181
62 99 180
61 98 180
62 99 178
62 99 180
62 99 180
62 99 177
62 99 178
62 99 181
62 99 181
60 97 174
62 98 178
61 97 177
61 98 176
61 97 172
67 102 175
82 113 166
109 136 141
125 149 131
153 177 81
162 185 60
166 189 47
170 193 18
172 195 0
171 194 0
170 191 11
171 192 22
165 184 30
167 187 34
161 177 34
161 178 32
156 170 37
154 164 52
157 169 45
154 162 54
147 156 53
153 155 73
151 154 66
144 144 63
142 140 70
135 134 63
143 138 76
137 132 79
132 127 77
146 142 86
140 136 80
137 134 80
136 132 80
135 132 81
133 131 82
146 143 87
145 142 89
140 136 85
144 140 88
129 127 82
145 141 91
142 139 88
145 141 93
149 145 96
146 143 95
144 142 95
145 142 94
142 141 94
147 145 97
140 138 94
154 151 100
149 147 98
149 146 98
142 141 97
142 141 97
151 147 99
153 151 102
154 152 102
153 151 102
149 146 98
152 150 102
159 156 105
157 154 104
159 157 106
158 156 105
153 152 103
150 149 101
157 155 103
164 162 108
158 156 104
162 159 106
161 158 107
164 161 107
157 155 105
166 163 109
164 161 108
163 160 108
162 160 108
165 162 108
165 163 108
167 164 109
169 165 109
170 168 112
168 165 110
169 165 110
162 160 107
168 165 109
169 166 110
170 167 110
170 167 111
170 167 111
174 170 111
172 168 111
171 167 111
170 165 109
169 166 109
169 166 110
173 169 111
173 169 111
172 169 111
172 168 112
170 166 108
169 166 109
175 170 112
170 166 108
171 167 110
174 170 112
172 168 110
174 170 112
172 168 111
169 166 110
173 170 112
164 162 106
172 168 110
174 170 111
170 167 109
172 167 109
175 169 110
173 168 110
173 168 109
170 166 108
173 168 109
167 164 108
173 168 108
169 165 106
169 165 106
168 164 104
165 161 103
168 163 106
168 164 105
171 166 108
169 165 104
164 159 102
163 158 102
169 165 106
167 163 101
168 163 103
164 160 101
167 162 104
164 159 102
168 165 106
161 157 99
159 153 97
166 160 99
157 152 93
166 161 101
165 159 98
160 155 94
161 155 96
163 157 99
161 156 95
161 156 96
161 155 95
155 150 90
153 148 90
149 144 85
154 149 90
152 145 87
148 142 84
159 153 90
151 146 84
145 139 75
150 144 79
151 145 84
150 144 81
153 148 84
145 143 67
153 155 72
148 155 51
150 157 56
157 168 44
152 165 45
164 178 48
160 176 36
164 182 28
170 190 32
164 185 16
174 197 0
172 195 0
174 197 0
173 196 0
172 196 0
174 197 0
174 198 0
174 198 0
172 195 0
174 197 0
173 196 0
173 196 0
173 197 0
172 196 0
173 196 0
173 197 0
173 196 0
172 196 0
174 198 0
171 195 0
174 197 0
174 197 0
173 196 0
173 196 0
174 198 0
172 196 0
173 197 0
173 197 0
173 197 0
173 196 0
173 197 0
174 197 0
172 195 0
175 198 0
172 195 0
174 197 0
175 198 0
173 196 0
172 195 0
173 197 0
172 195 0
173 197 0
173 197 0
173 197 0
174 198 0
173 197 0
173 197 0
173 196 0
175 198 0
172 196 0
174 198 0
172 196 0
175 198 0
176 198 0
175 198 0
172 196 0
174 197 0
173 196 0
174 197 0
174 197 0
173 196 0
172 196 0
173 197 0
173 196 0
173 196 0
173 197 0
173 197 0
174 198 0
171 195 0
173 197 0
172 196 0
173 196 0
175 198 0
174 198 0
171 195 0
171 195 0
173 196 0
171 195 0
173 197 0
172 195 0
173 195 0
175 198 0
172 196 0
173 196 0
174 198 0
175 198 0
173 196 0
175 197 0
171 195 0
171 195 0
173 197 0
174 198 0
173 196 0
175 198 0
172 195 0
173 196 0
175 197 0
173 197 0
169 193 0
170 192 0
173 196 0
173 196 0
174 197 0
171 193 0
175 198 0
173 196 0
171 194 0
172 196 0
175 198 0
170 194 0
170 194 0
173 197 0
173 196 0
172 195 0
170 193 0
173 196 0
172 196 0
173 195 0
172 195 0
174 197 0
172 196 0
173 196 0
174 198 0
171 194 0
173 197 0
174 196 0
162 187 54
149 173 95
128 154 126
104 133 153
72 107 176
62 99 180
61 98 180
61 99 180
61 99 180
62 99 181
62 99 181
61 99 181
62 99 181
61 99 181
62 99 180
62 99 181
62 99 181
61 99 181
62 99 181
61 99 181
61 99 181
62 99 181
62 99 181
61 99 181
62 99 181
61 98 181
61 99 181
62 99 181
61 99 181
62 99 181
62 99 181
61 99 181
62 99 181
61 98 181
61 98 181
62 99 181
61 99 181
61 99 181
61 99 181
61 98 180
62 99 181
61 99 181
62 99 181
61 98 181
62 99 181
62 99 181
62 99 181
62 99 181
61 98 181
61 99 181
62 99 181
61 99 181
62 99 181
61 99 181
61 99 181
61 99 181
61 99 181
61 98 181
62 99 181
61 99 181
62 99 181
61 98 181
62 99 181
61 98 181
61 98 180
61 99 181
61 99 181
62 99 181
61 99 181
61 99 180
61 99 181
62 99 181
61 98 181
61 98 181
62 99 181
62 99 179
61 98 179
62 99 181
62 99 180
62 99 180
61 99 179
61 99 180
62 99 181
62 99 181
61 97 177
61 98 176
62 99 179
61 98 180
61 98 180
62 98 178
62 99 180
62 99 178
62 99 178
62 98 177
62 99 179
61 98 177
62 98 174
61 98 178
64 100 175
81 113 164
99 127 150
121 147 128
145 168 98
159 181 68
166 187 48
172 195 18
172 194 11
172 194 16
168 187 22
166 185 25
167 185 32
164 181 37
151 169 26
159 173 37
163 174 51
156 164 55
149 158 51
152 157 67
143 148 57
146 149 67
137 138 65
136 135 65
142 140 76
145 141 81
133 128 77
130 126 69
136 132 74
135 131 79
132 130 82
134 131 82
151 146 91
147 143 86
147 143 92
145 141 89
138 135 87
136 135 91
150 147 92
143 140 92
140 137 89
137 135 89
147 143 94
139 136 90
140 139 92
141 140 93
140 139 94
147 144 95
139 139 93
143 142 95
152 149 98
154 151 101
157 155 103
152 149 101
154 150 101
152 150 101
150 149 101
146 144 98
152 151 103
145 144 97
152 151 101
149 147 100
160 158 106
159 156 104
157 155 105
160 159 106
157 155 104
155 152 103
152 150 102
164 161 106
163 160 106
165 163 110
157 155 103
162 159 107
166 164 109
162 159 106
159 157 107
162 159 106
168 166 111
171 168 110
170 166 110
160 158 105
170 167 110
168 166 111
165 161 109
167 164 109
169 165 110
168 164 109
169 165 109
169 166 110
169 166 110
172 168 111
171 168 111
176 172 112
175 171 113
174 170 110
166 164 108
170 167 108
172 169 111
171 167 109
173 168 110
172 168 111
175 171 113
172 168 110
170 166 108
173 169 110
171 167 109
175 170 111
172 168 110
175 171 112
173 169 111
171 167 108
173 169 112
171 168 110
174 168 109
173 168 111
168 164 108
172 168 109
173 169 109
172 168 109
170 165 107
169 165 108
168 164 105
167 164 104
168 163 106
171 166 109
169 166 108
169 165 106
170 165 105
166 164 105
168 164 104
174 169 108
171 165 105
168 163 104
169 163 103
166 160 101
165 160 101
166 160 99
169 164 104
161 157 98
164 159 101
169 163 102
164 158 98
162 158 99
166 159 99
166 161 99
166 159 98
158 153 97
154 149 93
158 154 97
162 157 95
154 148 92
161 155 95
159 153 93
154 149 87
159 153 91
151 145 85
150 144 80
150 144 87
154 148 87
153 148 85
145 139 79
157 150 92
143 137 78
150 146 78
148 149 70
153 154 71
149 152 67
154 159 60
145 154 49
154 167 45
161 176 44
163 181 30
167 184 44
168 189 19
170 193 16
170 192 16
172 194 11
172 196 0
174 197 0
174 198 0
170 194 0
175 198 0
173 197 0
173 196 0
174 198 0
173 196 0
173 197 0
173 197 0
173 197 0
175 198 0
172 195 0
173 196 0
172 196 0
172 195 0
173 196 0
173 197 0
172 196 0
172 195 0
170 194 0
174 197 0
173 197 0
173 197 0
174 197 0
173 197 0
173 196 0
171 195 0
172 196 0
173 197 0
175 198 0
173 197 0
173 196 0
175 198 0
173 197 0
173 197 0
174 197 0
174 197 0
175 198 0
173 196 0
174 198 0
174 197 0
173 197 0
173 197 0
174 197 0
171 195 0
173 196 0
173 196 0
175 198 0
176 198 0
175 198 0
173 196 0
171 195 0
174 197 0
174 197 0
173 196 0
172 195 0
172 195 0
173 196 0
173 197 0
175 198 0
172 196 0
174 197 0
173 196 0
173 195 0
173 197 0
173 196 0
174 196 0
173 197 0
173 196 0
172 196 0
173 197 0
174 197 0
170 194 0
173 196 0
174 197 0
172 195 0
175 198 0
173 196 0
173 197 0
174 198 0
175 198 0
173 197 0
173 197 0
171 195 0
173 197 0
173 196 0
171 195 0
174 197 0
172 196 0
171 193 0
172 195 0
174 197 0
173 196 0
175 198 0
172 196 0
172 196 0
172 195 0
173 196 0
174 198 0
170 194 0
173 196 0
172 195 0
174 197 0
172 196 0
173 197 0
174 196 0
173 196 0
170 193 0
170 193 0
175 198 0
173 196 0
173 196 0
172 195 0
172 195 0
172 195 0
171 195 0
173 196 0
174 196 0
173 196 0
171 194 0
172 195 31
161 185 67
141 166 110
126 152 133
90 121 165
66 102 177
62 99 180
61 99 180
61 99 181
62 99 181
62 99 181
62 99 181
61 98 181
61 99 181
62 99 180
62 99 181
62 99 181
62 99 181
61 99 181
62 99 181
61 98 181
62 99 181
61 99 181
61 99 181
62 99 181
61 99 181
62 99 181
62 99 181
62 99 181
61 99 181
61 99 181
62 99 181
61 98 181
61 98 181
61 99 181
61 99 181
61 99 181
62 99 181
61 99 181
61 99 181
61 99 181
61 98 181
61 98 181
61 99 181
61 99 181
62 99 181
62 99 181
62 99 181
61 99 181
62 99 181
62 99 181
61 98 181
62 99 181
62 99 181
62 99 181
62 99 181
62 99 181
61 99 181
61 99 181
62 99 181
62 99 181
62 99 181
61 99 181
61 98 181
61 99 181
62 99 181
61 99 181
61 99 181
61 98 181
61 98 181
61 99 181
62 99 181
62 99 181
62 99 181
62 99 180
61 99 179
62 99 180
61 99 181
61 98 181
62 99 180
62 98 178
62 99 179
62 98 179
61 98 179
62 99 180
61 99 181
61 98 177
62 99 178
61 98 177
62 98 177
61 98 175
61 98 180
63 100 180
62 99 180
61 98 175
62 99 179
61 98 178
62 98 175
61 97 175
62 98 178
62 98 175
61 97 173
64 99 170
86 117 165
110 137 141
135 160 113
159 182 63
159 183 63
168 190 38
169 191 11
170 192 19
163 184 19
164 180 39
161 174 43
159 173 41
143 155 35
159 171 48
155 167 48
151 158 59
150 158 57
151 154 68
143 146 65
147 145 77
143 142 72
142 138 78
135 132 75
142 138 82
139 135 81
135 131 78
126 124 69
135 131 81
133 130 79
142 139 88
133 129 79
138 135 86
143 140 89
143 138 89
135 133 87
135 134 86
142 139 90
145 142 93
138 136 91
145 142 92
143 142 95
147 144 95
147 144 98
144 143 96
148 146 99
145 143 95
148 145 97
156 152 102
148 146 99
146 143 97
157 154 104
141 140 96
160 156 105
153 150 101
139 138 94
152 151 102
145 144 99
154 151 103
158 155 105
158 156 105
156 155 105
158 156 106
157 156 106
155 152 103
155 153 103
157 155 104
160 157 105
155 153 103
159 157 107
163 161 109
163 160 107
162 160 108
161 158 105
162 159 105
167 165 110
170 165 109
160 159 108
168 165 110
169 165 110
169 165 109
170 166 110
166 163 108
167 164 107
172 168 110
165 162 108
170 167 110
173 170 113
169 166 110
172 169 112
169 166 109
172 168 111
172 169 112
175 170 112
168 164 109
171 167 111
175 171 113
174 171 112
172 169 112
175 171 113
173 168 110
169 166 107
170 167 110
172 168 110
173 168 110
172 169 110
173 169 112
169 166 108
172 168 109
174 169 110
169 165 108
173 169 110
169 165 109
171 168 108
172 169 111
174 170 111
171 167 108
172 168 109
168 164 106
172 167 109
174 169 109
172 167 110
167 162 104
168 163 106
173 168 108
168 163 106
165 162 105
167 164 108
168 163 103
163 158 101
169 164 106
171 165 104
165 161 103
166 161 104
167 162 103
171 165 104
161 156 99
166 160 98
167 162 103
165 160 103
165 160 98
164 158 100
166 160 99
168 162 99
162 156 95
168 161 97
163 156 95
163 157 96
157 152 92
164 158 97
163 157 94
154 148 87
150 144 85
159 153 87
158 152 90
162 155 95
155 149 84
149 143 86
149 143 83
155 148 88
151 145 80
141 135 75
150 144 81
142 138 71
153 153 72
147 150 63
152 159 57
156 165 54
157 166 54
165 179 39
162 176 44
164 180 32
165 183 36
167 187 19
169 191 16
173 197 0
175 197 0
175 198 0
174 197 0
173 197 0
174 197 0
172 195 0
173 197 0
174 197 0
174 197 0
174 197 0
173 197 0
173 197 0
173 197 0
172 195 0
173 196 0
172 195 0
172 196 0
173 197 0
170 194 0
175 198 0
173 196 0
176 199 0
172 196 0
175 198 0
171 195 0
174 197 0
173 197 0
174 197 0
175 198 0
173 196 0
173 197 0
174 198 0
173 196 0
173 196 0
170 193 0
173 197 0
176 198 0
171 195 0
174 197 0
173 196 0
174 197 0
172 196 0
173 196 0
173 197 0
171 195 0
173 197 0
174 196 0
170 194 0
173 197 0
174 197 0
172 195 0
171 195 0
175 197 0
172 196 0
175 197 0
171 194 0
173 196 0
172 196 0
174 197 0
175 198 0
173 197 0
173 197 0
172 196 0
172 195 0
173 196 0
174 197 0
172 196 0
172 196 0
172 196 0
173 196 0
172 196 0
174 198 0
172 195 0
174 197 0
171 195 0
174 197 0
172 196 0
172 196 0
175 197 0
173 196 0
174 197 0
169 192 0
174 197 0
174 197 0
173 197 0
169 193 0
174 197 0
174 197 0
173 196 0
173 196 0
171 194 0
174 198 0
171 195 0
176 199 0
170 193 0
175 197 0
171 194 0
174 197 0
174 198 0
172 195 0
173 197 0
172 196 0
172 195 0
171 195 0
174 198 0
170 193 0
171 194 0
172 196 0
170 193 0
172 196 0
171 195 0
171 195 0
172 196 0
173 196 0
173 196 0
174 197 0
172 195 0
170 194 0
170 194 0
173 196 0
172 195 0
167 191 51
160 183 70
132 156 125
108 136 151
74 108 173
62 99 180
61 98 181
63 99 180
62 99 181
61 99 181
62 99 181
61 98 181
62 99 181
62 99 181
61 99 181
61 98 181
62 99 181
62 99 180
61 98 181
61 99 181
61 99 181
61 99 181
62 99 181
62 99 181
62 99 181
61 99 181
61 99 181
62 99 181
61 99 181
61 99 181
62 99 181
61 99 181
61 98 181
62 99 181
62 99 181
61 98 181
61 99 181
62 99 181
62 99 181
61 98 181
62 99 181
62 99 181
62 99 181
61 98 181
62 99 181
62 99 181
62 99 181
62 99 181
62 99 181
61 98 181
61 99 181
62 99 181
61 99 181
61 99 181
61 98 181
61 98 181
61 99 181
61 99 181
61 99 181
61 99 181
62 99 181
61 98 181
62 99 181
62 99 181
62 99 181
62 99 181
61 99 181
62 99 181
62 99 181
62 99 181
62 99 181
62 99 181
62 99 181
62 99 181
61 99 180
62 99 181
61 99 181
62 99 181
62 99 181
61 98 179
62 99 181
62 99 181
62 99 180
62 99 180
62 99 181
62 99 180
62 99 177
62 99 180
62 99 180
62 98 178
60 97 179
62 99 178
62 99 179
61 99 180
61 98 175
61 98 177
61 98 176
62 99 180
62 99 180
62 99 179
62 98 177
62 99 180
61 97 175
62 98 174
61 97 174
73 106 168
94 122 156
121 146 133
143 166 104
159 183 66
166 189 32
170 188 32
163 182 28
164 183 19
162 178 37
164 179 39
151 163 45
153 161 55
154 161 57
152 157 58
147 151 60
142 145 60
138 142 60
137 137 67
144 142 75
138 135 72
136 132 73
146 141 82
132 129 78
134 131 81
140 135 80
131 127 79
138 135 81
140 135 81
134 132 86
135 133 86
133 131 85
131 129 81
140 137 86
145 142 92
137 136 89
148 144 96
142 140 93
139 136 91
141 139 92
139 138 93
144 141 93
148 144 97
139 138 96
147 146 97
144 141 93
146 144 97
142 141 96
153 151 102
148 145 97
152 150 101
142 141 95
157 155 104
153 150 100
150 149 102
150 148 100
151 148 100
155 154 105
153 152 104
159 157 105
155 153 104
150 150 103
154 152 104
165 162 109
164 161 108
164 161 108
157 155 105
160 158 107
159 157 105
160 158 106
169 164 108
163 161 108
162 159 107
170 166 110
165 162 108
169 166 110
162 159 105
167 164 109
170 167 111
165 161 107
173 169 111
170 166 111
169 166 110
168 165 110
168 165 110
172 168 110
168 165 109
173 170 112
168 165 109
169 166 111
168 165 110
169 166 109
175 170 111
171 167 110
168 165 110
174 170 112
172 169 112
171 168 109
171 167 110
176 170 111
173 169 109
173 168 107
173 169 111
174 169 110
172 168 109
171 167 108
173 169 111
174 169 110
174 170 112
173 169 110
171 167 108
172 167 109
168 164 105
171 167 108
170 166 106
170 167 109
171 168 108
170 165 106
172 167 106
169 165 106
171 167 107
171 166 108
173 167 107
166 161 103
169 164 104
165 160 101
168 162 103
167 163 104
169 164 106
169 162 103
165 161 100
168 162 103
168 163 101
166 160 98
167 162 104
162 157 96
168 162 101
168 162 99
169 164 101
168 163 102
161 156 95
166 160 99
163 158 99
161 157 99
165 159 97
163 157 95
159 153 91
161 155 95
158 153 90
159 153 92
155 150 93
153 148 84
157 152 89
156 150 89
160 154 91
155 148 90
156 149 89
148 141 80
148 142 84
155 149 85
149 144 79
147 143 78
148 148 63
146 146 68
154 156 69
158 164 62
156 165 56
158 170 47
159 175 41
166 183 36
168 186 32
167 185 25
168 189 19
174 196 11
173 196 0
171 194 0
170 194 0
173 197 0
174 197 0
171 195 0
172 196 0
175 198 0
174 198 0
173 197 0
173 197 0
172 196 0
176 199 0
174 198 0
172 196 0
174 197 0
172 196 0
175 198 0
174 198 0
174 198 0
172 196 0
175 198 0
174 197 0
173 197 0
173 197 0
173 196 0
173 196 0
171 195 0
175 198 0
171 194 0
173 196 0
174 197 0
172 196 0
172 195 0
172 196 0
174 197 0
174 196 0
173 196 0
170 194 0
172 195 0
174 197 0
170 194 0
174 197 0
172 196 0
174 198 0
172 195 0
174 197 0
173 196 0
171 195 0
171 194 0
172 195 0
173 197 0
173 197 0
174 198 0
173 196 0
171 195 0
174 198 0
172 196 0
174 197 0
173 196 0
172 196 0
174 197 0
174 198 0
174 198 0
174 197 0
173 196 0
169 193 0
174 197 0
172 196 0
174 197 0
174 197 0
174 197 0
170 194 0
172 195 0
173 197 0
174 197 0
174 197 0
173 197 0
174 197 0
173 196 0
175 197 0
171 194 0
174 197 0
173 196 0
172 195 0
173 196 0
175 198 0
174 198 0
172 196 0
172 195 0
174 197 0
170 194 0
173 197 0
173 197 0
172 195 0
174 197 0
173 196 0
173 196 0
173 197 0
170 193 0
173 196 0
171 195 0
172 196 0
173 197 0
171 195 0
172 195 0
173 197 0
172 196 0
173 196 0
172 195 0
173 197 0
172 195 0
171 194 0
171 195 0
168 193 0
174 197 0
175 197 0
174 196 0
170 194 0
172 195 18
162 186 65
149 173 97
126 152 131
99 128 159
71 105 176
62 99 181
62 99 181
62 99 180
62 99 179
61 99 180
62 99 181
62 99 181
61 99 181
61 98 181
61 99 180
62 99 181
61 99 180
62 99 181
61 99 181
61 99 181
61 99 181
61 98 181
62 99 181
62 99 180
61 99 181
61 99 181
61 99 181
62 99 181
61 99 181
61 99 181
62 99 181
61 99 181
61 99 181
61 99 181
61 99 181
61 99 181
62 99 181
62 99 181
61 99 181
61 99 181
62 99 181
62 99 181
62 99 181
61 99 181
61 99 181
61 98 181
61 99 181
61 99 181
61 98 181
62 99 181
61 99 181
61 99 181
62 99 181
61 98 181
61 99 181
61 99 181
62 99 181
62 99 181
62 99 181
62 99 181
61 99 181
62 99 181
62 99 181
61 98 181
62 99 181
61 98 181
61 99 181
62 99 181
61 98 179
62 99 181
61 99 181
61 98 181
61 99 181
62 99 181
61 99 181
61 99 180
61 99 181
62 99 181
62 99 181
61 98 180
61 99 181
61 99 180
61 99 180
62 99 180
62 99 180
62 99 180
61 99 181
61 98 180
62 99 179
62 99 178
62 99 180
61 98 177
61 98 178
61 99 179
62 99 179
61 98 180
61 98 176
62 98 177
61 98 177
61 98 176
62 99 179
61 97 176
62 98 178
61 98 176
61 98 177
61 98 177
61 98 176
71 104 168
92 121 154
116 141 135
136 159 107
145 167 88
159 181 47
164 184 31
161 178 34
164 181 36
153 166 41
158 167 52
157 169 42
150 157 54
147 153 53
144 150 55
137 138 65
141 143 63
131 129 71
142 137 75
138 134 76
135 132 75
143 139 77
130 126 77
132 129 82
137 133 79
132 130 76
140 137 84
134 130 83
140 137 85
144 140 88
137 134 84
145 141 89
129 127 81
137 135 87
136 132 88
139 137 92
146 143 94
145 142 95
138 137 90
144 141 95
142 140 91
148 146 99
132 131 88
148 146 99
143 141 96
133 133 89
143 142 96
148 147 100
147 145 99
147 145 100
144 142 95
156 154 102
149 148 101
150 148 99
157 154 104
150 149 102
158 155 104
156 153 104
151 150 102
162 159 106
157 154 104
157 155 105
158 156 106
161 158 106
165 162 108
164 161 108
160 157 106
162 160 107
163 161 108
161 158 107
165 161 108
161 159 107
167 163 108
170 167 110
164 161 106
169 165 109
164 162 108
164 161 106
168 164 109
172 168 111
170 166 110
166 163 109
171 168 112
174 171 113
168 165 110
171 168 109
166 163 107
170 166 108
172 168 110
172 169 111
173 168 108
173 170 111
173 169 109
173 169 112
172 168 110
167 164 108
173 170 111
173 169 110
174 170 111
174 170 112
174 170 111
172 168 108
172 168 109
172 168 109
170 167 109
172 168 109
173 169 110
171 167 107
171 168 111
166 163 104
176 171 110
175 171 112
173 168 109
171 166 108
172 168 108
168 164 106
165 161 103
171 166 106
176 170 110
168 164 105
173 169 109
171 166 104
170 166 106
168 163 102
175 169 109
171 166 108
167 163 104
171 165 104
164 160 100
168 162 101
160 156 100
167 161 97
172 167 108
164 160 101
162 157 98
167 161 99
166 160 98
169 162 102
162 157 93
156 151 93
161 156 95
166 160 101
162 157 92
158 153 93
164 158 97
159 152 88
156 151 88
160 155 94
158 152 92
152 147 89
154 150 90
160 155 90
151 145 87
160 154 87
146 141 79
156 150 88
150 144 87
154 149 79
148 143 79
140 134 72
143 139 71
150 148 73
142 143 61
157 158 71
143 150 52
155 165 48
155 164 48
157 171 41
162 174 52
163 181 25
168 187 22
172 193 22
170 192 0
172 196 0
173 197 0
173 196 0
172 196 0
174 196 0
172 196 0
174 197 0
173 195 0
174 197 0
174 197 0
175 197 0
172 195 0
172 195 0
173 197 0
174 197 0
173 196 0
174 197 0
175 198 0
174 197 0
173 197 0
173 196 0
173 197 0
171 195 0
175 198 0
173 197 0
173 197 0
173 196 0
173 197 0
175 198 0
173 197 0
174 197 0
171 195 0
173 196 0
173 196 0
173 196 0
174 197 0
175 198 0
172 196 0
174 197 0
175 198 0
172 196 0
174 197 0
172 195 0
172 195 0
172 197 0
171 195 0
173 196 0
174 197 0
173 196 0
171 194 0
174 197 0
171 195 0
174 197 0
173 196 0
172 195 0
172 195 0
172 195 0
172 196 0
174 197 0
172 196 0
173 196 0
172 194 0
174 197 0
174 197 0
172 196 0
172 195 0
173 197 0
173 197 0
172 196 0
173 196 0
173 196 0
173 196 0
174 197 0
174 197 0
173 196 0
174 197 0
173 196 0
172 195 0
171 195 0
174 197 0
173 196 0
171 195 0
171 195 0
174 197 0
173 196 0
173 196 0
172 195 0
173 196 0
174 197 0
172 195 0
175 198 0
174 197 0
173 197 0
171 194 0
172 196 0
173 196 0
174 197 0
173 196 0
176 198 0
173 196 0
172 195 0
169 193 0
174 198 0
173 196 0
172 196 0
172 196 0
172 195 0
171 195 0
173 197 0
174 197 0
171 195 0
173 196 0
173 196 0
174 197 0
173 196 0
174 196 0
172 195 0
171 195 0
168 191 25
163 186 62
147 171 105
118 145 140
78 111 173
64 101 180
62 99 181
62 99 180
61 98 181
62 99 180
61 99 181
62 99 181
62 99 181
62 99 181
61 99 181
62 99 181
62 99 180
61 99 181
61 98 181
62 99 181
61 98 181
62 99 181
61 99 180
62 99 181
62 99 181
62 99 181
61 99 180
62 99 181
62 99 181
61 99 181
62 99 181
61 98 181
62 99 181
62 99 181
62 99 181
62 99 181
61 99 181
61 99 181
61 99 181
61 99 181
61 99 181
61 99 181
62 99 181
61 98 181
62 99 181
61 98 181
61 99 181
62 99 181
61 99 181
62 99 181
61 99 181
62 99 181
62 99 181
61 99 181
61 99 181
61 99 181
61 99 181
62 99 181
62 99 181
61 99 181
61 99 181
62 99 181
61 98 181
61 99 181
61 99 181
62 99 181
61 98 181
62 99 181
61 99 181
62 99 181
62 99 181
61 99 181
61 99 181
62 99 181
61 98 181
62 99 179
61 99 180
61 99 181
61 98 180
62 99 180
61 99 181
61 98 180
62 99 179
61 99 181
62 99 181
62 99 179
62 99 181
63 99 179
62 99 179
61 98 178
61 98 180
61 99 179
62 99 181
62 99 179
61 98 177
62 99 180
61 98 176
62 99 179
61 98 179
61 98 177
62 99 180
62 98 174
61 98 176
61 98 174
61 97 174
61 98 178
62 98 175
61 98 176
61 97 173
60 96 169
63 99 171
68 102 168
100 127 153
130 151 120
142 162 91
147 166 73
159 177 35
164 179 42
160 174 39
156 169 38
147 153 54
153 163 45
147 157 48
145 152 53
146 146 71
149 149 71
135 134 66
134 132 68
143 138 76
130 126 77
141 137 74
126 124 79
130 127 74
137 133 79
142 139 85
139 136 86
139 135 80
137 135 83
138 136 88
141 137 88
138 135 86
149 146 92
147 144 94
137 134 88
143 140 90
135 134 89
135 134 89
148 145 95
140 139 94
142 141 94
139 138 91
139 139 95
149 146 96
140 139 94
153 151 101
141 139 92
145 143 98
133 133 93
138 137 94
148 147 100
148 146 99
145 143 98
154 152 102
151 149 100
151 149 101
150 148 99
153 151 101
154 152 102
154 152 103
155 152 103
158 156 106
155 153 102
152 150 101
163 159 106
163 161 108
158 155 105
161 159 107
166 163 107
163 161 107
167 163 108
162 159 105
166 163 107
163 160 107
168 164 108
166 162 108
168 164 109
170 167 111
163 160 105
169 166 109
170 167 109
169 166 109
170 167 111
168 164 109
175 171 113
166 163 108
172 169 111
171 168 111
173 169 111
173 169 112
171 167 109
173 169 111
176 171 112
175 170 109
170 167 110
173 170 112
171 167 106
175 171 112
170 167 108
173 169 110
169 165 109
174 169 110
175 170 112
171 167 107
176 171 112
174 169 109
174 170 110
172 167 108
171 166 108
170 166 106
175 170 110
175 170 111
173 167 107
170 166 107
171 168 108
168 164 107
172 167 108
167 163 106
170 166 104
174 169 108
170 164 106
173 167 108
170 166 105
167 163 101
174 168 107
166 161 103
168 164 103
168 163 103
161 157 101
169 163 103
170 164 101
169 163 101
167 163 104
170 165 104
167 163 99
169 164 101
170 164 101
163 158 97
164 159 97
163 157 95
163 159 95
171 165 104
159 154 96
160 154 93
162 156 97
165 160 95
162 156 93
161 156 97
162 155 87
153 147 87
160 153 91
158 152 88
149 144 78
149 143 82
157 152 86
148 142 84
145 141 76
152 146 87
151 145 83
154 149 81
143 138 73
149 145 79
139 140 61
153 158 62
154 161 57
162 168 61
149 162 41
159 173 45
162 179 32
163 181 32
166 185 19
167 189 19
164 186 16
173 195 0
174 197 0
173 197 0
174 197 0
174 197 0
174 198 0
173 197 0
175 198 0
175 198 0
170 194 0
173 196 0
173 196 0
171 194 0
174 197 0
174 197 0
175 197 0
173 197 0
173 197 0
172 195 0
173 196 0
173 196 0
173 197 0
174 197 0
174 197 0
173 197 0
174 197 0
171 194 0
173 196 0
172 196 0
174 197 0
171 195 0
172 196 0
174 198 0
173 196 0
171 196 0
173 197 0
173 196 0
172 197 0
174 198 0
171 194 0
175 198 0
173 196 0
173 196 0
174 197 0
170 195 0
173 197 0
175 197 0
173 196 0
173 196 0
173 197 0
171 194 0
175 198 0
174 197 0
173 196 0
170 194 0
171 195 0
174 197 0
173 196 0
173 196 0
173 196 0
173 196 0
173 196 0
170 194 0
173 196 0
174 197 0
173 196 0
172 195 0
174 198 0
174 198 0
174 197 0
174 197 0
174 198 0
173 197 0
175 198 0
172 195 0
171 194 0
174 197 0
174 197 0
173 196 0
173 196 0
174 197 0
174 196 0
175 198 0
171 194 0
172 195 0
174 197 0
172 196 0
174 197 0
173 197 0
174 196 0
171 195 0
173 197 0
173 196 0
172 196 0
172 195 0
173 197 0
171 194 0
173 196 0
174 197 0
171 194 0
172 194 0
172 195 0
172 195 0
173 196 0
173 196 0
170 192 0
172 195 0
171 195 0
173 197 0
171 194 0
172 196 0
172 195 0
173 196 0
174 198 0
170 194 0
172 195 0
170 193 0
170 193 31
153 178 88
138 163 117
110 138 147
71 105 176
61 99 180
61 99 179
62 99 180
61 98 177
62 99 181
62 99 181
62 99 181
62 99 181
62 99 181
62 99 181
62 99 181
61 99 181
62 99 181
62 99 181
62 99 180
62 99 181
62 99 181
61 99 181
61 99 181
61 99 181
61 99 181
62 99 181
62 99 181
62 99 181
61 99 181
61 99 181
61 99 180
61 99 181
62 99 181
62 99 181
61 99 181
61 99 181
62 99 181
62 99 181
62 99 181
61 99 181
62 99 180
61 99 180
62 99 181
62 99 181
62 99 181
62 99 181
61 99 181
62 99 181
62 99 181
62 99 181
61 99 181
61 98 181
62 99 181
61 98 181
62 99 181
62 99 180
62 99 181
61 99 181
61 99 181
61 98 181
61 99 181
62 99 181
61 98 181
62 99 181
62 99 181
62 99 181
62 99 181
61 98 181
63 100 181
62 99 180
61 99 181
62 99 181
61 98 180
62 99 181
62 99 181
62 99 180
62 99 181
62 99 181
62 99 181
62 99 181
61 99 181
61 99 181
62 99 181
62 99 180
62 99 180
62 99 181
62 98 179
61 99 181
62 99 180
61 99 180
61 99 181
62 98 178
62 99 180
63 100 180
62 99 178
62 99 181
62 99 180
62 99 180
62 99 180
61 98 175
62 99 179
61 98 178
62 99 176
63 99 179
61 98 176
62 99 179
61 97 176
62 98 173
62 99 177
61 98 174
61 97 175
61 97 171
70 103 167
97 124 150
121 141 118
131 150 115
145 160 79
156 171 57
153 165 40
157 172 47
148 156 51
145 153 53
148 155 57
145 149 61
136 137 66
144 142 72
140 137 74
136 132 74
132 129 75
130 127 75
130 126 70
130 127 73
131 128 78
139 135 80
139 135 83
139 136 85
135 132 82
145 142 89
129 127 81
130 129 83
125 124 85
134 131 85
134 131 88
136 134 89
125 125 86
135 133 90
143 142 96
124 123 81
138 135 90
141 140 95
133 131 87
134 134 94
139 138 95
144 143 97
139 137 93
145 144 99
139 138 95
146 145 99
151 148 100
149 148 100
146 145 97
153 152 103
146 144 97
153 151 102
157 155 103
155 153 104
153 151 102
152 151 101
154 153 104
158 156 106
159 156 105
156 153 102
152 150 99
154 152 103
155 153 102
160 157 105
159 157 105
160 159 108
165 162 109
159 157 105
166 163 109
165 161 107
164 161 108
163 160 107
167 164 110
163 160 104
174 170 112
166 163 108
163 160 107
166 163 107
169 166 109
173 168 110
173 168 110
166 163 107
169 165 109
171 168 110
173 169 110
175 170 111
167 163 107
169 165 109
176 170 111
174 169 111
176 170 111
172 168 108
174 170 110
176 171 112
172 168 109
172 167 108
172 168 109
171 166 107
173 169 110
174 170 112
172 168 111
175 170 110
172 168 110
173 168 109
170 165 105
173 169 109
172 167 108
175 171 110
172 168 108
168 164 108
169 165 106
169 165 106
173 168 109
172 167 106
173 168 108
170 164 104
171 166 106
171 166 107
169 165 104
169 165 104
171 167 106
170 165 106
171 165 106
169 165 106
165 160 100
167 162 103
164 160 98
171 165 104
165 160 99
169 163 99
164 160 99
165 159 95
168 163 101
163 157 98
167 161 102
173 166 105
165 158 97
169 162 101
164 158 96
162 155 95
159 153 95
162 157 93
164 159 99
164 157 94
160 154 92
158 151 90
157 150 87
160 154 97
157 150 89
151 146 88
154 148 85
150 143 80
154 148 89
155 149 87
150 143 81
147 142 77
146 140 76
139 133 74
151 147 75
134 134 62
144 145 65
159 162 65
152 157 56
146 156 42
160 171 51
163 177 42
161 177 25
168 188 22
166 186 19
169 192 11
171 193 0
175 198 0
173 197 0
171 195 0
172 196 0
174 197 0
172 195 0
174 198 0
172 195 0
173 197 0
173 197 0
175 198 0
171 195 0
172 196 0
174 197 0
175 198 0
173 197 0
173 197 0
174 197 0
174 197 0
172 195 0
173 196 0
173 196 0
173 196 0
173 197 0
174 198 0
170 194 0
174 197 0
175 197 0
173 197 0
175 198 0
174 198 0
174 197 0
173 196 0
174 197 0
174 197 0
173 196 0
171 195 0
171 194 0
172 196 0
174 197 0
172 196 0
175 198 0
173 197 0
174 197 0
173 196 0
173 197 0
172 195 0
173 197 0
174 197 0
174 197 0
174 197 0
174 198 0
175 198 0
173 197 0
170 193 0
173 197 0
173 197 0
172 195 0
173 196 0
172 195 0
173 196 0
172 195 0
175 198 0
172 196 0
173 196 0
171 195 0
173 196 0
171 194 0
171 195 0
173 197 0
172 195 0
173 197 0
173 196 0
172 195 0
172 196 0
173 197 0
174 197 0
173 196 0
173 196 0
169 193 0
173 197 0
172 196 0
174 197 0
171 195 0
174 197 0
172 195 0
174 197 0
174 197 0
174 197 0
171 193 0
171 193 0
170 194 0
173 196 0
173 197 0
174 196 0
172 195 0
174 197 0
172 194 0
171 194 0
173 197 0
174 197 0
171 195 0
172 196 0
173 197 0
170 193 0
171 195 0
175 197 0
173 197 0
171 194 0
172 196 0
172 195 0
171 194 0
174 197 0
172 196 0
170 193 0
166 190 44
153 178 84
124 150 131
88 119 166
64 100 177
63 99 178
62 99 178
62 99 181
62 99 181
61 99 181
62 99 181
61 98 180
62 99 181
62 99 181
63 100 181
61 99 181
62 99 181
61 99 181
62 99 181
62 99 181
62 99 181
63 100 181
61 98 181
61 99 181
62 99 181
62 99 181
61 99 181
62 99 180
61 99 181
61 99 181
61 98 181
61 98 180
62 99 181
61 99 181
62 99 181
62 99 181
61 99 181
61 99 181
62 99 181
62 99 181
61 98 181
61 98 181
62 99 181
62 99 181
62 99 180
62 99 181
62 99 181
62 99 181
62 99 181
61 99 181
61 99 181
62 99 181
61 98 180
62 99 181
62 99 181
61 99 181
62 99 181
62 99 181
61 99 180
61 99 181
61 98 181
62 99 181
61 98 181
61 99 181
61 99 181
62 99 181
62 99 181
62 99 181
62 99 181
61 99 181
62 99 181
62 99 180
61 99 181
62 99 181
62 99 181
61 99 181
61 99 180
62 99 180
62 99 181
62 99 181
61 98 181
62 99 181
62 99 181
61 99 180
61 98 180
62 99 180
62 99 181
62 99 181
62 99 181
62 99 181
62 99 180
62 99 181
61 98 178
61 99 180
61 98 180
62 99 178
61 98 179
62 99 178
62 99 179
62 99 178
62 99 180
62 99 181
62 99 178
62 99 179
62 98 176
61 98 179
63 99 178
62 99 177
62 99 176
61 98 176
61 98 177
61 97 173
61 97 172
62 98 175
61 98 173
64 99 171
88 117 159
112 132 135
142 157 98
140 154 93
153 164 65
146 158 40
141 151 44
145 151 56
147 154 61
147 151 65
142 145 60
131 131 63
138 136 69
132 128 73
135 132 75
135 131 75
140 136 84
142 138 84
138 134 80
137 133 81
131 129 80
138 134 83
137 134 84
128 126 78
127 125 83
130 130 86
140 138 91
124 123 82
138 136 90
150 147 97
138 136 92
137 136 90
131 129 87
126 125 83
131 129 88
137 134 87
135 134 92
136 135 92
143 141 94
135 134 92
147 145 98
144 143 97
151 149 100
151 149 99
146 144 97
149 147 99
146 144 96
146 145 99
145 142 97
151 151 103
149 147 100
145 144 98
153 151 103
147 146 99
158 155 105
162 160 108
156 155 105
155 152 100
157 155 103
157 156 105
159 157 106
158 155 104
158 156 105
160 157 106
158 155 102
160 157 103
160 158 104
160 157 105
169 166 110
168 165 106
166 163 108
165 163 109
162 160 107
166 162 107
171 167 109
167 164 109
172 168 110
171 166 110
172 168 109
170 166 108
173 169 110
170 167 109
170 166 108
171 168 109
173 170 112
177 171 111
170 166 108
172 169 108
173 170 111
173 169 111
176 171 111
172 168 109
173 169 109
173 169 111
170 166 110
173 169 108
172 168 108
175 170 110
174 169 108
167 164 106
174 170 108
175 171 108
174 170 110
176 171 110
174 170 110
173 168 107
171 166 108
173 168 108
170 166 106
171 167 107
172 166 108
173 168 106
167 164 103
169 165 106
174 169 108
174 169 108
169 166 108
169 164 99
168 163 104
169 164 106
169 165 101
172 167 104
169 164 101
170 165 103
166 162 97
166 159 100
170 164 103
166 160 99
161 156 94
167 162 98
165 159 101
166 160 99
162 157 99
168 162 96
162 156 96
165 160 97
163 158 97
163 156 95
169 162 100
156 151 90
159 155 93
165 159 98
157 151 92
158 153 87
157 151 90
147 142 86
158 152 90
151 145 82
150 144 87
154 148 90
147 140 82
144 139 72
155 148 86
155 149 84
142 137 77
143 137 76
146 141 77
151 149 71
155 156 72
147 151 61
148 157 53
153 160 54
154 166 47
161 176 39
163 180 36
169 187 28
171 191 25
174 196 16
171 192 11
174 197 0
173 197 0
171 195 0
173 197 0
173 196 0
173 197 0
172 195 0
174 197 0
174 197 0
175 198 0
171 195 0
172 195 0
173 197 0
173 197 0
175 198 0
173 197 0
174 197 0
173 197 0
173 197 0
173 197 0
173 197 0
174 197 0
172 197 0
175 198 0
173 196 0
172 196 0
172 196 0
174 197 0
174 197 0
174 198 0
172 196 0
173 197 0
174 197 0
174 198 0
174 197 0
172 196 0
175 198 0
173 195 0
175 198 0
174 198 0
174 197 0
173 196 0
174 197 0
172 196 0
173 196 0
173 197 0
172 196 0
172 195 0
175 197 0
171 194 0
174 197 0
174 197 0
175 198 0
174 197 0
174 197 0
171 195 0
172 196 0
173 196 0
173 197 0
172 196 0
169 193 0
174 197 0
170 194 0
174 197 0
172 196 0
172 196 0
173 197 0
172 196 0
172 195 0
171 195 0
170 194 0
175 198 0
174 197 0
173 197 0
175 198 0
174 198 0
173 197 0
172 196 0
170 194 0
173 196 0
171 196 0
171 194 0
173 196 0
174 197 0
172 195 0
170 194 0
175 198 0
172 195 0
173 197 0
174 197 0
173 196 0
173 195 0
170 194 0
174 196 0
170 195 0
173 196 0
172 196 0
172 196 0
172 195 0
171 194 0
175 198 0
174 196 0
171 194 0
170 193 0
173 195 0
171 194 0
171 194 0
170 192 0
175 198 0
173 196 0
171 195 0
171 194 0
174 197 0
170 194 18
163 187 60
148 173 99
111 138 147
96 126 160
62 99 181
62 99 181
62 100 181
62 99 180
62 99 180
62 99 181
62 99 181
61 99 181
62 99 181
62 99 181
61 99 181
61 99 180
62 99 181
62 99 181
62 99 181
62 99 181
62 99 181
61 98 180
62 99 181
62 99 181
61 98 181
61 99 181
62 99 181
62 99 181
62 99 181
62 99 181
61 98 181
61 99 181
61 99 180
62 99 181
62 99 181
62 99 181
61 99 181
62 99 181
61 99 181
61 98 181
62 99 181
61 99 180
61 98 181
62 99 181
61 99 181
61 98 181
61 99 181
61 99 181
62 99 181
61 98 180
62 99 181
62 99 181
61 99 180
62 99 181
62 99 181
62 99 181
62 99 181
62 99 181
61 99 181
62 99 181
62 99 181
61 99 181
61 99 181
61 98 181
62 99 181
61 99 181
61 98 181
62 99 181
62 99 180
61 99 181
61 99 181
61 99 181
62 99 181
61 99 181
61 98 180
62 99 181
61 98 181
61 99 180
62 99 180
62 99 180
62 99 181
62 99 181
62 99 181
61 99 181
62 99 181
62 99 180
62 99 181
62 99 180
61 98 177
61 99 180
62 99 180
62 99 178
62 99 180
61 98 180
61 99 180
62 99 180
62 99 180
62 99 179
61 99 179
62 99 178
62 99 178
62 99 179
62 99 178
61 98 178
62 99 179
62 98 177
62 99 180
61 98 174
61 98 177
62 98 177
61 97 172
63 99 177
62 98 175
62 98 178
60 96 168
62 98 176
61 97 173
70 104 169
72 104 168
117 137 133
123 141 123
135 147 94
138 150 70
152 162 55
143 151 55
145 148 65
146 145 69
138 138 66
136 134 71
135 132 70
129 124 68
131 127 67
139 135 80
135 131 80
127 124 74
140 136 85
138 135 85
142 138 82
142 137 85
123 122 77
133 131 84
121 120 82
129 127 85
140 137 89
135 134 89
125 124 84
127 125 84
131 130 85
140 140 95
134 134 91
137 136 92
130 130 88
127 127 86
134 133 91
136 135 91
141 139 95
150 147 97
141 140 95
135 134 91
143 141 97
142 141 96
152 149 101
146 145 99
146 145 98
146 145 99
152 150 101
150 148 100
153 152 103
151 149 100
154 151 101
147 145 99
150 148 100
152 150 102
157 155 105
156 154 102
155 153 103
161 158 106
160 158 107
157 155 105
160 157 106
163 160 106
165 161 106
165 162 108
159 157 104
167 164 109
165 162 108
165 161 109
163 160 107
164 162 108
161 159 106
166 163 109
166 163 106
172 168 109
168 164 108
170 166 110
168 165 110
167 165 108
168 165 109
173 169 110
166 163 105
173 169 110
171 168 110
171 167 108
170 167 109
172 169 111
174 169 109
173 169 110
172 168 108
175 170 109
172 168 108
176 171 110
172 167 108
172 169 110
175 170 110
174 170 111
175 171 110
172 168 107
173 169 109
173 169 107
172 167 108
175 170 107
174 170 110
172 167 106
175 170 109
170 167 106
171 167 106
172 168 106
172 167 104
175 170 108
170 166 105
170 165 104
171 167 106
169 164 103
169 165 104
172 167 103
174 169 107
172 167 104
170 165 104
171 166 104
166 161 99
167 163 101
167 162 103
171 166 106
169 164 102
170 165 103
171 166 104
171 166 103
165 160 97
166 160 101
166 160 99
169 163 103
159 154 95
165 159 95
157 152 90
161 156 94
165 160 97
163 157 91
165 160 97
160 153 90
164 157 93
156 150 91
161 154 93
157 151 84
160 154 90
155 150 90
155 149 89
155 149 87
149 143 81
155 149 85
154 148 80
146 140 76
141 137 76
146 140 79
148 142 80
139 136 64
141 139 67
149 153 62
157 160 63
156 166 49
157 168 51
160 172 47
161 180 30
163 180 28
166 184 25
168 189 19
171 193 16
171 194 0
174 198 0
171 195 0
171 194 0
171 194 0
173 196 0
176 198 0
174 197 0
173 197 0
175 198 0
174 197 0
173 197 0
174 197 0
173 197 0
172 196 0
173 197 0
172 195 0
174 197 0
173 197 0
174 197 0
173 196 0
176 198 0
174 198 0
174 196 0
175 198 0
172 196 0
174 198 0
172 195 0
173 196 0
175 198 0
175 198 0
173 197 0
172 195 0
172 196 0
173 196 0
174 197 0
174 198 0
175 198 0
173 196 0
172 196 0
172 195 0
170 194 0
173 196 0
174 197 0
173 197 0
172 195 0
174 197 0
174 197 0
171 194 0
173 197 0
174 197 0
173 197 0
174 197 0
173 197 0
173 196 0
173 197 0
173 196 0
174 198 0
172 196 0
175 197 0
172 196 0
173 196 0
171 195 0
170 194 0
175 197 0
170 194 0
171 194 0
175 198 0
171 195 0
173 196 0
172 196 0
172 196 0
170 194 0
172 195 0
174 198 0
172 196 0
171 195 0
174 197 0
173 196 0
173 197 0
174 197 0
173 195 0
174 196 0
173 197 0
173 196 0
171 193 0
173 197 0
174 197 0
174 197 0
173 196 0
172 195 0
177 199 0
171 194 0
170 193 0
172 195 0
173 195 0
169 193 0
174 197 0
175 197 0
172 195 0
174 197 0
172 195 0
170 194 0
174 197 0
172 195 0
172 195 0
172 196 0
173 197 0
173 196 0
173 196 0
172 195 0
173 197 0
172 195 18
163 187 65
159 182 78
115 142 143
78 111 171
62 99 180
62 99 179
62 99 181
62 99 181
62 99 180
62 99 181
62 99 181
62 99 181
62 99 181
61 99 181
62 99 181
62 99 180
62 99 181
62 99 181
62 99 181
62 99 181
62 99 181
62 99 181
62 99 181
61 99 181
62 99 181
62 99 181
61 99 181
61 99 181
62 99 180
62 99 181
61 99 180
62 99 181
61 98 180
61 99 181
62 99 181
62 99 180
62 99 181
61 99 181
62 99 181
62 99 181
61 99 181
62 99 181
61 99 181
62 99 181
62 99 180
62 99 181
62 99 181
61 99 181
61 99 181
62 99 181
61 99 180
62 99 181
61 99 181
62 99 181
62 99 181
61 98 181
61 98 181
62 99 181
62 99 181
61 99 181
62 99 181
62 99 181
62 99 181
61 99 181
61 98 181
61 99 181
61 99 181
61 99 181
62 99 181
62 99 181
62 99 181
61 99 181
61 98 181
62 99 181
62 99 181
62 99 180
61 99 181
62 99 180
62 99 181
62 99 179
62 99 181
62 99 181
62 99 181
61 98 181
61 99 181
62 99 181
61 99 180
62 99 181
62 99 180
62 99 181
62 99 178
62 99 178
61 99 180
62 99 181
62 99 181
62 99 180
62 99 181
62 99 180
61 98 179
62 99 181
62 99 180
61 98 178
62 99 177
62 99 179
62 99 177
62 99 179
61 98 176
62 99 178
62 99 178
62 99 179
61 98 175
61 98 176
61 97 174
62 98 176
62 98 176
62 98 175
62 99 177
61 98 173
61 97 175
60 96 170
77 106 158
99 119 141
116 126 111
130 142 90
151 161 62
146 154 57
145 148 59
133 138 48
140 141 64
146 143 76
135 133 72
137 131 76
143 138 79
135 131 77
127 124 76
131 128 76
130 128 77
136 134 82
119 117 79
129 127 77
130 128 81
125 123 81
128 127 82
131 130 88
124 123 81
128 126 81
127 125 84
124 122 79
140 138 92
126 125 84
135 134 89
128 127 88
131 131 89
125 126 88
141 138 94
137 135 91
136 135 94
146 144 98
145 144 99
140 139 95
132 133 92
140 139 94
147 144 97
146 145 99
146 145 100
141 140 97
151 149 103
149 147 99
150 147 99
143 143 98
152 150 100
148 147 100
152 149 99
156 153 103
150 148 100
161 159 107
153 151 103
163 159 104
155 152 102
153 151 100
162 159 105
162 160 107
165 162 109
155 152 101
161 159 108
161 158 103
163 160 107
163 160 107
168 165 110
167 164 109
170 165 108
169 166 109
167 163 104
169 166 109
169 166 108
171 167 110
169 166 109
171 167 109
174 169 111
172 168 107
170 167 108
174 169 111
173 169 110
172 167 108
177 172 112
173 169 111
177 172 111
171 167 108
174 169 111
171 167 107
175 170 109
174 170 111
175 170 110
174 170 110
169 165 107
174 170 108
174 169 111
173 168 108
174 169 108
173 167 108
174 169 108
178 173 112
173 169 107
177 171 111
173 168 107
176 171 111
171 167 108
172 168 109
169 164 105
171 166 101
174 168 106
173 169 108
166 162 103
170 166 106
176 169 108
169 163 99
174 168 105
174 169 108
175 170 105
172 166 103
171 165 104
171 166 103
171 166 103
170 165 103
160 156 96
171 164 104
173 167 106
173 167 101
162 157 95
169 163 101
166 161 101
160 154 90
164 159 98
163 157 97
166 161 100
168 162 98
167 161 99
154 149 89
167 161 96
161 156 94
155 149 90
156 151 91
155 149 90
153 147 84
163 157 95
154 148 84
148 141 81
154 148 86
158 151 87
152 146 82
147 141 79
158 152 89
137 132 78
149 142 85
149 144 74
139 135 71
144 144 65
142 144 59
155 157 68
153 163 51
155 165 44
160 173 45
159 176 25
168 185 36
162 179 34
170 191 22
170 191 11
173 197 0
173 197 0
175 198 0
173 196 0
174 198 0
175 198 0
174 197 0
173 196 0
172 196 0
174 197 0
171 195 0
173 197 0
171 194 0
172 195 0
174 197 0
174 197 0
172 196 0
173 197 0
174 198 0
171 195 0
172 195 0
172 196 0
175 198 0
170 193 0
174 197 0
172 196 0
173 197 0
175 198 0
174 198 0
171 195 0
175 198 0
171 194 0
173 196 0
173 196 0
174 197 0
172 195 0
174 197 0
171 195 0
174 197 0
174 197 0
173 196 0
172 196 0
171 196 0
173 196 0
171 194 0
174 198 0
171 194 0
171 194 0
173 196 0
175 198 0
172 195 0
171 195 0
174 197 0
172 196 0
173 197 0
171 195 0
172 195 0
173 196 0
174 197 0
173 195 0
172 195 0
170 193 0
173 196 0
170 194 0
172 196 0
171 195 0
172 195 0
174 197 0
174 198 0
172 195 0
173 197 0
172 195 0
174 198 0
175 198 0
174 197 0
173 196 0
170 193 0
173 196 0
172 196 0
172 195 0
174 197 0
172 196 0
174 197 0
173 196 0
173 196 0
172 196 0
173 196 0
171 194 0
172 195 0
174 197 0
173 196 0
172 195 0
170 194 0
174 197 0
173 196 0
172 195 0
172 195 0
172 195 0
173 196 0
172 195 0
175 198 0
171 194 0
171 195 0
171 193 0
173 196 0
170 194 0
173 195 0
172 195 0
170 193 0
170 193 0
171 194 0
171 195 18
165 188 57
145 170 100
109 137 147
82 114 170
62 99 180
62 99 180
62 99 181
62 99 181
62 99 181
62 99 181
61 99 180
61 99 181
61 99 181
61 99 181
61 99 181
62 99 181
61 99 181
62 99 181
62 99 181
61 99 180
61 99 181
62 99 181
61 99 181
62 99 181
62 99 181
62 99 181
61 99 181
62 99 181
61 98 178
62 99 181
62 99 180
62 99 181
61 98 181
62 99 181
62 99 181
62 99 181
62 99 181
61 98 181
61 98 181
62 99 181
61 99 181
61 98 181
61 98 181
62 99 181
62 99 181
62 99 180
61 98 181
62 99 181
61 98 180
61 99 181
62 99 179
61 98 180
62 99 181
62 99 181
62 99 180
61 99 181
61 99 181
62 99 181
61 99 181
62 99 180
62 99 181
61 99 180
62 99 181
61 99 181
62 99 181
61 99 181
62 99 181
61 99 181
61 99 181
61 99 181
62 99 181
61 99 180
62 99 181
62 99 181
62 99 181
61 99 181
62 99 181
62 99 178
62 99 180
62 99 181
61 99 181
62 99 181
62 99 179
62 99 181
61 99 181
62 99 180
62 99 180
62 99 180
62 99 180
61 98 178
62 99 181
62 99 176
61 98 177
61 99 180
62 99 181
61 98 178
62 99 179
61 98 177
60 97 176
62 99 179
62 99 178
62 99 179
62 99 178
62 99 179
61 98 177
60 97 176
62 98 176
62 99 178
61 98 176
62 99 177
61 98 178
61 98 176
62 98 175
62 99 179
62 99 177
61 98 177
62 98 175
62 98 176
61 97 174
61 97 174
61 97 169
60 96 170
81 108 163
92 112 143
110 124 112
135 144 94
142 148 74
144 148 64
133 134 64
138 140 65
134 131 76
139 135 74
128 124 72
134 129 76
125 121 71
128 124 70
131 127 76
135 132 81
126 124 80
129 128 82
128 125 79
136 132 84
128 126 81
129 127 83
136 134 83
135 133 86
133 132 86
126 125 82
129 128 87
136 135 91
132 130 87
136 135 90
137 135 87
146 144 98
141 140 95
132 131 86
135 133 89
126 126 86
127 127 88
142 140 96
143 142 98
141 140 94
143 142 96
135 135 95
141 140 96
137 137 94
144 143 98
147 146 99
144 143 97
152 150 101
151 149 101
146 145 98
147 145 99
156 153 104
153 152 103
151 149 100
160 157 103
156 154 105
158 156 103
161 159 105
159 156 104
146 146 98
160 157 106
158 156 101
163 160 107
162 160 107
167 163 107
163 161 108
168 164 108
165 161 106
170 166 109
164 160 105
166 163 108
167 163 107
168 164 107
168 165 109
171 167 110
167 163 107
169 166 108
168 164 109
171 167 109
165 163 105
168 165 106
172 168 109
171 167 108
170 166 106
175 171 110
171 167 107
176 171 112
172 168 109
175 170 109
173 169 108
173 169 108
172 167 107
172 169 110
170 165 106
174 169 108
175 170 110
174 169 108
174 170 110
173 169 110
174 170 108
174 170 108
174 169 108
171 166 106
172 167 107
172 168 108
175 170 109
174 169 107
171 166 103
169 164 103
172 167 106
173 168 104
172 167 105
173 167 106
171 167 108
178 172 109
171 165 103
165 161 102
169 164 103
172 166 105
169 163 103
170 164 102
172 166 103
165 159 101
169 164 103
169 164 104
169 163 101
170 165 102
170 165 101
159 154 97
167 161 97
169 162 100
167 162 97
163 158 95
161 156 96
152 146 90
162 157 95
163 157 92
159 153 93
156 151 89
159 153 91
165 159 96
167 160 97
156 150 82
156 149 85
150 144 80
150 144 87
152 146 84
152 146 87
144 138 79
152 145 83
143 137 77
154 147 82
135 129 73
148 144 74
137 133 67
156 155 71
150 151 60
153 156 69
151 158 51
157 166 51
160 173 34
160 177 28
169 187 36
163 181 19
169 188 25
172 193 11
172 194 11
174 197 0
173 197 0
169 193 0
172 196 0
172 196 0
173 196 0
172 195 0
174 198 0
173 196 0
172 195 0
173 196 0
173 197 0
173 197 0
171 195 0
174 197 0
173 197 0
176 198 0
172 196 0
175 198 0
173 196 0
172 195 0
174 197 0
173 196 0
175 198 0
174 197 0
172 195 0
172 196 0
172 194 0
174 198 0
172 196 0
171 194 0
174 198 0
172 196 0
172 195 0
173 197 0
173 197 0
171 195 0
173 196 0
173 197 0
172 196 0
174 197 0
172 195 0
174 197 0
174 197 0
173 196 0
174 197 0
170 194 0
172 196 0
173 197 0
172 195 0
175 198 0
173 196 0
171 196 0
173 197 0
172 195 0
172 195 0
172 195 0
174 197 0
171 194 0
173 196 0
174 197 0
171 194 0
172 195 0
169 192 0
171 194 0
172 196 0
172 193 0
166 190 0
171 194 0
173 196 0
173 197 0
173 196 0
174 197 0
171 193 0
173 196 0
172 196 0
170 194 0
172 195 0
172 195 0
171 196 0
172 196 0
173 196 0
170 193 0
173 196 0
174 197 0
171 195 0
171 195 0
173 196 0
171 193 0
171 194 0
173 196 0
171 195 0
173 197 0
175 198 0
170 194 0
174 197 0
172 196 0
172 195 0
173 196 0
172 195 0
171 195 0
171 194 0
172 195 0
171 195 0
173 196 0
172 196 0
172 196 0
171 195 0
174 198 0
170 193 25
168 191 51
143 167 103
119 146 139
81 113 171
62 99 181
62 99 180
62 99 180
62 99 181
62 99 180
62 99 181
61 99 181
62 99 181
61 99 180
61 99 181
62 99 181
62 99 181
62 99 181
62 99 181
61 99 181
61 98 181
61 98 181
62 99 181
62 99 181
61 99 181
62 99 181
61 99 181
62 99 181
61 99 181
62 99 181
61 99 181
62 99 180
61 99 181
61 98 181
61 99 181
61 99 181
62 99 181
62 99 181
61 98 180
62 99 180
62 99 181
62 99 181
61 99 180
61 99 181
62 99 181
61 99 181
62 99 180
62 99 181
62 99 181
62 99 180
61 98 181
61 99 180
62 99 181
61 99 181
62 99 181
62 99 181
61 99 180
61 99 181
61 98 180
62 99 181
62 99 181
61 98 181
61 99 180
61 98 181
62 99 180
61 99 180
61 99 181
62 99 181
62 99 180
61 99 181
62 99 181
61 98 180
62 99 181
62 99 181
62 99 181
62 99 181
61 98 180
62 99 181
62 99 180
62 99 180
61 99 180
62 99 181
62 99 180
62 99 180
61 99 181
62 99 180
61 99 180
61 99 181
61 99 179
62 99 181
62 99 180
61 98 178
61 98 179
62 99 181
62 99 179
62 99 179
63 99 180
62 99 179
61 98 179
62 99 179
62 99 180
62 99 177
62 99 181
62 99 178
62 99 179
62 99 179
62 98 177
62 99 179
62 99 179
62 99 177
62 98 177
61 98 176
62 98 176
61 98 176
61 97 176
62 100 181
61 98 172
62 98 176
61 97 170
61 97 171
62 98 175
61 97 174
61 97 173
62 98 176
62 98 176
72 103 170
80 102 144
121 130 113
133 142 97
133 134 71
130 132 54
124 123 63
125 124 62
134 131 71
141 135 80
130 126 75
120 118 72
127 125 73
133 129 78
118 116 72
113 114 73
123 121 76
129 127 80
133 130 84
131 128 82
117 117 75
129 127 80
135 132 87
126 126 85
136 135 87
123 121 83
132 131 89
139 137 91
132 130 88
116 117 81
139 138 94
135 133 88
124 126 89
132 131 89
122 123 86
132 131 92
138 136 93
127 128 90
138 137 93
139 139 95
141 139 95
142 141 96
142 140 94
144 142 96
148 147 101
148 146 99
150 148 100
148 147 100
157 155 103
157 154 103
158 155 104
156 154 104
156 153 103
159 157 105
157 155 105
158 156 102
155 153 101
156 152 102
154 153 101
158 156 102
157 155 102
164 161 108
163 160 105
162 159 104
169 165 106
169 165 109
164 161 105
162 160 105
165 162 106
165 162 106
162 159 105
167 164 109
171 167 108
171 167 107
168 165 108
170 166 108
169 166 108
170 167 110
174 169 109
172 167 108
172 168 110
179 173 112
174 170 111
171 167 109
172 169 107
171 166 106
173 169 110
173 168 110
174 170 108
178 172 110
174 169 109
168 165 104
173 170 111
173 169 108
174 170 106
176 170 109
176 171 108
176 171 109
173 168 108
171 167 107
176 170 108
172 167 106
174 168 106
179 172 112
174 169 108
176 172 111
173 168 108
173 168 108
175 170 110
173 168 106
171 167 106
176 170 109
166 162 101
169 164 107
171 166 102
168 163 101
168 163 103
170 165 103
171 165 103
168 163 100
171 165 103
170 165 104
166 160 99
168 163 99
168 163 102
169 163 102
170 164 101
171 164 102
160 154 93
163 158 97
169 163 97
159 154 93
169 163 101
169 162 97
167 162 99
157 152 89
159 154 91
157 152 88
161 155 90
160 153 90
158 152 88
162 155 93
157 151 86
153 148 84
159 154 91
158 151 87
149 142 75
155 149 85
155 148 84
160 153 84
149 144 79
141 136 73
148 141 78
142 140 62
147 146 71
151 154 60
152 160 54
153 160 57
151 162 49
167 179 48
157 171 37
159 176 30
163 183 25
170 191 16
171 191 11
176 198 16
173 197 0
173 197 0
173 197 0
175 198 0
173 197 0
174 197 0
172 196 0
175 198 0
172 196 0
173 196 0
173 197 0
174 197 0
173 197 0
175 197 0
174 197 0
172 196 0
173 196 0
174 197 0
174 197 0
174 197 0
173 196 0
174 196 0
172 195 0
173 196 0
172 195 0
172 195 0
172 195 0
175 198 0
174 197 0
172 196 0
171 195 0
172 195 0
173 196 0
173 197 0
173 196 0
173 196 0
173 197 0
172 196 0
173 197 0
174 197 0
170 194 0
173 197 0
173 197 0
175 198 0
170 193 0
172 196 0
171 195 0
173 196 0
175 198 0
173 197 0
172 196 0
173 196 0
172 196 0
174 197 0
171 195 0
173 197 0
172 196 0
172 194 0
173 197 0
174 197 0
169 192 0
170 194 0
172 196 0
172 196 0
173 197 0
173 197 0
174 197 0
169 193 0
171 194 0
172 195 0
171 194 0
173 197 0
173 196 0
167 190 0
171 195 0
173 197 0
171 195 0
173 195 0
174 197 0
172 195 0
172 195 0
172 195 0
174 197 0
170 194 0
171 194 0
171 195 0
170 192 0
172 196 0
171 194 0
174 198 0
173 196 0
172 195 0
173 196 0
170 194 0
171 195 0
172 195 0
171 194 0
172 196 0
170 193 0
170 195 0
172 195 0
173 196 0
172 195 0
172 195 0
173 196 0
170 194 0
171 195 0
172 195 0
170 193 25
164 188 60
143 168 107
117 144 141
68 103 176
62 99 181
62 99 181
62 99 181
62 99 181
62 99 181
62 99 180
62 99 181
62 99 181
62 99 180
61 99 181
62 99 181
62 99 180
62 99 181
62 99 181
62 99 181
62 99 181
62 99 181
61 99 181
62 99 181
62 99 181
63 100 181
62 99 181
62 99 181
62 99 181
62 99 181
62 99 181
61 99 180
62 99 180
62 99 181
62 99 181
62 99 181
61 99 181
62 99 181
61 99 181
62 99 181
62 99 181
61 99 181
61 99 181
62 99 181
61 99 181
62 99 181
62 99 181
61 98 180
61 99 181
62 99 181
62 99 181
61 99 181
61 98 180
61 99 181
62 99 181
62 99 181
62 99 181
61 99 181
61 98 181
61 99 181
61 99 181
62 99 181
61 99 181
61 99 181
61 98 180
61 99 181
62 99 180
62 99 181
62 99 181
62 99 181
61 99 181
62 99 180
62 99 181
62 99 180
61 98 180
62 99 180
62 99 181
62 99 179
62 99 179
62 99 181
62 99 181
62 99 179
62 99 180
61 99 181
62 99 181
62 99 179
62 99 181
62 99 181
62 99 180
61 99 181
62 99 180
62 99 179
62 99 180
61 98 181
62 99 179
62 99 180
62 99 178
62 99 180
61 98 177
62 99 180
62 99 179
62 99 178
62 99 177
62 99 180
62 99 180
62 99 179
61 99 181
62 99 180
62 99 179
61 98 179
63 100 180
62 99 179
62 99 178
62 98 174
62 98 178
62 99 178
63 99 177
61 97 172
62 98 174
60 96 172
63 99 177
61 97 174
62 99 177
61 97 172
60 95 169
62 98 171
60 95 166
64 97 164
92 110 145
111 123 126
107 114 100
132 133 84
131 132 60
120 119 61
133 130 75
124 121 68
127 124 68
111 109 62
131 128 73
126 124 75
135 132 83
122 120 76
119 118 73
123 122 78
130 127 79
128 127 84
119 119 78
115 116 80
131 129 85
120 119 82
125 125 83
130 129 87
125 124 84
141 139 94
145 142 93
122 123 83
130 129 87
137 135 92
133 131 88
132 131 91
140 138 93
129 129 88
139 138 94
142 141 96
137 137 94
142 140 94
145 143 96
141 140 96
150 148 99
139 138 94
135 135 93
143 142 95
152 150 102
150 148 101
145 144 97
150 148 101
147 145 98
152 150 101
151 150 102
147 146 99
162 158 105
153 151 101
152 151 100
166 162 105
157 154 103
155 153 101
160 157 104
163 160 107
158 155 103
158 156 102
166 162 105
165 161 107
167 164 109
167 164 108
175 170 113
166 162 107
168 163 108
161 158 105
167 164 107
168 165 107
171 166 106
171 167 109
168 164 103
173 169 110
168 164 109
168 165 109
172 167 104
174 169 109
174 170 109
175 169 108
173 168 109
174 170 108
170 167 108
177 172 111
174 169 107
174 169 110
177 172 111
178 171 109
175 170 107
176 171 110
172 168 104
176 170 109
173 168 106
171 167 105
177 171 108
175 170 106
172 168 103
172 168 109
176 170 104
172 167 106
175 170 110
176 170 109
172 167 104
169 165 103
169 165 104
173 167 105
172 166 103
173 167 107
175 169 106
174 167 106
175 170 109
173 167 104
172 166 104
174 168 107
169 165 106
169 164 103
172 167 103
165 159 98
168 163 102
167 163 101
170 164 99
168 162 99
162 155 95
170 164 103
160 156 96
164 158 96
162 157 90
167 161 99
156 151 87
161 156 92
164 158 97
163 157 93
157 151 88
154 149 87
158 151 89
160 154 91
163 157 90
157 151 87
153 147 84
155 149 87
148 141 84
152 147 80
151 145 80
151 145 84
149 144 77
150 145 74
155 148 85
144 137 79
143 137 74
146 141 70
150 149 70
150 150 60
151 155 57
151 158 56
151 161 47
159 171 42
156 169 37
162 178 41
165 183 32
164 184 25
167 189 16
172 195 0
174 198 0
176 199 0
174 197 0
176 198 0
173 197 0
173 196 0
173 197 0
174 197 0
175 198 0
173 196 0
175 198 0
175 198 0
172 196 0
173 196 0
174 197 0
173 196 0
172 196 0
173 197 0
175 198 0
171 195 0
169 193 0
173 197 0
175 198 0
174 198 0
172 196 0
171 195 0
175 197 0
173 196 0
175 198 0
173 196 0
172 195 0
172 196 0
174 197 0
171 195 0
174 197 0
172 196 0
174 198 0
172 196 0
174 197 0
173 196 0
174 197 0
172 195 0
172 195 0
173 196 0
173 196 0
172 196 0
171 195 0
173 197 0
173 196 0
172 196 0
174 197 0
175 198 0
173 197 0
173 196 0
173 196 0
171 194 0
173 197 0
173 196 0
173 197 0
173 197 0
171 194 0
172 196 0
171 195 0
171 195 0
169 192 0
172 194 0
172 196 0
173 197 0
172 196 0
172 195 0
172 196 0
171 195 0
173 195 0
171 195 0
173 196 0
172 195 0
171 194 0
169 193 0
171 194 0
171 195 0
171 194 0
173 196 0
174 197 0
172 195 0
174 197 0
173 196 0
171 195 0
169 192 0
170 193 0
171 195 0
171 195 0
173 197 0
172 195 0
171 195 0
173 195 0
170 193 0
172 195 0
170 194 0
173 196 0
174 197 0
172 196 0
172 195 0
169 193 0
174 197 0
171 195 0
170 193 0
173 196 0
169 192 18
169 193 47
149 173 97
110 138 147
74 108 174
62 99 180
62 99 180
62 99 180
61 99 179
62 99 180
63 100 180
62 99 181
62 99 181
61 98 181
61 99 181
62 99 180
62 99 181
61 99 180
62 99 180
62 99 181
62 99 181
62 99 181
62 99 181
62 99 181
61 98 181
61 99 181
62 99 181
62 99 181
62 99 181
61 98 181
61 98 181
61 99 180
62 99 181
62 99 181
62 99 181
61 99 180
62 99 180
62 99 181
62 99 180
61 99 181
62 99 180
62 99 181
61 99 181
61 99 181
62 99 181
62 99 181
61 99 181
62 99 181
62 99 180
62 99 181
61 98 180
62 99 181
61 98 181
61 99 180
62 99 181
61 99 181
61 98 180
62 99 181
61 98 180
62 99 181
62 99 180
61 99 180
62 99 181
62 99 181
62 99 180
62 99 180
62 99 181
62 99 181
61 99 180
62 99 181
62 99 181
61 99 181
61 99 180
62 99 181
62 99 181
61 99 180
62 99 180
62 99 180
62 99 181
62 99 181
62 99 181
62 99 181
62 99 181
62 99 181
61 99 180
62 99 180
62 99 181
61 99 181
62 99 181
62 99 181
62 99 180
62 99 179
62 99 178
61 99 180
62 99 178
62 99 180
62 99 181
61 98 178
62 99 179
62 99 179
62 99 176
62 99 180
62 99 177
62 99 180
62 99 179
62 99 177
61 99 181
61 98 177
61 98 176
61 99 180
62 99 181
61 98 177
61 98 177
62 99 175
62 99 179
62 98 175
61 98 174
62 98 177
62 98 175
61 97 173
61 98 174
61 98 175
61 98 173
61 97 172
61 97 171
61 96 167
61 96 171
61 96 170
61 98 177
66 97 164
92 112 152
100 115 130
111 116 102
127 126 76
133 131 74
126 124 65
127 124 69
116 114 67
115 113 65
136 133 77
122 119 72
116 115 69
126 125 79
129 126 76
125 123 75
124 121 77
128 128 86
127 125 82
131 129 84
116 116 75
128 127 88
126 125 82
130 129 90
126 125 85
130 130 90
134 133 91
113 113 77
140 138 92
134 133 89
128 128 90
135 135 93
128 128 88
140 139 95
130 130 91
138 137 96
130 130 89
140 140 96
140 139 93
146 145 99
138 138 95
137 136 94
138 137 93
149 147 97
146 144 96
142 142 97
146 145 97
141 140 94
154 152 103
152 151 102
155 152 101
158 155 106
156 154 104
152 149 98
159 155 103
146 145 98
160 158 105
158 156 105
156 154 102
161 158 107
164 161 102
163 160 105
167 163 108
159 158 105
164 160 104
167 163 109
166 163 107
166 162 105
165 162 108
165 162 107
172 167 106
165 162 105
167 163 104
171 167 109
170 166 109
168 164 107
172 168 108
173 168 108
173 169 109
172 168 105
172 169 110
172 168 108
168 165 106
173 169 109
174 169 107
174 170 109
173 169 109
172 167 108
170 167 108
178 172 110
174 169 107
172 167 105
175 170 107
174 169 108
170 166 103
179 173 109
177 171 109
174 168 106
173 169 106
176 171 109
173 168 106
174 169 107
172 167 104
170 165 101
173 168 106
173 168 104
170 165 105
170 166 106
172 168 105
170 165 106
172 166 104
171 166 102
172 166 103
168 162 103
171 166 102
172 167 104
171 165 101
169 164 100
170 164 104
172 166 101
166 161 99
167 163 101
169 164 101
167 162 101
166 160 97
167 161 100
169 163 98
166 160 95
163 158 93
158 153 93
158 152 90
166 160 98
164 157 93
159 153 87
156 150 85
158 152 92
167 161 101
163 156 94
157 152 90
164 157 90
152 146 83
147 143 80
158 152 87
151 145 80
150 144 83
154 148 82
149 143 79
149 143 79
149 144 75
148 142 77
150 145 74
147 143 74
144 142 62
151 149 68
155 158 59
155 161 54
153 165 45
161 172 52
159 175 32
164 179 41
169 186 32
168 188 16
172 193 11
170 191 11
173 197 0
173 196 0
172 195 0
173 196 0
171 195 0
174 198 0
174 196 0
175 198 0
175 197 0
171 194 0
174 197 0
171 194 0
174 197 0
174 197 0
174 196 0
173 197 0
174 197 0
174 197 0
174 197 0
174 198 0
173 197 0
172 196 0
170 194 0
174 197 0
172 196 0
171 195 0
174 196 0
174 197 0
171 194 0
172 196 0
174 197 0
174 197 0
174 198 0
171 195 0
171 195 0
173 196 0
173 196 0
174 197 0
172 195 0
171 195 0
173 196 0
172 196 0
169 193 0
171 195 0
173 196 0
172 196 0
175 198 0
173 196 0
173 197 0
173 196 0
172 196 0
171 194 0
171 194 0
171 195 0
172 196 0
174 196 0
172 196 0
172 195 0
171 194 0
172 195 0
171 194 0
172 195 0
174 197 0
173 195 0
172 196 0
173 196 0
171 195 0
174 197 0
170 193 0
172 196 0
171 194 0
171 194 0
173 196 0
173 195 0
173 196 0
169 194 0
173 196 0
173 196 0
172 195 0
173 196 0
171 195 0
172 195 0
175 198 0
172 196 0
172 195 0
171 194 0
173 197 0
174 197 0
171 193 0
173 197 0
172 196 0
173 197 0
171 194 0
171 195 0
171 195 0
173 197 0
174 197 0
171 194 0
171 195 0
171 195 0
173 196 0
171 194 0
172 196 0
172 195 0
171 194 0
171 194 0
168 192 18
164 188 62
151 174 92
117 143 143
81 113 170
62 99 180
62 99 181
62 99 180
62 99 180
62 99 181
62 99 179
62 99 181
61 99 180
62 99 181
62 99 181
61 99 180
62 99 181
62 99 181
62 99 181
62 99 181
62 99 181
62 99 181
62 99 180
61 99 181
62 99 181
61 99 181
61 98 181
62 99 181
62 99 181
61 99 181
61 99 180
62 99 180
62 99 181
61 99 181
62 99 181
62 99 180
62 99 181
62 99 181
62 99 181
61 99 181
62 99 181
62 100 181
62 99 181
62 99 180
61 99 181
61 98 180
61 99 181
61 98 180
62 99 181
62 99 181
61 99 181
62 99 181
62 99 181
61 99 180
61 99 181
62 99 180
62 99 181
62 99 181
61 99 181
61 99 181
61 99 181
61 99 181
62 99 180
62 99 181
62 99 181
61 98 181
61 99 181
62 99 180
61 99 180
61 98 179
62 99 181
62 99 180
62 99 181
62 99 179
62 99 180
62 99 180
62 99 181
62 99 180
62 99 181
62 99 180
62 99 181
62 99 179
61 99 179
62 99 181
62 99 181
62 99 179
61 98 179
62 99 181
61 98 177
61 99 180
61 99 180
61 98 179
62 99 181
61 98 178
62 99 180
62 99 181
62 99 180
61 98 178
62 99 181
62 99 181
62 99 179
61 99 180
61 98 179
62 99 177
62 99 178
62 99 180
61 99 179
61 98 177
62 99 177
62 99 179
61 98 177
62 98 177
62 98 177
62 98 177
62 99 177
62 99 176
62 99 178
63 99 180
62 99 178
62 99 179
61 98 176
61 97 173
61 98 174
60 96 172
62 98 173
62 98 173
61 97 170
62 99 175
62 98 174
61 97 169
61 97 172
65 98 166
86 105 146
103 114 134
107 114 112
130 129 83
118 116 65
116 113 62
115 113 64
136 132 77
121 120 69
118 116 73
121 119 73
130 127 81
120 118 71
125 123 81
120 119 79
113 113 75
129 127 85
118 119 82
119 118 79
124 124 83
116 117 80
118 120 85
130 128 87
125 126 87
132 131 90
125 125 86
135 134 88
123 123 85
136 135 91
133 132 90
132 131 90
137 135 93
131 132 91
130 131 92
130 130 88
150 147 98
134 134 93
133 133 93
142 140 95
138 137 94
144 143 99
143 142 96
144 143 99
148 146 98
151 149 99
155 152 103
147 146 97
146 145 98
150 148 100
155 153 103
157 154 104
154 152 100
156 154 104
156 153 102
158 156 104
154 152 101
166 162 107
163 160 106
161 158 101
158 156 103
157 156 104
163 159 104
162 160 103
167 164 108
170 166 109
166 163 104
161 160 104
171 166 109
169 165 108
166 163 105
167 164 106
170 166 108
164 161 104
166 162 104
175 170 110
175 171 112
172 168 108
172 167 106
174 169 109
173 169 110
171 166 106
177 171 108
176 170 110
173 169 105
176 171 108
176 171 108
174 169 108
177 171 108
176 171 109
174 169 108
173 169 108
172 167 106
170 165 106
175 170 108
174 170 109
176 171 107
180 173 111
173 168 108
173 168 105
178 172 105
172 167 104
176 170 108
171 167 104
169 164 101
167 163 104
171 166 104
172 167 106
171 166 103
175 169 108
171 166 105
173 168 104
171 165 104
172 166 103
168 164 101
171 166 101
167 163 99
168 163 99
170 165 105
170 164 100
172 166 102
162 156 95
167 162 98
164 159 96
163 158 95
169 163 101
167 161 97
172 165 100
160 155 90
160 154 90
164 159 97
158 153 92
157 153 90
157 151 88
156 150 85
161 155 89
158 152 90
159 153 89
166 159 96
163 156 88
158 151 90
150 145 79
157 150 85
148 142 79
148 142 78
148 143 77
157 151 80
140 134 73
148 142 76
137 131 71
144 141 64
152 150 74
147 148 65
147 149 61
155 160 61
149 158 45
161 174 41
158 172 39
162 177 34
161 178 36
166 184 28
172 195 11
171 194 11
172 195 0
174 197 0
175 197 0
173 196 0
174 198 0
170 194 0
174 197 0
172 196 0
173 196 0
175 198 0
173 197 0
174 198 0
175 198 0
171 195 0
172 196 0
172 196 0
173 196 0
173 197 0
172 196 0
172 196 0
173 197 0
174 197 0
172 196 0
173 197 0
174 197 0
174 197 0
172 196 0
175 197 0
174 198 0
174 196 0
173 196 0
170 194 0
170 194 0
173 197 0
172 196 0
171 195 0
173 197 0
174 198 0
170 194 0
174 197 0
172 195 0
171 193 0
172 195 0
173 196 0
172 195 0
172 195 0
172 195 0
173 197 0
172 195 0
175 198 0
170 194 0
171 194 0
173 195 0
174 197 0
172 195 0
172 196 0
171 195 0
170 195 0
172 195 0
171 195 0
172 196 0
169 192 0
173 196 0
172 195 0
174 197 0
174 197 0
171 195 0
172 195 0
171 195 0
174 197 0
170 195 0
171 195 0
172 195 0
172 195 0
170 193 0
171 195 0
173 197 0
173 197 0
171 194 0
171 195 0
173 197 0
173 196 0
172 195 0
173 196 0
170 194 0
174 197 0
172 196 0
172 195 0
171 195 0
176 198 0
169 193 0
174 196 0
170 194 0
172 196 0
174 197 0
173 196 0
171 195 0
172 195 0
173 196 0
173 195 0
172 195 0
170 194 0
172 195 0
172 196 0
170 194 0
170 194 0
168 192 44
144 169 105
112 139 145
72 106 174
63 100 180
61 98 179
62 99 178
62 99 180
63 100 181
62 99 180
62 99 181
62 99 181
62 99 181
62 100 181
62 99 181
62 99 181
61 99 180
61 99 181
62 99 179
62 99 179
62 99 181
62 99 181
62 99 181
61 99 181
62 99 181
61 99 181
62 99 181
62 99 180
62 99 181
63 100 181
61 98 180
61 99 181
61 98 180
61 99 181
62 99 181
62 99 181
61 98 181
61 99 180
61 98 181
61 99 181
62 99 181
61 98 181
62 99 181
62 99 181
61 99 181
61 99 181
62 99 181
62 99 180
62 99 181
62 99 181
62 99 181
62 99 181
62 99 181
62 99 179
62 99 181
62 99 181
61 99 181
61 98 181
62 99 181
61 99 180
62 99 181
61 99 180
62 99 180
61 98 180
62 99 181
62 99 181
62 99 180
62 99 181
62 99 181
62 99 181
61 99 181
61 99 179
61 98 179
61 98 181
61 98 180
62 99 181
62 99 180
62 99 181
62 99 180
61 99 181
61 98 180
62 99 180
62 99 180
62 99 178
62 99 180
62 99 180
61 99 181
62 99 180
62 99 181
62 99 181
62 99 179
62 99 179
62 99 181
61 99 181
62 99 179
62 99 178
62 99 177
62 99 177
62 99 177
62 99 178
62 99 178
62 99 176
61 98 179
62 99 179
62 99 178
61 98 178
62 99 179
62 99 180
62 99 179
62 99 177
63 100 179
62 99 177
62 98 176
62 99 176
62 99 175
61 98 175
62 98 175
62 99 176
61 98 171
61 97 174
62 99 175
61 97 172
62 98 176
61 98 174
61 98 175
62 98 174
62 97 171
62 98 174
61 97 172
61 97 172
62 98 176
61 96 167
64 96 162
77 99 148
95 106 121
117 119 98
119 118 88
121 119 73
124 121 71
117 116 75
124 122 75
109 107 62
120 119 73
125 123 74
126 123 79
115 116 79
120 119 77
133 131 82
123 121 80
119 119 82
119 119 75
127 126 86
110 112 78
118 119 81
110 110 74
127 126 86
116 116 80
125 126 88
116 117 84
130 129 88
119 119 83
137 137 94
131 132 94
134 133 93
134 133 91
133 132 91
143 141 95
127 127 89
144 143 97
134 135 93
140 139 95
140 139 94
141 140 94
151 149 101
142 141 94
141 140 96
149 148 100
147 145 97
147 146 99
152 150 101
152 150 100
151 149 101
144 144 97
157 154 101
154 152 101
155 152 100
156 154 102
156 153 102
158 156 103
158 155 103
158 155 103
166 162 106
164 160 104
162 159 106
162 159 104
161 158 106
166 162 105
161 158 105
165 162 106
165 162 105
167 163 104
169 164 106
170 165 109
171 166 105
171 166 108
175 171 109
171 166 107
176 170 110
170 166 105
170 166 105
174 168 110
172 168 107
170 167 107
174 169 108
175 169 109
177 171 110
174 169 108
173 168 107
176 171 110
176 170 107
174 170 110
170 166 108
176 171 110
174 169 105
177 171 107
173 168 105
177 170 107
175 170 107
174 169 104
176 170 105
177 171 109
173 167 105
172 166 103
175 169 105
176 170 105
167 162 99
176 170 108
173 168 106
169 164 101
170 165 104
170 165 100
171 167 104
171 166 105
171 165 101
167 161 98
177 171 106
173 167 106
171 164 99
168 162 102
171 164 99
168 163 96
171 165 103
166 160 99
161 155 95
164 158 95
168 162 96
168 163 97
163 157 91
161 155 95
164 158 93
163 157 93
162 155 91
163 157 94
167 160 96
160 154 90
159 154 93
156 151 90
162 156 92
163 157 95
156 150 87
162 155 87
157 151 86
151 145 86
149 144 84
154 149 84
156 151 84
146 140 76
148 142 80
156 151 82
144 138 72
143 137 73
141 135 69
138 137 64
142 143 65
147 154 51
156 160 62
156 164 53
156 167 45
159 173 37
167 184 37
165 183 32
166 186 22
169 191 16
174 197 0
172 196 0
172 196 0
173 197 0
174 197 0
172 196 0
175 198 0
172 196 0
175 197 0
174 198 0
170 194 0
172 196 0
174 197 0
174 196 0
171 195 0
175 198 0
173 196 0
170 193 0
173 197 0
172 195 0
173 197 0
173 197 0
172 196 0
173 196 0
173 196 0
173 196 0
172 197 0
175 198 0
173 197 0
174 197 0
172 195 0
172 195 0
173 196 0
174 197 0
174 197 0
174 197 0
174 197 0
175 198 0
172 196 0
171 194 0
175 198 0
171 193 0
173 196 0
175 198 0
173 196 0
171 194 0
174 197 0
169 192 0
170 194 0
172 196 0
171 194 0
174 196 0
171 195 0
173 197 0
171 195 0
173 195 0
172 196 0
170 194 0
174 197 0
173 196 0
171 194 0
174 197 0
172 195 0
174 198 0
175 198 0
171 194 0
173 197 0
172 195 0
173 196 0
174 196 0
172 196 0
173 196 0
171 194 0
172 196 0
169 192 0
173 196 0
172 195 0
174 197 0
171 195 0
170 194 0
172 195 0
172 196 0
173 197 0
175 197 0
173 195 0
172 195 0
169 193 0
170 195 0
174 196 0
174 196 0
173 196 0
176 199 0
172 196 0
170 194 0
173 196 0
172 195 0
171 194 0
168 192 0
169 192 0
169 192 0
173 196 0
171 195 0
173 196 0
172 195 0
172 194 0
172 194 0
164 188 51
152 176 86
122 148 134
73 107 174
62 99 181
62 99 181
63 100 180
61 98 179
62 99 180
62 99 180
62 99 181
62 99 180
62 99 181
62 99 181
62 99 180
62 99 181
62 99 180
61 99 180
61 99 181
62 99 181
62 99 181
62 99 181
62 99 181
61 99 181
61 99 181
61 99 181
62 99 181
62 99 181
62 99 181
62 99 181
62 99 181
61 98 179
62 99 180
61 99 181
61 99 179
62 99 181
61 99 181
62 99 181
62 99 180
61 98 179
61 99 180
61 98 180
61 98 181
61 99 180
62 99 181
61 98 180
61 99 180
61 99 181
62 99 181
62 99 179
62 99 180
61 99 181
62 99 181
62 99 181
62 99 181
62 99 180
61 99 180
61 98 181
62 99 181
62 99 179
62 99 180
62 99 180
61 99 181
62 99 180
62 99 180
61 99 180
62 99 180
62 99 181
62 99 180
62 99 181
62 99 181
62 99 181
62 99 180
62 99 181
62 99 180
61 98 180
62 99 181
61 99 179
62 99 181
62 99 178
61 99 180
62 99 179
61 98 177
62 99 179
62 99 180
62 99 179
62 99 181
62 99 180
61 98 180
62 99 180
62 99 181
62 99 180
62 99 180
61 99 181
61 98 179
62 99 180
62 99 178
62 99 181
62 99 179
62 99 181
62 99 180
61 98 179
62 99 179
62 99 177
62 99 180
62 99 179
61 98 178
62 99 177
62 99 179
62 99 178
62 98 174
62 99 181
62 99 179
62 99 180
62 99 176
62 99 178
62 99 175
61 99 178
61 98 174
62 98 176
62 99 176
62 99 174
62 98 175
62 98 175
62 98 175
62 98 174
61 98 177
62 99 178
62 98 175
61 97 172
61 97 173
61 97 171
61 97 170
62 97 172
64 97 166
88 107 151
111 118 125
121 122 94
123 121 83
130 126 74
128 125 77
124 122 74
125 121 73
117 115 71
121 118 75
117 116 72
123 123 78
112 111 72
117 118 77
122 120 80
125 124 82
119 118 77
116 116 81
117 117 77
125 125 85
120 120 84
127 126 86
127 126 85
113 113 78
125 125 85
119 120 83
129 129 89
119 120 85
127 128 87
126 127 87
127 128 89
127 127 90
139 138 94
137 136 94
140 140 96
136 135 92
134 133 92
136 136 95
139 139 94
139 139 96
137 137 95
137 136 94
148 146 98
145 143 97
151 150 101
146 144 95
147 145 97
154 152 101
144 143 96
152 151 102
165 162 106
157 154 102
157 154 102
151 149 100
159 156 103
162 159 105
153 151 98
163 160 106
163 159 104
162 160 103
164 161 108
164 161 104
166 163 106
165 161 105
171 167 108
166 162 102
169 165 107
163 161 104
174 169 109
171 167 106
169 164 105
166 163 104
167 164 101
173 168 108
172 168 108
173 168 106
172 168 108
171 167 106
171 168 108
177 171 108
176 171 110
172 166 106
174 169 109
174 169 107
172 167 108
173 168 107
175 169 107
176 171 108
174 169 103
176 170 106
174 168 105
176 171 105
174 169 108
172 166 102
176 171 109
176 170 106
174 169 103
175 168 105
176 171 108
177 171 108
173 168 106
174 170 107
172 168 101
174 168 109
175 170 109
172 166 99
171 166 103
168 163 101
171 166 103
173 167 104
173 167 104
173 167 98
171 166 102
169 164 100
164 158 95
169 164 97
166 162 99
172 167 103
165 159 95
165 160 96
167 162 99
167 161 95
170 164 101
167 161 100
165 159 95
164 158 93
162 157 93
169 163 97
164 158 95
159 153 89
157 151 88
156 150 89
156 151 87
165 158 97
147 142 79
156 150 87
162 156 93
155 149 84
149 144 78
154 148 86
150 144 75
145 139 80
155 148 84
158 152 83
146 140 80
147 141 75
147 141 75
149 144 78
142 138 77
147 149 65
159 160 68
156 161 60
152 161 52
155 167 39
158 167 45
164 180 32
164 182 28
167 189 11
167 188 11
169 190 11
173 197 0
174 198 0
174 198 0
175 198 0
171 195 0
174 198 0
172 196 0
173 196 0
172 196 0
173 197 0
173 197 0
175 198 0
172 196 0
171 195 0
172 196 0
173 197 0
175 198 0
172 196 0
172 195 0
174 198 0
173 196 0
174 197 0
171 194 0
173 197 0
173 196 0
173 197 0
173 197 0
171 195 0
173 196 0
174 196 0
174 197 0
174 197 0
172 195 0
173 196 0
169 193 0
174 197 0
173 197 0
175 198 0
173 195 0
171 194 0
173 196 0
171 195 0
173 196 0
173 197 0
174 197 0
172 195 0
168 192 0
173 197 0
172 196 0
174 197 0
172 196 0
172 195 0
170 193 0
173 196 0
170 194 0
172 195 0
175 197 0
173 196 0
174 197 0
172 196 0
174 197 0
173 197 0
174 196 0
173 197 0
174 197 0
170 194 0
172 195 0
170 194 0
170 194 0
171 195 0
172 195 0
171 195 0
171 194 0
173 196 0
171 195 0
174 197 0
172 195 0
172 195 0
171 195 0
172 195 0
170 193 0
172 196 0
173 196 0
169 193 0
171 195 0
171 195 0
171 194 0
170 194 0
171 195 0
172 196 0
171 195 0
169 193 0
172 196 0
170 194 0
172 196 0
171 195 0
173 196 0
172 195 0
168 192 0
172 195 0
172 196 0
170 194 0
173 195 0
173 196 0
167 190 47
146 170 105
123 149 137
77 111 173
62 99 181
62 99 177
62 99 180
63 100 181
62 99 181
62 99 179
62 99 180
62 99 181
62 99 181
61 99 181
62 99 180
62 99 180
61 99 180
62 99 180
62 99 180
62 99 181
62 99 181
62 99 181
62 99 181
62 99 180
62 99 180
62 99 180
62 99 181
62 99 181
62 99 180
62 99 181
62 99 180
62 99 181
62 99 181
62 99 180
62 99 181
62 99 181
61 99 181
62 99 180
62 99 180
62 99 180
62 99 181
61 99 181
62 99 181
61 99 181
62 99 181
62 99 179
62 99 180
62 99 180
62 99 181
61 98 181
62 99 181
61 99 181
62 99 179
61 99 181
62 99 180
62 99 180
62 99 181
62 99 181
62 99 181
62 99 180
62 99 180
62 99 181
61 98 181
61 99 181
62 99 181
61 99 181
62 99 180
62 99 180
62 99 181
61 99 181
62 99 180
62 99 179
61 99 181
61 99 181
62 99 181
62 99 180
62 99 180
62 99 180
62 99 179
62 99 181
61 99 180
62 99 180
62 99 180
62 99 181
62 99 180
62 99 178
62 99 180
62 99 180
62 99 181
62 99 181
62 99 180
62 99 181
62 99 179
62 99 179
62 99 180
62 99 179
62 99 178
62 99 179
62 99 179
62 99 181
61 99 179
62 99 181
61 99 179
61 98 177
63 100 179
62 99 180
61 99 178
62 99 180
63 100 180
62 99 179
62 100 181
62 99 178
61 98 173
62 99 178
61 98 175
62 99 180
61 98 174
61 98 175
62 99 179
63 99 179
61 98 178
62 98 173
61 98 171
61 97 175
61 98 172
61 97 175
61 98 174
62 99 177
61 97 173
62 98 175
61 98 172
62 98 173
60 95 167
61 96 170
60 94 166
60 95 167
67 99 169
99 113 142
107 113 111
106 110 91
124 122 77
112 110 63
119 115 72
114 112 70
119 118 72
117 117 74
116 115 76
115 115 72
113 113 76
111 111 72
115 115 79
118 118 78
119 119 77
117 117 80
118 118 80
111 112 78
108 111 77
111 113 81
119 118 79
113 114 81
127 127 88
116 117 83
123 123 85
116 118 84
134 133 93
127 126 87
124 124 86
122 123 88
139 137 94
126 127 90
125 126 89
136 136 93
138 138 93
131 131 91
138 138 94
147 146 99
137 134 89
141 140 94
147 146 99
140 139 96
142 142 97
154 153 102
150 148 97
145 143 95
149 148 101
147 146 97
158 156 102
153 150 100
158 155 100
162 158 103
154 152 101
165 161 103
153 151 99
164 160 104
169 164 105
160 158 102
165 161 104
169 164 106
160 158 104
166 163 105
167 162 105
161 158 103
167 163 101
172 167 109
167 163 104
166 163 104
167 164 107
166 163 105
164 160 101
171 167 107
171 166 103
171 167 107
175 170 110
170 166 105
174 169 108
173 168 107
172 167 106
171 167 100
172 167 104
174 169 108
176 170 107
174 169 107
176 170 108
176 171 107
178 171 110
175 170 109
175 170 108
177 171 109
170 166 99
177 171 108
175 169 104
172 167 104
171 166 103
174 169 106
170 165 101
172 167 104
175 169 104
172 167 108
173 167 104
175 169 104
175 169 104
173 167 104
171 165 100
168 163 103
168 164 101
173 167 103
171 165 102
167 163 98
164 160 97
168 163 98
169 164 96
166 160 96
175 169 103
168 162 101
167 161 102
164 159 93
164 158 97
164 158 97
163 158 93
164 158 94
156 151 88
161 155 90
162 156 89
157 151 87
167 161 96
164 159 93
158 152 93
161 155 90
163 158 92
165 158 92
159 153 86
163 157 90
155 148 89
156 150 89
154 148 83
151 145 82
159 153 85
158 152 90
158 151 85
142 136 73
153 147 75
157 151 78
152 146 80
142 138 68
142 137 72
146 147 59
148 151 53
154 157 62
139 145 48
157 170 42
160 174 39
164 180 39
162 179 34
162 181 25
169 189 16
173 193 19
173 197 0
173 197 0
173 196 0
174 198 0
171 194 0
174 198 0
173 197 0
174 197 0
172 196 0
170 194 0
173 196 0
171 195 0
173 197 0
173 196 0
171 195 0
174 197 0
173 197 0
172 196 0
174 197 0
176 198 0
171 194 0
173 196 0
174 197 0
175 198 0
175 197 0
174 197 0
169 193 0
172 196 0
172 196 0
171 194 0
170 194 0
167 191 0
171 195 0
173 196 0
171 195 0
172 195 0
176 198 0
171 194 0
173 197 0
171 195 0
175 198 0
174 198 0
172 195 0
173 196 0
174 198 0
173 196 0
174 197 0
174 197 0
174 197 0
172 196 0
172 195 0
172 195 0
173 196 0
174 197 0
172 196 0
175 198 0
173 196 0
173 196 0
173 196 0
171 195 0
172 196 0
171 194 0
172 196 0
172 196 0
173 195 0
174 198 0
172 196 0
171 194 0
175 197 0
172 195 0
173 197 0
173 196 0
172 195 0
171 193 0
173 196 0
173 196 0
172 195 0
173 196 0
172 196 0
171 194 0
171 195 0
173 196 0
174 198 0
174 197 0
168 191 0
173 196 0
170 194 0
174 197 0
171 194 0
169 192 0
172 196 0
170 194 0
172 195 0
173 196 0
172 195 0
171 194 0
170 194 0
175 197 0
170 194 0
172 195 0
172 195 0
172 195 0
169 192 0
169 192 25
155 179 84
135 160 117
79 111 170
62 99 181
62 99 180
62 99 179
62 99 181
62 99 180
62 99 180
62 99 181
62 99 180
61 99 180
61 99 181
62 99 180
61 99 181
63 100 181
62 99 181
62 99 181
62 99 181
62 99 181
62 99 181
62 99 181
62 99 181
62 99 181
62 99 181
62 99 181
62 99 180
61 99 181
62 99 181
61 99 181
62 99 181
62 99 181
63 100 181
61 99 180
61 99 181
62 99 181
62 99 180
62 99 181
62 99 181
62 99 181
62 99 181
61 99 180
63 100 181
62 99 180
62 99 181
62 99 180
61 99 181
61 99 181
61 98 180
61 99 181
61 99 180
62 99 181
62 99 180
62 99 180
62 99 180
62 99 180
62 99 181
62 99 180
62 99 181
62 99 180
61 98 178
62 99 180
62 99 181
62 99 180
62 99 180
62 99 181
62 99 180
62 99 179
63 100 180
61 99 181
62 99 181
62 99 179
61 98 180
62 99 179
62 99 181
62 99 181
62 99 180
62 99 181
61 99 181
62 99 180
62 99 180
62 99 181
61 99 181
62 99 181
63 100 180
62 99 181
62 99 180
63 100 181
62 99 181
62 99 180
62 99 180
62 99 181
62 99 178
62 99 180
62 99 181
62 99 178
62 99 181
62 99 178
61 98 177
62 99 180
62 99 180
62 99 178
62 99 178
61 98 178
62 99 180
62 99 180
62 99 178
62 99 178
62 99 178
62 99 178
62 99 177
62 99 178
62 99 180
62 99 177
62 99 175
62 98 176
63 100 180
61 99 178
61 97 170
61 98 177
62 99 175
62 99 178
61 98 174
60 97 174
62 98 176
62 98 175
62 98 172
61 97 169
61 97 174
61 97 173
62 98 174
61 97 172
62 98 172
62 97 170
62 97 170
61 97 170
62 96 166
73 100 158
82 101 137
117 120 103
121 120 85
123 121 76
113 113 68
120 118 73
115 113 68
106 105 64
118 116 68
108 108 69
116 116 75
115 115 75
123 122 78
101 103 72
109 109 74
119 120 81
108 109 75
119 118 80
115 115 79
124 123 83
125 125 86
109 111 79
126 125 84
115 117 84
122 122 84
127 128 89
130 130 91
127 128 88
129 130 88
134 133 91
126 126 88
132 132 89
124 125 88
127 128 89
135 136 93
141 140 96
141 140 95
148 146 99
129 129 88
140 139 93
144 143 95
146 145 99
147 145 98
148 145 97
148 147 99
147 146 99
154 152 102
160 157 102
153 150 98
153 151 101
156 154 102
152 150 100
155 153 102
156 153 98
166 162 105
158 156 102
163 160 105
160 157 102
164 161 106
168 163 106
163 159 103
165 162 108
162 159 103
167 163 104
174 168 108
167 163 105
173 168 108
165 162 107
171 167 105
171 168 107
175 170 108
171 166 107
172 167 105
171 167 103
172 167 106
173 168 106
170 166 106
173 168 105
172 167 104
177 170 104
172 168 106
176 170 104
168 165 104
172 167 104
176 170 108
177 171 109
174 168 105
172 167 106
171 166 104
176 170 108
177 171 109
171 166 101
175 169 104
173 168 106
176 171 107
175 169 106
173 168 103
175 169 103
173 167 101
176 170 104
174 168 105
172 167 101
169 164 103
175 169 106
173 168 104
173 167 103
167 161 96
172 167 99
168 163 97
174 168 104
170 164 99
168 164 101
174 168 103
167 161 99
170 164 99
172 166 103
159 154 95
168 162 99
164 158 98
167 160 97
170 164 99
168 161 97
164 159 95
169 163 97
166 160 95
170 164 95
166 160 95
168 161 91
157 152 87
158 153 87
160 153 89
164 158 89
157 151 87
157 151 90
160 153 87
164 158 95
154 148 84
153 147 80
161 154 88
151 145 75
152 145 83
154 147 86
156 149 80
143 137 72
146 141 71
147 142 73
138 136 61
151 150 67
145 149 53
154 159 58
154 162 53
155 165 41
159 170 51
155 170 30
162 179 30
169 189 25
169 188 28
171 194 16
174 197 0
173 196 0
174 197 0
173 196 0
174 197 0
173 196 0
173 197 0
173 196 0
174 197 0
171 195 0
175 197 0
170 194 0
174 197 0
170 194 0
175 198 0
173 197 0
174 197 0
174 197 0
170 193 0
172 196 0
174 197 0
169 192 0
176 198 0
172 196 0
170 193 0
170 193 0
174 197 0
169 193 0
172 194 0
172 196 0
173 197 0
173 196 0
172 197 0
173 196 0
170 193 0
172 196 0
174 197 0
173 196 0
172 196 0
172 196 0
173 197 0
171 195 0
173 197 0
172 196 0
171 195 0
174 198 0
174 197 0
172 195 0
172 195 0
173 196 0
174 197 0
171 195 0
171 193 0
173 195 0
172 195 0
172 194 0
170 194 0
170 194 0
173 196 0
174 197 0
171 195 0
172 196 0
170 194 0
172 195 0
172 195 0
174 196 0
174 198 0
173 196 0
172 196 0
173 197 0
172 195 0
168 191 0
174 197 0
173 196 0
173 196 0
170 194 0
173 197 0
171 194 0
173 197 0
169 192 0
174 197 0
172 196 0
172 195 0
171 195 0
174 197 0
171 195 0
174 197 0
173 196 0
172 195 0
173 195 0
172 195 0
172 195 0
168 192 0
172 196 0
172 195 0
173 196 0
172 194 0
169 193 0
170 193 0
174 197 0
170 193 0
172 195 0
172 195 0
165 189 51
130 156 125
95 125 159
64 101 178
62 99 179
62 99 179
62 99 181
61 98 179
62 99 181
61 99 180
62 99 180
62 99 180
62 99 181
62 99 181
61 99 181
61 99 181
62 99 179
62 99 181
62 99 181
61 98 180
61 99 178
62 99 181
61 98 179
62 99 179
62 99 181
62 99 181
61 99 181
62 99 181
62 99 180
62 99 179
61 98 179
62 99 181
62 99 180
62 99 180
62 99 179
62 99 181
61 99 181
61 98 181
62 99 181
62 99 181
62 99 181
62 99 181
61 98 180
61 98 181
62 99 181
62 99 181
62 99 178
62 99 178
62 99 181
61 98 181
62 99 179
61 99 180
62 99 180
62 99 180
61 99 181
62 99 181
62 99 180
62 99 180
61 98 179
62 99 181
62 99 180
62 99 181
62 99 181
62 99 181
62 99 181
62 99 181
61 98 178
62 99 181
61 98 181
63 100 181
62 99 181
62 99 181
62 99 181
61 99 180
62 99 179
61 99 180
62 99 180
62 99 180
62 99 180
62 99 180
62 99 180
61 99 181
62 99 181
62 99 180
62 99 180
61 99 181
62 99 180
62 99 179
61 98 178
62 99 178
61 99 181
61 99 181
62 99 181
61 98 179
62 99 178
62 99 180
62 99 181
61 99 181
62 99 180
62 99 178
61 98 177
62 99 177
62 99 181
62 99 178
63 99 179
62 99 177
62 99 179
62 99 178
62 99 175
62 99 177
62 99 178
61 98 174
63 99 179
62 99 176
62 99 179
62 99 176
62 99 176
61 98 176
62 98 168
62 99 173
61 98 173
62 99 175
62 98 175
62 98 175
62 98 175
62 98 176
61 98 175
62 98 175
62 99 174
61 98 174
62 98 171
61 97 173
61 97 174
60 95 162
61 98 173
62 97 168
61 96 167
60 95 166
59 93 162
70 97 153
83 101 134
112 118 113
121 122 93
120 117 69
101 100 62
125 123 78
119 117 81
110 109 70
126 124 80
107 107 70
107 108 75
112 112 75
101 103 72
110 111 81
114 113 77
113 113 78
109 110 74
110 111 76
107 109 77
109 111 79
123 123 84
114 114 78
125 125 85
120 121 85
133 132 91
121 121 83
122 122 85
119 120 86
130 129 90
133 132 90
140 139 95
129 130 92
138 137 94
139 138 92
137 136 94
140 139 93
140 139 95
137 137 94
141 140 95
140 139 96
150 148 96
136 135 92
150 148 98
140 139 96
155 153 100
157 154 100
149 148 101
142 141 94
154 151 102
158 155 99
158 154 101
157 153 100
157 154 103
162 158 101
161 158 101
165 161 106
166 162 107
164 160 103
156 153 100
166 162 104
161 158 100
168 164 104
160 156 101
165 161 104
167 163 104
163 160 102
170 165 104
167 163 104
167 163 108
169 165 105
174 169 107
177 171 108
171 167 106
173 168 105
174 169 110
175 170 108
169 165 104
177 170 108
173 169 105
177 171 105
175 169 107
175 170 107
173 168 108
176 171 106
175 169 107
175 170 106
173 168 102
176 170 107
174 169 108
176 171 106
173 169 108
172 166 101
176 169 102
177 171 105
172 167 101
176 171 107
175 169 103
176 170 106
174 168 102
172 166 103
176 170 102
172 166 103
176 169 103
169 163 97
172 167 102
166 161 97
170 165 98
172 165 102
170 165 98
175 168 104
172 166 104
171 165 99
175 169 103
163 158 96
169 162 96
170 163 98
169 163 96
166 160 96
169 163 100
165 160 95
165 159 90
165 159 98
161 155 88
165 159 95
168 161 95
158 153 83
160 154 87
167 160 97
159 154 86
161 156 90
161 156 88
159 153 87
163 156 90
159 153 81
149 144 77
152 146 82
158 152 86
148 141 80
151 145 82
146 141 75
147 140 77
149 143 73
144 139 71
146 140 71
148 141 77
149 146 70
149 146 70
149 151 58
149 154 53
149 161 39
158 166 58
156 168 49
158 172 37
166 181 37
163 183 16
166 187 16
172 193 11
175 198 0
173 197 0
173 196 0
174 198 0
174 198 0
175 198 0
170 194 0
173 197 0
175 197 0
173 196 0
175 198 0
171 194 0
172 196 0
174 197 0
174 197 0
173 196 0
174 198 0
172 196 0
173 197 0
174 197 0
174 197 0
175 197 0
169 193 0
172 196 0
174 197 0
174 197 0
172 195 0
173 197 0
173 196 0
170 194 0
173 196 0
171 194 0
172 196 0
173 196 0
169 192 0
174 197 0
173 196 0
173 196 0
172 195 0
173 196 0
172 195 0
172 196 0
173 196 0
171 195 0
173 197 0
175 198 0
173 195 0
172 196 0
174 197 0
173 196 0
171 194 0
172 196 0
173 196 0
172 195 0
172 195 0
172 195 0
170 194 0
174 198 0
172 195 0
172 195 0
171 195 0
172 196 0
172 195 0
173 196 0
173 196 0
171 194 0
171 195 0
172 196 0
173 197 0
175 198 0
173 195 0
173 197 0
171 194 0
172 195 0
173 196 0
172 195 0
170 194 0
172 196 0
172 195 0
173 197 0
172 195 0
171 193 0
169 192 0
170 194 0
171 195 0
172 195 0
172 195 0
170 194 0
173 196 0
172 194 0
170 194 0
171 195 0
170 194 0
171 194 0
170 192 0
174 197 0
172 196 0
172 196 0
168 191 0
173 197 0
172 196 0
171 195 18
160 184 72
135 161 118
106 134 152
62 99 179
62 99 181
62 99 179
63 100 180
62 99 181
62 99 181
62 99 180
62 99 181
62 99 181
62 99 181
61 99 179
62 99 180
61 98 180
62 99 180
62 99 179
61 99 180
62 99 179
62 99 179
62 99 181
62 99 181
62 99 181
62 99 179
62 99 181
62 99 180
62 99 179
61 99 180
61 99 181
62 99 181
61 99 180
62 99 179
62 99 181
62 99 180
62 99 181
61 99 181
62 99 180
62 99 181
62 99 181
61 99 180
62 99 179
62 99 180
61 98 181
62 99 180
62 99 180
62 99 181
61 98 180
61 99 180
62 99 180
62 99 180
62 99 179
62 99 181
62 99 179
62 99 180
62 99 180
62 99 180
61 99 179
62 99 180
62 99 179
61 99 181
62 99 180
62 99 180
62 99 180
62 99 181
61 99 181
61 99 180
62 99 178
61 98 181
62 99 181
62 99 181
61 99 181
62 99 181
62 99 179
62 99 179
62 99 181
62 99 181
62 99 180
62 99 181
62 99 179
62 99 180
63 99 180
62 99 180
62 99 177
62 99 179
62 99 177
62 99 180
62 99 180
62 99 178
62 99 181
62 99 180
62 99 180
62 99 179
62 99 180
62 99 180
62 99 180
62 99 179
61 98 178
62 99 181
62 99 180
62 99 180
61 98 179
61 98 179
61 98 177
61 99 180
62 99 178
62 99 180
62 99 177
62 99 179
62 99 179
62 99 177
62 99 177
62 99 175
63 99 176
62 99 180
61 98 173
62 99 178
62 99 176
62 99 179
62 99 180
62 99 180
62 99 176
62 99 174
61 98 175
62 99 178
62 98 174
62 98 171
62 99 176
61 98 174
61 98 175
62 99 179
62 98 172
62 98 174
62 98 170
62 98 172
61 97 167
62 98 171
61 97 171
62 99 174
59 94 160
61 96 167
76 100 152
92 107 137
106 111 100
113 114 85
118 116 71
117 117 73
116 114 70
115 113 72
108 108 72
114 114 72
107 107 73
105 106 75
126 125 84
104 105 73
107 107 74
107 109 77
111 112 76
111 113 79
108 109 75
111 113 79
113 115 82
114 115 80
111 112 79
110 113 82
127 128 89
113 114 83
134 133 90
130 129 89
129 130 90
108 112 81
129 129 89
124 124 86
130 129 87
136 136 92
139 138 94
137 136 95
131 132 91
144 142 96
136 136 94
143 142 96
139 139 91
149 147 97
150 148 98
147 146 94
138 138 93
149 147 98
152 151 100
147 145 96
150 148 96
148 146 99
161 158 102
161 158 102
157 154 101
155 152 96
164 161 104
159 156 100
167 163 104
168 164 106
162 159 102
169 164 104
165 161 105
160 157 103
169 165 107
163 160 101
163 160 99
165 161 103
165 162 103
171 166 102
173 168 103
167 164 105
171 166 104
171 166 104
167 163 103
170 166 105
168 164 107
174 169 104
172 167 106
175 170 106
173 168 104
170 166 102
172 168 102
175 169 106
174 168 106
172 167 102
174 169 105
175 169 104
173 168 101
174 169 104
173 167 103
171 167 103
170 165 103
172 166 100
174 168 104
172 166 106
173 167 103
177 170 108
172 166 101
175 170 104
172 167 102
170 164 101
172 167 101
170 165 101
174 167 101
169 163 97
177 172 108
173 167 101
174 168 103
176 170 106
169 163 100
172 166 98
165 160 95
173 166 99
168 162 99
171 165 102
169 163 95
168 162 95
162 157 88
168 162 98
166 160 93
166 159 93
158 153 87
160 154 92
164 158 88
164 158 95
159 153 89
164 158 90
169 162 95
161 155 89
162 155 89
165 159 90
160 154 89
154 147 87
159 153 87
165 157 91
161 155 87
152 145 84
150 145 80
147 141 78
152 146 80
158 151 85
143 137 74
148 143 79
150 145 80
151 145 74
140 134 68
144 140 64
138 137 61
150 152 63
147 153 45
149 156 53
153 162 47
152 165 39
166 183 30
161 178 32
167 186 25
165 186 11
172 191 22
173 197 0
172 196 0
172 196 0
175 197 0
171 195 0
174 197 0
171 195 0
176 198 0
174 197 0
172 197 0
173 197 0
173 197 0
172 196 0
174 198 0
173 197 0
170 194 0
172 196 0
171 195 0
172 196 0
174 197 0
175 198 0
172 194 0
172 196 0
170 193 0
173 196 0
174 197 0
170 194 0
170 194 0
171 195 0
174 197 0
171 195 0
172 196 0
173 196 0
172 196 0
175 198 0
174 197 0
171 196 0
174 198 0
172 195 0
173 196 0
173 196 0
173 196 0
173 197 0
169 193 0
173 196 0
174 196 0
173 196 0
171 195 0
172 195 0
172 195 0
173 196 0
171 196 0
172 195 0
173 196 0
172 195 0
173 196 0
174 196 0
172 196 0
174 197 0
172 196 0
168 191 0
171 195 0
172 195 0
172 196 0
172 195 0
172 196 0
174 196 0
172 196 0
172 196 0
172 195 0
170 193 0
174 197 0
172 196 0
171 193 0
173 196 0
173 197 0
172 196 0
171 196 0
172 195 0
172 195 0
174 198 0
174 197 0
172 196 0
171 194 0
171 195 0
171 193 0
174 197 0
172 196 0
172 195 0
173 196 0
172 196 0
170 193 0
171 195 0
173 196 0
171 194 0
171 194 0
168 192 0
172 195 0
172 195 0
174 196 0
171 195 0
165 189 51
149 173 97
117 144 139
70 105 175
62 99 180
62 99 179
62 99 181
62 99 181
62 99 181
63 100 181
62 99 180
62 99 180
62 99 179
61 99 180
61 99 180
62 99 180
61 99 181
62 99 181
61 99 181
61 99 181
62 99 180
63 100 181
61 99 180
62 99 181
62 99 181
61 99 181
62 99 181
62 99 180
62 99 181
62 99 181
62 99 181
61 99 180
62 99 180
62 99 180
62 99 181
61 99 180
62 99 179
62 99 180
62 99 180
62 99 180
62 99 180
61 99 180
61 99 181
62 99 181
62 99 181
62 99 180
61 99 181
61 98 180
62 99 181
61 98 181
62 99 180
62 99 181
61 99 180
62 99 180
62 99 180
62 99 180
62 99 181
62 99 180
62 99 179
61 99 181
62 99 181
62 99 181
61 99 179
61 99 179
61 99 180
61 99 179
62 99 181
62 99 181
62 99 179
62 99 181
62 99 180
62 99 180
62 99 181
62 99 181
62 99 180
62 99 180
62 99 180
61 99 180
62 99 179
63 100 181
62 99 180
62 99 181
62 99 180
62 99 181
61 99 181
63 100 180
62 99 181
62 99 181
62 99 180
61 98 179
62 99 178
62 99 178
62 99 177
62 99 179
62 99 179
61 99 180
62 99 178
62 99 178
62 99 178
61 98 179
62 99 175
62 99 178
62 99 179
62 99 180
62 99 178
62 99 178
63 100 181
61 98 176
63 100 180
62 99 180
62 99 179
62 99 180
62 99 179
62 99 179
62 99 177
62 99 176
62 98 173
61 99 179
62 99 179
62 99 176
61 98 176
62 99 175
62 99 173
61 98 176
62 99 176
62 99 175
62 98 173
63 99 174
61 98 176
61 98 175
61 98 175
62 99 177
61 97 174
63 99 176
61 98 176
61 97 168
62 98 172
61 96 168
62 98 166
61 96 169
60 95 166
60 95 164
61 95 166
75 99 149
86 99 119
95 103 106
110 110 78
111 110 73
117 116 71
102 102 68
118 117 75
107 108 71
104 105 70
112 112 74
107 107 70
107 108 74
103 104 72
104 106 75
105 106 76
114 115 80
110 112 79
124 123 81
113 115 82
121 121 84
111 113 82
118 120 86
109 111 80
128 128 88
125 125 86
119 119 83
122 122 85
128 128 89
123 124 87
141 140 95
125 125 85
128 127 88
127 128 89
137 137 92
136 135 91
130 130 87
134 134 89
141 140 95
144 142 96
141 139 91
141 140 91
146 144 95
148 146 96
148 147 99
148 147 99
158 154 100
146 144 93
164 160 103
151 149 99
161 157 100
162 158 103
153 151 100
156 153 96
154 152 97
156 153 101
164 162 107
164 160 103
159 157 101
165 161 101
167 163 105
170 165 106
168 165 103
168 164 104
164 161 102
167 163 103
169 164 105
166 163 102
172 167 103
169 164 102
171 167 105
172 167 104
170 166 106
171 165 100
173 169 105
172 168 105
170 165 99
176 170 107
170 166 104
175 170 106
170 165 100
173 168 105
174 169 105
172 168 105
174 168 103
174 168 103
172 167 103
169 165 102
176 170 105
173 167 99
173 167 101
178 171 104
175 170 103
174 168 103
175 168 101
172 166 103
176 170 107
172 168 104
174 168 103
171 165 100
173 166 99
176 169 104
166 162 97
176 170 106
171 165 99
169 164 99
166 161 93
172 166 94
168 162 99
173 167 103
167 161 99
168 162 91
170 164 99
163 159 94
163 158 95
171 165 98
165 158 95
165 159 91
168 162 93
163 157 92
166 161 93
169 162 93
166 159 96
160 155 90
159 153 88
150 145 83
166 159 90
164 157 87
164 157 91
164 157 84
152 146 78
157 151 84
156 150 80
157 150 86
160 153 87
144 139 75
152 147 78
145 140 72
149 143 80
153 146 80
149 143 79
155 148 79
140 135 75
140 135 64
142 138 66
144 142 67
146 146 61
146 149 56
154 156 66
149 160 32
153 167 37
159 174 30
159 175 28
168 187 22
162 181 16
171 191 16
172 195 0
172 195 0
174 197 0
175 198 0
173 197 0
173 197 0
174 197 0
173 197 0
176 198 0
176 198 0
175 198 0
171 194 0
174 197 0
173 197 0
173 196 0
174 197 0
171 195 0
173 196 0
175 198 0
174 196 0
170 194 0
171 194 0
174 197 0
173 196 0
173 197 0
173 196 0
172 195 0
174 198 0
171 195 0
170 193 0
172 195 0
171 195 0
170 194 0
172 196 0
173 197 0
171 194 0
172 195 0
172 195 0
172 195 0
173 197 0
173 196 0
170 195 0
172 196 0
172 196 0
170 194 0
170 194 0
172 196 0
174 198 0
171 195 0
174 197 0
173 196 0
174 197 0
174 197 0
172 196 0
171 194 0
170 194 0
171 195 0
173 196 0
171 195 0
172 195 0
169 192 0
172 196 0
172 195 0
172 195 0
171 194 0
172 195 0
173 196 0
171 195 0
170 193 0
172 195 0
168 192 0
172 195 0
168 190 0
173 196 0
172 196 0
172 195 0
169 192 0
173 196 0
170 193 0
173 196 0
171 194 0
173 196 0
172 195 0
172 196 0
171 194 0
172 195 0
170 194 0
170 193 0
171 194 0
173 196 0
171 194 0
171 194 0
171 194 0
170 193 0
170 193 0
173 196 0
173 196 0
170 193 0
174 197 0
173 197 0
167 190 47
149 173 97
123 149 131
72 106 174
63 100 181
62 99 180
62 99 181
62 99 180
63 100 181
62 99 181
62 99 181
62 99 181
62 99 181
62 99 180
62 99 180
62 99 181
61 99 180
63 100 181
62 99 179
62 99 180
62 99 181
61 99 180
63 100 181
62 99 181
62 99 180
62 99 181
62 99 181
62 99 181
62 99 181
62 99 180
61 99 181
62 99 181
62 99 181
62 99 181
62 99 180
62 99 180
62 99 179
62 99 181
62 99 180
62 99 179
62 99 181
62 99 181
61 99 179
62 99 181
62 99 180
63 100 180
62 99 178
62 99 181
62 99 180
62 99 181
61 99 180
61 99 181
61 98 180
62 99 180
62 99 181
62 99 180
62 99 181
62 99 180
61 99 179
63 100 180
62 99 181
62 99 180
62 99 179
62 99 180
62 99 181
62 99 181
61 99 181
62 99 179
62 99 181
62 99 181
62 99 178
62 99 180
61 99 180
62 99 180
62 99 181
61 98 177
62 99 180
62 99 181
61 98 178
62 99 180
61 99 178
62 99 180
62 99 180
62 99 180
62 99 180
62 99 181
62 99 180
62 99 175
62 99 178
61 99 179
62 99 178
62 99 180
62 99 177
61 99 180
61 99 178
62 99 178
61 98 176
62 99 180
62 99 178
62 99 180
61 98 176
62 99 177
61 99 180
62 99 179
62 99 177
62 99 179
62 99 179
62 99 179
62 99 179
62 99 179
62 99 178
62 98 175
62 99 177
62 99 179
62 99 177
62 99 176
62 99 174
62 99 181
62 99 176
62 99 177
63 100 179
62 99 176
62 99 176
62 98 173
61 98 176
62 99 174
61 97 175
61 98 174
61 98 174
62 98 175
61 98 171
62 98 173
62 99 174
63 100 179
62 99 175
62 98 172
62 98 168
61 97 168
60 95 166
62 99 174
60 96 165
61 96 166
61 96 166
60 95 164
66 98 161
81 100 144
104 113 125
100 106 98
112 111 73
110 110 70
114 112 72
99 100 69
102 102 69
115 115 76
104 106 74
105 106 72
115 115 79
111 112 76
110 111 75
108 111 77
101 102 73
110 112 79
117 118 81
112 113 80
109 110 79
105 107 78
125 124 86
124 124 84
121 122 86
116 116 79
128 128 86
123 123 86
133 132 91
122 124 89
126 126 88
131 132 91
130 130 89
148 146 96
137 137 94
142 141 94
147 145 95
139 139 94
145 143 96
138 138 94
148 146 100
140 139 95
139 138 93
152 149 99
143 142 93
147 145 98
154 152 101
149 146 96
159 157 103
157 155 102
161 157 100
160 157 102
155 152 98
157 154 99
161 158 103
155 153 100
158 156 99
166 162 104
158 154 97
168 164 103
166 163 102
164 160 102
168 163 101
166 162 106
171 167 108
165 162 100
172 167 104
169 166 101
171 166 101
168 163 104
169 165 102
173 169 105
172 166 101
172 167 103
174 168 105
173 168 105
173 167 103
174 168 106
175 169 104
174 168 102
176 170 106
174 169 103
178 171 107
171 166 102
172 168 102
174 169 104
176 170 103
172 167 101
172 167 103
171 165 98
169 163 99
173 167 102
179 172 106
176 170 106
175 169 103
175 169 103
175 169 107
174 168 104
173 167 100
175 169 102
170 164 98
172 166 103
169 164 99
172 166 99
171 165 101
175 168 103
172 167 100
173 166 103
176 170 106
168 162 97
168 162 96
168 162 98
169 163 94
170 164 98
170 164 97
165 159 95
166 159 95
167 161 97
167 160 95
168 162 93
163 158 96
166 160 95
164 158 91
162 156 89
166 160 94
160 154 87
161 155 88
163 157 85
161 154 87
157 151 86
159 153 83
168 161 88
160 154 80
151 145 80
160 153 82
157 151 88
159 153 87
153 147 75
149 144 75
149 143 78
144 139 75
141 136 66
143 138 66
145 140 67
146 141 71
135 134 54
147 149 61
144 150 52
150 158 48
150 160 45
150 163 42
149 161 37
159 174 37
166 184 30
168 187 19
167 189 11
171 195 0
172 196 0
171 195 0
172 196 0
171 195 0
175 198 0
174 197 0
170 194 0
171 195 0
171 195 0
169 193 0
173 196 0
175 197 0
173 197 0
174 197 0
172 196 0
173 197 0
173 196 0
173 197 0
175 197 0
175 198 0
172 196 0
174 197 0
173 196 0
174 197 0
173 196 0
171 194 0
173 196 0
176 198 0
174 197 0
173 196 0
173 196 0
175 198 0
174 196 0
171 195 0
171 195 0
173 197 0
171 194 0
173 196 0
171 196 0
175 197 0
172 195 0
167 190 0
174 197 0
174 198 0
171 194 0
171 195 0
171 194 0
172 196 0
173 196 0
171 195 0
171 194 0
172 196 0
171 195 0
169 192 0
173 196 0
172 196 0
173 196 0
173 196 0
172 194 0
172 196 0
171 195 0
171 194 0
172 195 0
172 196 0
173 196 0
172 196 0
174 197 0
169 192 0
172 196 0
169 192 0
171 194 0
174 198 0
174 196 0
171 194 0
170 194 0
171 195 0
174 198 0
170 193 0
174 197 0
170 195 0
170 194 0
171 194 0
173 197 0
174 197 0
173 196 0
169 192 0
173 196 0
171 195 0
173 196 0
172 195 0
172 195 0
171 194 0
174 197 0
169 192 0
174 197 0
172 195 0
173 195 0
169 192 0
171 195 0
156 180 74
131 156 124
88 119 166
62 99 181
62 99 180
63 100 180
62 99 180
62 99 179
62 99 180
62 99 181
62 99 181
62 99 178
62 99 177
62 99 181
62 99 181
62 99 179
62 99 181
61 99 180
62 99 180
61 98 181
62 99 181
61 99 181
61 98 180
62 99 181
62 99 180
62 99 180
62 99 180
62 99 181
62 99 180
61 98 180
62 99 179
62 99 180
62 99 181
61 99 178
62 99 181
62 99 180
61 98 178
61 99 180
62 99 179
61 99 180
61 99 179
62 99 181
62 99 181
62 99 179
61 99 181
62 99 181
61 98 180
62 99 179
61 98 176
62 99 180
62 99 179
61 98 180
62 99 179
62 99 181
62 99 181
62 99 179
62 99 181
62 99 180
62 99 180
62 99 179
61 98 180
61 99 180
62 99 180
62 99 181
62 99 180
61 99 180
61 99 178
62 99 179
62 99 181
62 99 178
62 99 179
62 99 181
62 99 180
61 99 178
62 99 180
62 99 180
61 99 181
62 99 178
62 99 181
62 99 181
62 99 177
61 99 181
62 99 181
62 99 179
61 99 180
62 99 181
62 99 180
62 99 181
61 98 179
62 99 180
62 99 181
62 99 180
62 99 179
61 99 178
62 99 180
62 99 177
62 99 178
62 99 180
61 98 177
62 99 180
62 99 177
62 99 179
62 99 180
61 99 178
63 100 181
61 99 179
62 99 175
62 99 177
62 99 178
62 99 179
62 99 177
62 99 177
62 99 179
62 98 173
63 100 177
62 99 177
61 98 177
62 99 175
62 99 175
62 99 177
61 98 174
61 98 173
62 99 176
62 99 179
62 99 177
62 99 175
61 98 171
61 98 175
61 97 171
62 99 177
62 98 174
62 99 175
61 96 168
62 98 174
62 98 172
62 98 174
62 98 172
61 97 172
62 98 171
61 97 171
62 97 165
61 97 169
60 95 161
62 98 173
60 94 160
64 95 155
83 96 117
99 107 109
98 102 85
103 103 65
103 104 69
101 101 67
109 109 70
108 108 71
102 103 73
96 97 68
98 100 67
100 101 70
110 110 74
107 109 77
113 113 76
102 105 74
109 110 76
111 112 77
109 110 75
118 119 82
117 118 86
121 122 84
103 106 76
122 123 86
117 120 85
119 119 82
121 123 87
125 126 88
120 120 84
125 126 88
126 127 88
131 130 87
133 133 92
126 126 87
126 127 89
146 144 95
138 137 92
147 146 95
132 132 89
141 140 93
143 142 95
143 142 92
151 149 99
153 150 99
157 155 99
159 156 101
152 150 100
148 146 94
155 152 99
160 157 100
160 157 103
162 158 99
159 156 98
155 152 97
156 153 100
157 154 100
166 162 105
158 155 100
159 156 95
165 162 102
165 161 101
166 162 105
160 156 100
173 168 103
171 166 104
173 168 108
168 163 102
169 165 103
175 169 106
168 164 104
173 168 103
174 168 107
177 170 106
173 168 105
172 167 100
175 170 106
170 166 103
172 167 102
175 169 102
173 168 102
173 168 106
172 167 104
173 169 102
173 167 102
174 169 106
175 170 105
175 169 101
176 170 105
176 169 105
176 170 108
175 170 106
174 167 102
172 166 101
172 166 101
175 169 103
173 166 103
170 164 98
169 163 99
178 171 104
172 166 97
174 167 100
174 168 98
170 164 96
166 160 95
178 170 103
170 164 99
173 167 103
165 161 95
174 167 101
170 165 95
171 165 99
169 163 95
168 161 93
166 160 93
163 158 93
162 156 93
172 166 97
165 159 91
162 156 88
160 155 88
162 157 93
161 156 88
163 156 94
160 154 93
166 159 90
163 157 88
158 152 83
163 157 89
163 156 90
149 143 79
154 149 81
152 146 79
154 149 83
160 154 85
152 147 81
153 146 80
140 134 63
155 148 77
155 148 80
140 133 75
151 146 76
138 133 72
146 142 66
147 143 66
145 144 64
153 158 54
161 165 57
153 160 51
160 173 41
162 175 41
158 175 22
167 185 22
165 184 19
170 193 19
173 197 0
174 198 0
173 196 0
172 196 0
171 195 0
171 195 0
174 197 0
172 195 0
173 197 0
174 197 0
172 195 0
172 196 0
171 194 0
172 195 0
174 198 0
174 197 0
174 197 0
175 198 0
173 196 0
171 194 0
173 197 0
173 197 0
172 196 0
171 195 0
172 195 0
172 196 0
172 195 0
172 195 0
172 196 0
170 194 0
175 198 0
169 193 0
172 196 0
172 195 0
170 194 0
174 198 0
174 197 0
172 195 0
169 193 0
174 197 0
173 197 0
172 195 0
175 197 0
170 194 0
170 194 0
170 195 0
171 195 0
173 196 0
172 196 0
172 195 0
172 195 0
175 197 0
170 194 0
173 196 0
173 196 0
172 195 0
173 197 0
173 196 0
173 195 0
171 195 0
172 195 0
172 196 0
173 197 0
170 193 0
174 197 0
173 196 0
172 195 0
173 197 0
172 196 0
171 194 0
173 196 0
170 193 0
175 198 0
173 197 0
171 196 0
172 196 0
173 196 0
173 197 0
172 196 0
172 195 0
172 195 0
171 194 0
172 195 0
169 191 0
172 196 0
171 195 0
171 194 0
171 195 0
172 195 0
172 196 0
171 193 0
173 196 0
170 193 0
171 194 0
171 194 0
170 194 0
172 195 0
173 197 0
168 192 25
160 182 72
145 169 105
96 125 159
62 99 180
63 100 180
62 99 179
63 100 181
62 99 179
62 99 179
62 99 180
62 99 180
62 99 181
62 99 181
61 98 179
62 99 181
62 99 181
62 100 181
62 99 180
62 99 180
62 99 179
62 99 180
62 99 180
62 99 180
62 99 180
62 99 181
61 99 179
62 99 180
61 98 180
62 99 181
62 99 181
62 99 180
62 99 181
61 98 180
62 99 180
62 99 180
62 99 181
61 99 180
62 99 181
62 99 180
62 99 181
61 99 180
62 99 180
62 99 179
62 99 181
61 99 181
61 98 180
61 99 180
61 98 179
62 99 179
62 99 181
62 99 179
61 98 179
62 99 180
61 99 180
62 99 180
62 99 180
62 99 179
61 99 180
61 99 181
61 98 179
62 99 180
62 99 180
62 99 180
62 99 178
62 99 179
62 99 181
61 99 180
61 98 179
62 99 180
62 99 178
62 99 180
62 99 180
61 99 181
61 99 179
62 99 179
62 99 181
62 99 177
62 99 179
62 99 180
62 99 179
62 99 179
62 99 181
62 99 180
61 99 179
62 99 180
62 99 178
62 99 180
62 99 178
62 99 181
62 99 180
62 99 178
62 99 178
61 99 180
62 99 180
62 99 175
62 99 177
62 99 178
62 99 176
62 99 179
62 99 177
62 99 178
62 99 176
61 98 175
62 99 178
61 98 175
62 99 179
62 99 177
62 99 178
61 98 175
62 98 176
62 99 179
62 99 177
62 99 177
62 99 177
62 99 178
62 99 179
62 99 177
61 98 176
62 99 177
62 99 178
62 99 177
62 99 174
62 99 177
62 99 174
62 99 173
62 98 172
62 99 177
63 100 177
62 99 175
62 98 172
62 99 178
61 98 174
61 98 174
62 99 175
61 96 168
62 98 169
62 98 169
61 98 174
62 98 173
61 97 170
61 97 168
62 98 172
61 96 168
61 97 171
60 95 164
61 95 164
59 93 161
73 97 143
87 101 123
93 99 90
92 94 76
109 108 66
95 97 64
121 119 75
100 101 71
95 97 66
104 105 73
105 106 72
95 97 69
107 107 74
109 110 75
110 111 79
109 110 75
107 108 76
109 111 80
110 111 78
104 107 78
115 117 82
113 115 82
124 124 87
120 121 84
111 113 80
115 117 82
121 121 82
118 120 81
121 122 84
132 131 89
133 133 92
132 132 90
135 133 90
133 133 90
135 135 92
140 138 94
144 143 95
141 140 95
147 145 98
146 144 94
142 141 94
155 151 97
143 142 96
157 154 101
148 146 96
157 154 100
155 152 98
146 145 96
155 151 96
156 153 100
162 159 100
164 160 103
165 161 102
163 160 103
162 159 102
168 163 102
160 157 100
168 163 103
164 161 104
162 159 102
172 165 103
166 162 101
165 161 100
172 167 102
172 166 105
168 163 104
170 165 101
170 166 105
170 165 103
173 168 108
173 167 103
172 167 103
176 171 106
172 167 103
174 168 103
173 168 102
175 170 106
169 165 99
177 170 104
171 166 101
170 165 100
175 170 106
178 172 108
173 168 99
174 167 103
173 168 101
174 168 103
174 169 104
175 169 103
173 167 104
175 169 104
173 168 103
175 169 104
175 168 101
173 168 104
172 165 98
173 167 99
172 166 99
174 167 101
170 164 95
170 164 98
169 163 94
171 165 98
171 164 97
171 165 100
169 163 96
167 161 96
168 163 95
170 163 96
167 161 93
165 160 97
171 164 97
170 163 95
164 158 90
160 154 86
167 160 95
168 162 91
166 159 94
162 155 91
163 157 88
161 156 88
164 157 92
166 160 88
159 153 86
161 155 89
158 152 84
159 153 86
158 151 84
155 149 84
156 149 87
154 148 80
165 157 89
153 147 76
154 148 76
154 149 77
142 136 74
151 145 80
153 147 77
152 146 78
148 142 75
135 129 64
132 126 65
142 138 62
142 138 67
151 151 62
151 153 62
157 164 57
155 166 47
152 164 44
166 181 30
160 175 28
162 179 32
169 190 19
170 191 16
174 197 0
171 195 0
172 196 0
172 196 0
172 196 0
173 196 0
173 197 0
172 195 0
175 198 0
173 196 0
175 198 0
173 197 0
173 196 0
176 198 0
173 197 0
174 197 0
174 197 0
174 198 0
171 195 0
170 194 0
173 197 0
170 194 0
173 197 0
172 195 0
172 195 0
174 197 0
171 194 0
173 196 0
171 194 0
173 197 0
170 194 0
172 195 0
173 196 0
172 196 0
173 197 0
172 195 0
173 196 0
174 197 0
174 198 0
169 193 0
170 194 0
171 194 0
172 196 0
170 194 0
174 197 0
169 193 0
171 195 0
174 197 0
174 198 0
173 197 0
173 196 0
171 195 0
175 198 0
171 194 0
173 196 0
170 193 0
172 196 0
174 197 0
170 195 0
172 196 0
170 194 0
172 196 0
172 194 0
172 195 0
172 196 0
171 194 0
172 195 0
171 195 0
169 192 0
172 196 0
174 196 0
171 195 0
173 196 0
172 195 0
172 195 0
169 192 0
173 196 0
172 195 0
171 194 0
174 197 0
171 195 0
168 192 0
170 193 0
171 195 0
169 192 0
173 196 0
171 195 0
170 193 0
171 194 0
171 194 0
173 195 0
173 197 0
172 196 0
170 194 0
173 197 0
171 194 0
171 194 0
173 196 0
163 187 54
143 167 99
105 134 151
70 105 174
63 100 179
62 99 178
62 99 180
62 99 181
62 99 181
62 99 181
62 99 181
62 99 181
63 100 181
62 99 179
62 99 180
62 99 181
62 99 181
62 99 181
62 99 180
62 99 179
61 99 180
62 99 181
62 99 181
62 99 180
62 99 180
62 99 179
62 99 181
62 99 181
62 99 180
62 99 179
61 98 178
62 99 178
62 99 180
61 99 180
61 98 180
62 99 179
62 99 179
62 99 180
62 99 180
61 98 180
62 99 181
61 98 179
62 100 181
62 99 180
62 99 181
62 99 181
62 99 181
62 99 180
62 99 179
62 99 180
62 99 181
62 99 181
63 100 180
62 99 180
62 99 178
62 99 181
62 99 179
62 99 179
62 99 180
62 99 180
62 99 179
61 99 180
61 99 180
62 99 181
62 99 181
62 99 178
62 99 181
62 99 181
62 99 179
63 99 180
62 99 178
62 99 180
62 99 180
62 99 180
62 99 180
63 100 180
62 99 180
62 99 180
61 99 177
61 98 178
62 99 179
62 99 181
61 98 180
63 99 178
61 98 176
62 99 179
62 99 178
62 99 179
62 99 179
62 99 176
62 99 181
62 99 179
61 98 178
62 99 177
61 99 180
62 99 177
62 99 180
62 99 181
62 99 178
62 99 177
62 99 179
63 100 180
63 100 180
62 99 177
61 99 178
62 99 178
62 99 178
62 99 177
62 99 179
62 99 176
63 99 178
61 98 174
62 99 175
62 99 176
63 100 181
62 99 178
61 98 177
63 100 178
62 99 178
62 98 174
61 98 175
62 98 176
62 99 178
62 99 177
62 99 175
62 98 174
61 98 172
62 99 175
62 99 178
62 99 179
61 98 175
62 98 168
61 98 171
61 97 171
62 98 170
62 98 175
62 98 171
60 95 163
62 98 171
61 97 169
61 97 171
61 97 169
61 98 173
61 96 162
61 97 167
61 95 165
61 97 165
60 94 163
60 93 158
76 99 143
72 88 116
94 99 87
106 106 75
104 104 65
102 102 72
105 106 71
97 99 68
102 103 71
89 92 67
98 100 73
97 98 70
102 104 74
111 113 78
107 109 75
103 106 76
106 108 76
102 105 74
107 109 79
97 100 73
118 120 83
113 115 81
98 102 73
120 121 85
122 123 85
114 115 82
125 125 85
119 121 86
124 124 86
125 126 85
132 133 91
124 125 88
130 130 87
135 134 90
133 133 91
130 130 89
131 133 90
143 142 96
134 134 91
147 145 94
144 143 93
144 144 95
154 152 98
158 155 102
149 146 96
150 147 97
155 153 100
158 155 103
152 149 98
149 147 97
165 160 104
161 157 99
156 153 99
160 157 100
164 160 101
165 160 104
163 159 101
163 160 100
156 153 96
165 161 102
166 162 102
163 161 103
169 164 101
165 161 100
166 162 103
169 164 97
171 167 101
173 167 107
174 168 106
175 169 103
172 166 101
174 169 105
171 166 104
172 167 100
169 165 102
167 162 95
173 168 102
173 167 103
173 168 101
175 170 103
174 168 103
173 168 103
174 168 101
173 167 98
175 169 104
175 170 105
175 168 102
173 166 102
173 167 102
176 170 101
173 168 100
174 167 101
178 171 104
169 163 99
172 166 99
174 168 100
173 168 102
169 164 95
177 170 102
171 165 94
174 167 103
169 164 98
169 163 97
169 163 100
170 164 98
172 166 99
172 166 97
167 161 95
172 165 95
164 159 93
164 158 90
167 161 94
167 161 94
168 161 94
166 160 92
158 153 91
169 162 92
166 159 94
162 157 92
165 159 90
165 159 89
162 155 86
160 153 83
165 157 93
166 159 97
157 152 83
162 156 87
159 152 82
157 151 83
159 153 83
157 151 83
157 151 87
155 149 80
156 150 83
147 140 76
161 155 85
152 145 77
147 141 75
151 145 75
149 143 71
138 132 67
142 136 68
143 142 64
146 147 62
157 164 53
143 152 39
158 166 52
164 178 44
159 175 30
162 176 34
168 187 28
172 194 19
166 188 16
172 194 0
174 198 0
174 197 0
171 195 0
173 197 0
172 195 0
171 194 0
172 195 0
172 195 0
173 196 0
172 195 0
173 197 0
175 198 0
171 194 0
171 194 0
173 196 0
173 196 0
174 196 0
172 196 0
173 196 0
171 195 0
170 194 0
173 196 0
174 197 0
175 198 0
172 196 0
174 197 0
173 197 0
172 196 0
172 196 0
173 196 0
171 195 0
174 197 0
172 195 0
175 197 0
172 195 0
173 196 0
174 198 0
174 197 0
172 196 0
173 196 0
171 194 0
174 197 0
170 194 0
170 193 0
172 196 0
173 196 0
173 197 0
172 196 0
172 196 0
172 195 0
170 194 0
170 194 0
170 194 0
170 193 0
173 197 0
173 196 0
171 195 0
172 196 0
171 194 0
172 195 0
173 197 0
171 194 0
173 196 0
171 195 0
174 197 0
171 194 0
171 194 0
172 196 0
171 194 0
171 195 0
172 196 0
173 196 0
172 195 0
169 193 0
172 195 0
172 195 0
170 193 0
172 196 0
169 193 0
170 194 0
173 196 0
171 194 0
171 194 0
172 195 0
173 196 0
174 196 0
172 194 0
172 194 0
171 194 0
172 196 0
172 195 0
172 196 0
171 194 0
173 196 0
171 194 0
172 195 0
167 191 31
153 177 82
125 150 129
85 116 163
63 100 179
62 99 180
61 99 181
62 99 181
62 99 179
62 99 179
62 99 180
62 99 180
62 99 179
62 99 179
63 100 181
62 99 180
63 100 179
61 99 179
62 99 179
62 99 180
61 99 180
62 99 180
62 99 181
62 99 180
61 99 180
62 99 181
61 98 179
62 99 180
62 99 179
62 99 178
62 99 181
62 99 178
62 99 178
62 99 181
62 99 180
62 99 180
62 99 180
62 99 181
62 99 178
62 99 176
62 99 180
62 99 181
62 99 179
62 99 180
62 99 180
62 99 181
62 99 180
62 99 181
62 99 181
62 99 181
61 99 178
61 99 178
62 99 179
61 99 180
62 99 180
63 100 181
62 99 180
62 99 180
61 99 181
62 99 181
62 99 181
62 99 181
62 99 180
62 99 180
62 99 179
62 99 181
62 99 181
62 99 180
62 99 181
61 98 180
62 99 181
62 99 176
62 99 179
61 99 180
61 98 180
62 99 181
62 99 181
62 99 180
62 99 180
62 99 179
62 99 179
61 99 180
62 99 181
62 99 180
62 99 177
61 99 178
62 99 178
61 99 181
61 99 181
62 99 179
62 99 181
62 99 178
61 98 177
62 99 178
62 99 178
62 99 176
62 99 178
62 99 180
63 100 180
62 99 177
62 99 177
62 99 178
63 99 176
62 99 177
62 99 176
62 99 181
62 98 174
62 99 177
62 99 178
61 98 176
61 98 177
62 99 180
62 99 178
62 99 176
61 98 173
61 98 175
63 100 181
62 99 177
62 99 176
62 99 178
61 98 175
62 98 173
62 99 175
62 99 178
62 99 177
62 99 179
62 99 177
61 98 174
62 99 178
61 98 169
61 97 171
61 98 168
62 99 174
62 99 175
61 98 174
62 98 177
60 96 167
62 98 174
62 99 176
61 98 174
61 97 170
61 96 170
61 97 165
62 98 175
61 96 167
62 98 169
61 97 164
60 96 165
62 98 172
61 95 164
63 94 157
83 101 140
76 89 112
88 95 91
99 101 67
106 105 67
104 104 64
101 102 72
99 101 70
90 92 67
99 100 66
102 104 74
87 91 67
96 99 71
101 104 73
108 109 77
88 93 69
104 106 76
106 108 77
102 105 78
96 100 75
125 126 87
113 114 77
111 113 79
113 115 81
119 120 84
111 113 80
123 124 86
120 120 83
121 122 84
129 128 86
123 125 86
143 142 94
121 122 83
140 138 88
134 133 89
141 139 93
143 142 94
146 144 94
129 130 87
142 140 91
154 152 97
141 140 91
139 138 90
153 150 96
145 144 94
144 144 96
155 152 98
155 152 99
151 149 98
151 149 97
161 157 98
163 160 105
160 157 101
159 156 101
165 162 101
165 161 99
162 159 102
163 159 100
164 161 104
161 158 100
168 163 102
170 166 103
165 162 102
174 168 104
169 165 98
174 168 100
160 157 101
171 165 101
172 167 104
172 167 104
168 163 96
173 167 104
174 168 103
174 167 102
174 168 104
170 165 101
175 169 99
173 168 101
174 169 103
174 168 103
175 169 102
172 166 101
172 167 99
169 164 95
173 167 103
175 169 99
174 168 102
175 169 104
176 169 100
173 168 99
172 166 98
171 165 93
170 165 95
173 167 101
174 167 100
171 165 99
173 166 99
171 164 94
170 165 96
171 165 98
175 168 101
171 165 97
174 167 99
170 163 95
172 166 101
173 166 101
167 160 93
167 161 92
171 165 98
171 165 95
169 162 94
164 157 89
165 159 89
167 161 91
161 156 91
166 160 90
169 162 95
165 158 88
167 162 96
165 158 89
154 149 82
168 162 95
166 160 91
163 156 90
163 157 86
160 154 81
164 157 87
160 153 84
143 137 69
147 142 78
149 144 75
153 147 80
152 146 78
155 149 76
146 140 75
151 145 76
141 136 66
153 147 73
143 137 67
148 143 68
142 138 63
141 138 60
147 149 58
141 143 51
148 155 44
155 161 52
159 171 42
160 174 34
158 173 36
166 186 19
167 188 16
168 189 11
172 196 0
175 197 0
173 197 0
175 198 0
173 197 0
172 196 0
176 198 0
172 195 0
174 198 0
171 194 0
170 194 0
172 195 0
172 196 0
172 196 0
175 198 0
175 198 0
174 198 0
170 194 0
173 196 0
171 195 0
172 196 0
171 194 0
173 196 0
172 195 0
171 194 0
171 195 0
173 196 0
174 197 0
173 196 0
174 197 0
173 196 0
173 197 0
171 194 0
172 195 0
171 195 0
172 195 0
173 196 0
174 197 0
171 195 0
174 197 0
171 194 0
173 196 0
174 196 0
172 196 0
172 196 0
173 197 0
171 195 0
171 195 0
172 196 0
171 194 0
171 195 0
174 197 0
173 196 0
174 196 0
171 194 0
171 194 0
174 197 0
173 196 0
171 194 0
172 195 0
172 195 0
171 194 0
171 194 0
172 195 0
172 195 0
172 195 0
173 195 0
174 197 0
169 193 0
171 194 0
172 195 0
172 196 0
172 196 0
173 197 0
172 196 0
172 195 0
172 195 0
170 193 0
170 195 0
173 196 0
172 195 0
171 195 0
170 193 0
170 193 0
170 194 0
172 195 0
170 194 0
173 196 0
169 193 0
172 195 0
173 196 0
171 195 0
172 195 0
172 195 0
174 197 0
166 190 0
174 197 0
162 186 60
145 170 100
101 130 155
63 99 176
62 99 181
63 99 179
62 99 180
62 99 179
62 99 177
62 99 181
62 99 181
62 99 180
62 99 181
62 99 181
62 99 180
63 100 181
62 99 180
62 99 178
62 99 181
62 99 180
62 99 179
62 99 180
62 99 180
62 99 181
62 99 181
61 99 181
62 99 179
62 99 177
62 99 180
62 99 181
62 99 180
61 99 180
62 99 179
62 99 181
62 99 180
62 99 178
62 99 179
62 99 181
62 99 181
62 99 181
61 99 181
61 99 179
62 99 178
62 99 178
62 99 178
61 99 180
61 99 180
62 99 180
62 99 179
62 99 180
62 99 180
62 99 180
62 99 181
61 99 179
62 99 178
62 99 181
61 99 181
62 99 180
61 99 181
62 99 179
61 99 181
62 99 179
61 98 179
62 99 179
62 99 180
62 99 180
63 100 181
62 99 177
62 99 180
61 98 177
62 99 181
61 99 180
61 99 181
62 99 178
62 99 179
62 99 180
62 99 179
62 99 179
62 99 180
62 99 180
61 98 175
62 99 177
61 98 177
62 99 177
62 99 177
62 99 180
62 99 177
61 99 179
62 99 180
62 99 181
62 99 179
62 99 180
62 99 179
62 99 180
62 99 179
62 99 181
62 99 178
62 98 175
62 99 176
61 99 176
62 99 178
62 99 177
62 99 178
63 100 180
62 99 175
62 99 180
62 99 179
62 99 178
61 99 179
62 99 179
63 100 176
62 99 178
61 98 176
61 98 177
61 99 179
63 99 179
62 98 171
63 99 175
63 99 178
62 99 177
61 98 173
62 99 176
62 98 175
62 99 173
62 99 179
62 99 175
62 99 177
61 98 172
62 99 175
62 99 175
61 98 172
62 99 176
62 98 173
62 99 174
62 98 170
62 99 173
61 98 171
61 97 167
62 98 172
61 97 174
61 98 167
61 97 167
61 98 172
61 98 172
61 97 169
62 98 172
62 97 166
61 96 169
61 97 168
59 94 163
59 94 161
66 94 149
72 94 131
79 88 94
89 92 76
75 80 61
95 96 67
97 98 67
99 101 70
83 85 61
92 94 66
91 94 66
90 91 64
97 99 70
86 90 67
95 98 71
102 103 70
108 109 77
103 105 75
105 107 75
101 104 76
109 110 78
106 108 76
124 125 86
104 107 73
108 109 77
108 111 79
122 124 88
126 126 88
124 124 86
121 122 82
126 126 84
138 137 90
131 131 86
144 142 94
138 137 93
145 143 95
137 136 89
134 135 92
144 142 91
134 134 87
141 141 93
144 142 94
152 150 97
144 142 93
152 150 95
150 148 94
156 154 102
157 153 98
149 147 97
159 155 100
163 159 93
164 160 97
159 155 97
168 163 103
161 157 98
161 158 101
167 163 102
161 158 98
166 162 103
169 164 104
165 162 99
163 159 99
167 162 99
164 161 99
169 163 100
167 162 97
167 162 99
173 167 103
171 166 102
171 166 101
171 166 97
173 167 103
172 167 103
170 165 103
173 168 105
174 168 102
175 169 103
177 171 107
175 169 104
170 165 98
171 167 100
173 167 95
174 168 103
175 169 101
174 168 100
174 168 98
173 167 100
172 167 97
176 170 99
173 166 97
176 170 106
175 169 100
172 167 97
175 168 101
173 166 100
171 166 94
173 167 99
171 165 99
173 166 99
168 163 94
168 162 94
171 165 95
168 163 90
169 163 92
170 163 98
167 161 93
163 157 92
167 161 94
171 165 95
166 160 90
170 163 95
168 162 94
168 162 97
164 157 92
160 154 88
161 156 83
161 154 90
166 158 90
168 162 87
167 160 88
156 150 82
167 161 97
166 159 93
155 149 76
155 149 80
154 148 82
153 148 82
162 156 88
147 142 74
154 147 80
151 145 80
155 148 83
148 141 78
151 146 77
146 141 74
142 136 67
135 130 64
150 144 77
144 138 68
139 134 69
146 141 65
136 135 58
145 144 63
148 150 61
152 159 48
159 166 51
163 177 42
156 172 30
163 179 32
165 184 11
167 187 19
168 189 11
172 196 0
172 196 0
174 197 0
173 196 0
172 196 0
172 195 0
173 197 0
172 196 0
172 196 0
171 195 0
171 195 0
174 197 0
172 196 0
173 197 0
172 196 0
173 197 0
175 198 0
172 194 0
174 197 0
171 195 0
174 197 0
171 195 0
173 196 0
172 195 0
172 196 0
171 194 0
173 197 0
173 197 0
175 198 0
172 195 0
172 194 0
173 196 0
170 193 0
173 197 0
172 196 0
175 197 0
170 194 0
173 196 0
173 196 0
173 196 0
173 196 0
174 197 0
173 196 0
169 193 0
174 197 0
173 197 0
171 194 0
174 197 0
172 196 0
173 195 0
174 197 0
173 196 0
174 196 0
174 198 0
173 196 0
170 194 0
173 196 0
169 194 0
175 198 0
169 192 0
174 198 0
170 193 0
172 195 0
169 192 0
174 197 0
172 196 0
170 193 0
172 196 0
172 195 0
173 196 0
173 197 0
171 195 0
171 195 0
172 196 0
172 195 0
173 196 0
172 196 0
172 195 0
173 196 0
170 193 0
173 196 0
173 195 0
173 197 0
172 195 0
170 193 0
172 195 0
171 195 0
171 194 0
173 196 0
170 193 0
170 193 0
172 196 0
172 195 0
170 193 0
170 194 0
172 196 0
161 185 57
149 174 94
110 138 148
65 101 179
62 99 180
63 100 180
63 99 180
62 99 180
61 99 179
62 99 180
62 99 178
62 99 179
62 99 179
62 99 180
61 99 179
62 99 180
62 99 181
62 99 181
62 99 179
62 99 181
63 100 181
61 99 179
62 99 180
62 99 179
62 99 180
62 99 179
62 99 179
63 100 181
62 99 177
62 99 181
62 99 180
62 99 180
62 99 180
63 100 180
62 99 181
62 99 181
62 99 180
62 99 181
61 99 180
63 100 179
61 98 178
62 99 180
62 99 179
61 99 179
62 99 181
62 99 181
62 99 180
62 99 180
62 99 181
61 99 180
62 99 180
61 99 181
62 99 179
61 98 178
62 99 181
62 99 180
62 99 180
61 99 177
61 98 177
63 100 181
62 99 176
62 99 180
62 99 180
62 99 181
62 99 180
62 99 181
62 99 179
62 98 176
62 99 179
62 99 179
62 99 178
62 99 179
62 99 181
62 99 181
61 98 179
62 99 179
63 99 179
61 98 176
62 99 181
62 99 178
63 100 179
62 99 177
62 99 179
62 99 177
62 99 180
61 98 178
62 99 176
62 99 179
62 99 179
62 99 177
62 99 180
61 99 180
62 99 176
62 99 179
62 99 180
62 99 177
62 99 179
62 99 177
62 99 179
61 98 177
62 99 177
61 98 177
62 99 179
62 99 178
61 98 177
63 100 176
62 99 178
62 99 176
61 98 177
62 99 178
62 98 174
61 98 177
63 99 176
62 99 178
62 99 179
62 99 178
63 99 178
62 99 177
62 99 176
62 99 177
62 99 174
62 99 176
62 99 174
62 99 178
62 99 176
62 99 175
62 99 174
62 98 173
62 98 175
62 99 176
62 99 176
62 99 175
62 99 173
62 99 176
63 99 176
62 99 177
62 98 175
62 98 174
61 98 172
62 98 169
61 98 171
61 97 167
61 98 173
61 98 172
61 97 168
61 97 170
63 98 169
61 96 166
61 96 164
61 96 165
61 97 167
60 95 165
67 96 155
68 91 136
80 93 105
93 100 97
84 86 63
91 93 62
93 94 62
87 88 58
91 93 61
99 100 69
97 99 70
86 89 65
94 96 68
87 90 65
93 97 69
93 94 65
101 104 73
108 111 80
103 106 76
103 105 76
114 115 80
113 113 78
109 111 81
106 109 77
119 121 84
130 130 89
124 124 85
114 116 81
115 116 77
115 117 82
128 128 86
139 138 92
132 132 89
134 133 90
122 123 82
138 137 90
134 133 89
139 137 89
143 140 93
145 144 91
143 141 92
138 137 89
140 139 91
154 152 97
150 149 98
158 154 98
150 148 94
154 152 97
142 140 84
161 157 98
155 152 95
157 153 97
153 150 96
162 158 97
160 157 100
165 160 100
163 160 100
165 161 101
160 156 98
165 162 102
166 161 100
169 163 101
168 163 99
164 159 96
168 164 102
169 164 100
169 165 100
169 165 101
169 165 98
173 168 105
173 167 103
174 168 103
171 166 101
171 166 100
170 165 99
170 164 101
174 168 106
171 166 101
175 169 103
175 169 103
168 164 94
173 166 99
174 167 97
174 169 104
175 169 100
176 169 102
175 168 102
177 170 103
171 165 93
173 168 100
176 169 101
175 168 103
172 166 101
172 166 97
173 166 102
170 164 96
171 165 99
171 165 98
173 167 100
169 163 97
169 163 96
170 163 95
169 163 90
168 162 93
165 160 90
169 163 94
173 166 97
164 158 94
171 164 96
166 161 92
170 163 91
171 164 93
168 162 93
166 160 91
168 161 90
161 156 86
162 156 90
161 155 87
164 156 91
161 155 85
163 156 90
167 160 95
162 155 87
161 155 82
164 157 89
154 148 81
156 149 83
147 142 73
157 151 81
154 149 85
160 153 82
149 143 70
151 146 75
147 142 70
151 144 70
146 140 75
151 145 76
149 142 75
143 138 64
146 139 74
144 139 67
152 152 64
142 142 53
144 148 52
150 158 45
150 161 45
155 166 47
155 168 36
162 180 22
160 178 22
169 189 16
171 191 16
173 196 0
175 198 0
174 197 0
174 198 0
174 197 0
172 196 0
173 197 0
170 193 0
173 197 0
173 197 0
170 194 0
172 196 0
174 198 0
172 195 0
172 195 0
174 197 0
174 197 0
172 196 0
170 193 0
174 196 0
175 197 0
172 196 0
172 196 0
170 194 0
173 197 0
175 198 0
174 198 0
173 196 0
173 197 0
174 196 0
171 195 0
173 196 0
173 196 0
170 194 0
174 197 0
171 195 0
172 195 0
172 194 0
171 193 0
172 195 0
172 196 0
173 197 0
171 195 0
175 197 0
173 196 0
172 195 0
172 196 0
174 197 0
170 193 0
172 196 0
172 195 0
171 194 0
170 193 0
174 196 0
175 198 0
170 195 0
172 196 0
172 196 0
173 195 0
173 196 0
174 196 0
174 197 0
172 196 0
172 194 0
172 195 0
171 194 0
170 193 0
174 197 0
172 195 0
170 193 0
170 194 0
170 193 0
171 194 0
172 195 0
172 195 0
172 194 0
171 194 0
169 192 0
170 195 0
173 196 0
172 195 0
172 195 0
170 194 0
170 194 0
170 194 0
170 193 0
169 193 0
169 193 0
171 193 0
171 195 0
170 194 0
170 193 0
171 194 0
171 195 0
172 195 0
167 191 25
159 183 72
127 153 125
88 119 164
62 99 180
62 99 179
62 99 180
63 100 180
63 99 178
62 99 178
62 99 180
62 99 180
63 100 181
62 99 181
62 99 180
62 99 180
62 99 180
62 99 180
62 99 179
62 99 181
61 99 180
62 99 180
62 99 181
62 99 180
62 99 179
62 99 180
61 99 180
62 99 181
61 99 180
61 99 180
62 99 181
61 99 180
62 99 180
62 99 180
61 99 180
62 99 179
61 98 180
62 99 179
62 99 181
62 99 179
62 99 179
62 99 181
62 99 179
62 99 179
61 98 180
62 99 179
62 99 179
61 98 179
62 99 181
62 99 180
62 99 180
63 100 181
62 99 178
62 99 181
61 99 180
62 99 181
62 99 179
61 98 179
62 99 178
62 99 179
62 99 179
62 99 177
62 99 178
62 99 180
61 99 180
62 99 179
62 99 176
61 99 179
62 99 178
62 99 180
62 99 180
62 99 181
61 99 178
62 99 175
61 98 179
62 99 179
62 99 179
62 99 178
62 99 178
62 99 179
62 99 179
62 99 178
61 98 177
62 99 180
61 98 178
61 99 179
62 99 181
62 99 174
62 99 178
61 99 180
62 99 181
61 98 179
62 99 177
62 99 179
62 99 176
62 99 179
61 98 178
61 99 179
61 99 178
61 99 179
62 99 177
62 99 178
61 98 175
63 100 179
62 99 178
62 99 179
62 98 176
62 99 176
63 100 181
63 100 179
61 98 177
62 99 179
62 99 178
62 99 179
62 99 176
62 99 178
62 99 178
62 99 179
62 99 177
62 99 176
62 99 174
63 99 177
62 99 177
62 99 175
62 98 175
62 99 175
62 99 175
62 98 171
62 98 172
61 98 173
61 98 170
62 99 176
62 99 176
62 99 174
62 99 175
62 99 174
62 98 168
62 99 177
62 98 173
62 99 172
61 97 170
62 98 170
62 98 171
61 97 171
62 98 173
61 96 165
61 97 170
61 97 168
61 97 167
62 97 169
62 97 167
61 96 164
59 94 159
60 95 159
68 98 159
76 96 133
82 94 101
83 87 74
94 94 63
87 89 58
96 98 68
86 90 65
91 94 69
95 98 71
100 102 71
92 96 68
101 104 75
103 105 75
104 107 78
93 96 68
105 107 77
94 97 68
113 114 79
104 107 74
108 110 77
110 112 77
113 115 80
121 122 83
112 114 77
108 110 73
121 121 82
118 119 79
115 116 81
130 130 88
133 132 88
128 128 87
130 130 84
132 132 89
137 136 87
128 129 84
128 128 84
137 136 91
137 135 87
142 141 89
139 137 92
143 141 92
153 150 97
156 153 98
148 145 94
142 140 92
150 147 92
155 153 97
151 148 93
158 154 95
158 154 99
149 147 91
153 150 95
159 155 97
158 154 95
160 157 100
168 163 100
166 162 98
162 158 94
159 155 93
166 162 95
166 162 99
160 156 99
165 161 97
168 163 93
171 166 101
166 161 99
171 166 99
173 168 100
166 162 95
169 164 96
167 162 100
175 168 99
174 168 101
172 166 102
176 170 106
173 167 101
172 168 103
173 167 99
172 167 100
174 168 101
171 166 97
169 164 94
173 168 99
174 168 102
175 169 101
178 171 106
174 168 97
172 167 97
176 170 99
173 166 97
168 163 93
169 164 94
165 159 89
174 168 99
173 167 99
168 162 94
168 162 93
166 160 96
171 164 95
170 164 95
166 159 95
171 166 96
170 163 95
165 159 92
169 163 94
172 165 98
170 163 94
174 167 95
173 166 96
167 161 90
168 162 91
166 160 94
163 157 94
163 158 87
164 159 97
170 164 95
166 159 94
165 159 89
166 160 93
158 152 80
153 149 81
160 155 89
157 151 81
164 157 84
152 147 76
154 148 73
156 149 80
156 149 80
151 145 79
157 150 80
154 147 78
152 147 79
160 153 84
147 142 75
146 140 70
142 138 62
134 130 58
137 131 71
150 145 67
149 146 70
142 144 58
154 162 52
157 161 59
153 163 39
151 163 39
156 169 34
167 184 34
161 179 19
164 185 19
168 190 0
175 197 0
169 193 0
174 197 0
171 195 0
174 197 0
169 192 0
170 194 0
171 195 0
173 196 0
173 196 0
174 197 0
172 196 0
172 195 0
170 193 0
173 196 0
171 194 0
172 196 0
173 197 0
172 196 0
171 194 0
171 195 0
173 197 0
174 198 0
171 195 0
174 197 0
173 196 0
172 195 0
170 194 0
173 196 0
172 196 0
173 196 0
170 194 0
172 196 0
172 196 0
171 195 0
172 195 0
172 196 0
171 196 0
174 197 0
172 196 0
172 196 0
172 195 0
171 196 0
171 195 0
171 195 0
174 197 0
172 195 0
171 195 0
172 196 0
174 197 0
174 197 0
173 197 0
169 192 0
174 197 0
171 195 0
170 194 0
172 195 0
173 196 0
171 196 0
174 197 0
170 193 0
170 194 0
170 194 0
173 196 0
168 192 0
173 197 0
174 197 0
168 192 0
173 196 0
173 197 0
171 193 0
173 196 0
173 197 0
172 195 0
171 195 0
172 196 0
173 195 0
168 192 0
171 194 0
172 196 0
170 193 0
172 196 0
175 198 0
173 196 0
172 195 0
171 194 0
172 196 0
172 195 0
174 197 0
174 197 0
171 195 0
169 191 0
172 195 0
171 195 0
171 195 18
169 192 40
140 164 117
101 131 153
63 99 176
63 100 181
63 100 181
62 99 178
62 99 180
62 99 179
62 99 179
63 99 178
62 99 179
62 99 180
62 99 179
62 99 181
62 99 181
62 99 178
62 99 180
62 99 179
62 99 180
62 99 181
62 99 180
62 99 181
62 99 179
61 99 181
62 99 181
62 99 179
61 99 179
62 99 181
62 99 179
62 99 180
62 99 180
62 99 181
62 99 179
62 99 181
62 99 179
62 99 180
61 99 180
62 99 181
62 99 181
62 99 179
62 99 179
62 99 179
62 99 180
62 99 179
62 99 180
63 100 181
61 99 179
62 99 180
62 99 177
62 99 180
62 99 180
62 99 179
62 99 181
62 99 180
62 99 181
62 99 179
63 100 181
62 99 179
62 99 180
61 98 180
62 99 181
62 99 180
62 99 179
62 99 180
62 99 179
62 99 179
61 98 176
62 99 179
62 99 181
62 99 178
62 99 179
62 99 180
62 99 181
62 99 177
62 99 180
62 99 180
63 100 180
62 99 180
61 99 180
61 98 179
62 99 180
62 99 180
61 98 177
62 99 179
62 99 177
62 99 178
62 99 178
62 99 178
62 99 180
61 98 176
62 99 176
62 99 179
61 98 177
62 99 178
62 99 175
61 98 178
62 99 177
62 99 176
62 99 177
61 98 176
61 98 174
62 99 177
63 100 177
62 99 179
62 99 178
62 99 178
62 99 177
62 99 176
62 99 177
63 99 176
62 99 177
61 98 176
62 99 180
62 99 176
61 99 178
62 99 178
61 98 175
63 99 178
62 99 177
62 99 174
62 99 178
62 99 173
62 99 177
62 99 175
61 98 177
62 99 175
62 98 175
62 99 180
63 99 178
62 98 174
62 98 174
62 99 172
62 98 173
63 100 179
63 99 177
62 99 175
61 98 171
62 98 171
62 98 175
62 98 167
62 98 168
62 98 170
62 98 171
62 98 173
62 98 168
61 96 166
61 97 168
61 97 167
61 97 170
61 97 170
61 96 163
61 96 166
61 96 163
60 95 164
75 96 137
83 96 116
94 100 97
88 92 75
83 86 59
86 86 60
94 95 66
85 89 66
81 84 58
96 99 71
94 97 71
85 88 63
92 96 70
83 87 64
99 102 76
85 91 67
102 104 73
105 107 74
102 105 76
104 106 77
104 107 73
121 121 83
117 117 80
108 111 76
113 115 79
121 122 84
120 121 84
121 121 84
123 124 83
114 116 82
126 126 85
136 135 90
131 130 88
142 141 91
127 127 87
145 143 94
142 141 93
142 141 89
143 142 90
147 144 90
144 142 91
149 146 92
150 148 93
151 147 90
155 152 94
152 149 91
151 148 93
152 150 94
152 148 93
160 157 98
154 151 95
159 156 99
155 152 97
161 157 100
160 156 97
162 159 98
168 163 100
168 163 100
169 164 102
165 161 101
165 161 101
169 163 100
167 162 97
170 165 98
167 162 97
168 164 97
169 165 98
175 169 105
171 166 102
171 166 99
174 168 102
175 168 98
174 168 99
165 160 93
171 165 98
175 169 102
173 167 100
173 167 100
171 165 94
168 163 93
173 167 101
171 166 99
174 168 99
172 166 99
176 170 102
171 165 97
178 171 105
175 169 102
179 171 103
172 166 95
171 165 99
172 166 97
173 167 99
171 164 96
166 160 90
174 168 98
171 165 99
170 164 98
174 167 97
171 165 99
170 164 90
171 164 95
168 162 94
166 161 93
163 157 83
173 166 98
164 159 86
169 162 93
164 159 88
169 162 93
164 159 90
168 163 89
172 165 99
165 158 88
160 154 84
162 155 85
161 156 85
161 154 89
159 153 85
161 155 83
164 157 85
163 156 83
159 152 84
154 148 78
159 152 80
151 145 80
155 149 82
149 144 73
161 153 84
149 144 77
147 142 72
155 148 75
157 150 84
152 146 75
145 138 72
139 133 68
133 128 61
142 137 62
147 143 66
141 139 60
151 152 62
146 152 52
155 162 53
156 165 42
151 162 36
157 171 37
164 179 32
164 184 16
166 184 25
171 192 19
173 197 0
172 196 0
173 196 0
174 197 0
172 196 0
169 193 0
172 194 0
173 197 0
170 194 0
171 194 0
175 198 0
174 197 0
175 198 0
174 197 0
171 195 0
173 196 0
171 195 0
172 195 0
175 198 0
175 198 0
173 196 0
174 197 0
171 195 0
173 197 0
173 197 0
171 195 0
172 195 0
173 197 0
173 196 0
170 194 0
172 195 0
173 197 0
173 195 0
172 196 0
173 197 0
173 197 0
173 196 0
174 198 0
174 197 0
173 197 0
173 197 0
170 194 0
173 196 0
173 197 0
173 197 0
173 197 0
173 196 0
170 194 0
174 197 0
174 197 0
171 195 0
171 194 0
173 196 0
174 198 0
173 197 0
170 194 0
172 196 0
173 197 0
170 194 0
173 195 0
172 196 0
172 196 0
172 196 0
171 195 0
171 194 0
172 194 0
171 194 0
171 195 0
172 196 0
174 197 0
171 193 0
170 194 0
172 195 0
173 195 0
168 192 0
173 196 0
171 193 0
169 192 0
172 196 0
170 193 0
172 195 0
169 193 0
171 194 0
172 196 0
171 195 0
170 193 0
173 197 0
170 193 0
170 193 0
173 196 0
170 193 0
169 192 0
174 196 0
171 194 0
166 189 31
152 175 86
119 146 136
73 107 174
63 100 181
63 100 179
63 100 180
62 99 181
62 99 180
62 99 179
62 99 179
62 99 180
63 100 181
62 99 180
62 99 178
62 99 180
62 99 181
62 99 180
62 99 180
62 99 179
62 99 181
62 99 181
63 100 181
62 99 179
62 99 180
62 99 181
62 99 176
61 98 176
62 99 181
62 99 180
62 99 180
62 99 180
62 99 181
62 99 180
62 99 178
62 99 178
62 99 180
62 99 181
62 99 180
62 99 181
62 99 181
61 98 179
62 99 179
62 99 180
62 99 179
62 99 180
62 99 180
62 99 177
62 99 180
62 99 178
62 99 178
61 99 179
62 99 180
61 98 180
62 99 179
62 99 179
62 99 181
62 99 181
61 99 179
62 99 180
62 99 178
62 99 181
62 99 180
62 99 179
62 99 179
62 99 179
62 99 178
61 98 177
62 99 177
61 98 177
62 99 180
63 99 178
62 99 181
61 99 180
62 99 179
62 99 177
62 99 177
61 99 179
62 99 179
61 98 177
62 99 180
62 99 180
62 99 177
62 99 178
62 99 180
61 98 179
62 99 179
62 98 174
62 99 176
61 98 175
62 99 178
62 99 176
62 99 178
62 99 180
62 99 176
62 99 180
62 99 179
62 99 177
62 99 177
61 98 176
63 99 177
62 99 176
61 99 177
62 99 179
62 99 178
62 99 179
63 99 177
62 99 178
62 99 177
62 99 175
62 99 176
61 98 172
61 98 177
61 98 179
62 99 177
62 98 172
63 100 180
62 99 172
63 99 175
63 99 177
62 99 175
62 99 176
62 99 174
62 98 173
61 98 175
62 99 176
63 99 174
63 99 176
63 99 175
62 99 177
62 99 173
61 98 173
62 99 174
61 98 173
62 99 176
61 98 171
62 99 176
61 98 173
62 99 176
61 98 172
62 99 174
61 97 170
63 100 179
62 98 168
62 99 175
61 97 168
61 97 169
62 98 173
61 96 163
62 98 164
61 97 167
61 97 167
61 97 168
61 96 165
60 95 163
60 93 154
65 97 162
67 91 137
69 86 115
86 91 85
83 87 62
77 80 58
83 86 61
91 93 66
88 92 66
88 90 63
95 98 69
86 90 65
94 96 68
97 98 67
91 94 66
86 88 65
98 102 72
95 99 71
98 101 70
104 107 76
104 107 73
109 110 75
102 106 72
115 116 83
117 116 76
107 109 75
117 118 82
119 121 82
129 130 87
113 114 77
126 127 86
122 122 81
137 136 91
130 130 85
139 137 91
124 125 82
145 143 92
147 145 94
135 135 84
146 144 92
135 135 89
142 141 91
142 141 89
150 147 95
152 150 97
150 147 90
161 157 97
152 151 96
150 147 86
158 154 96
157 154 96
155 152 97
164 160 103
160 157 97
162 158 95
165 161 98
158 155 96
156 153 92
169 164 103
166 161 100
164 160 98
165 161 94
164 160 96
167 163 100
174 169 102
166 162 94
170 166 100
174 168 101
172 166 99
170 165 100
172 166 101
171 166 101
171 165 101
169 164 92
173 167 97
175 169 99
171 166 99
168 163 96
173 167 97
168 163 92
171 165 95
174 167 99
176 168 100
176 169 99
174 168 103
171 165 95
174 168 99
174 168 97
177 170 102
175 168 97
169 164 95
170 164 99
173 167 98
172 167 97
174 168 100
172 166 94
172 166 97
172 165 96
171 164 95
171 164 94
172 166 97
166 161 90
173 165 95
169 164 97
167 161 94
166 161 88
167 161 92
170 163 95
163 158 88
164 158 87
167 160 95
161 155 87
163 157 87
164 158 91
166 159 88
165 158 87
167 160 88
157 151 79
161 155 82
158 152 84
161 154 80
157 151 82
161 154 87
153 148 77
154 148 77
156 151 82
158 151 78
155 148 85
154 148 75
163 156 86
153 148 75
157 151 80
147 142 68
149 143 76
149 143 74
146 141 73
150 143 73
134 131 52
141 139 53
136 136 57
150 153 59
153 158 54
152 159 53
150 159 51
155 167 39
155 170 30
167 185 28
167 186 22
171 191 19
173 194 11
171 195 0
173 196 0
172 195 0
173 196 0
173 197 0
173 196 0
173 195 0
170 193 0
171 195 0
170 193 0
170 194 0
173 197 0
172 195 0
172 196 0
170 194 0
171 195 0
170 193 0
170 194 0
171 194 0
172 195 0
174 197 0
172 195 0
174 197 0
173 197 0
171 194 0
171 195 0
172 196 0
172 195 0
173 196 0
171 194 0
172 195 0
173 197 0
175 198 0
174 197 0
173 196 0
172 195 0
172 196 0
173 197 0
172 195 0
170 193 0
173 197 0
169 194 0
171 195 0
171 195 0
168 192 0
169 193 0
171 194 0
171 195 0
172 195 0
170 194 0
167 192 0
170 194 0
172 195 0
171 195 0
173 196 0
171 195 0
173 197 0
171 193 0
173 196 0
172 195 0
174 197 0
169 193 0
171 195 0
172 196 0
172 195 0
171 194 0
170 193 0
171 194 0
171 194 0
173 196 0
172 196 0
168 192 0
172 195 0
171 195 0
171 195 0
173 196 0
169 193 0
173 196 0
171 194 0
171 194 0
167 191 0
170 194 0
173 196 0
173 196 0
171 195 0
170 193 0
171 195 0
173 196 0
172 195 0
171 195 0
169 192 0
170 193 0
169 193 0
170 193 0
157 181 72
140 165 108
88 119 164
63 100 179
63 100 180
63 99 180
62 99 180
62 99 181
62 99 178
62 99 181
62 99 178
62 99 180
62 99 180
62 99 179
62 99 178
62 99 180
62 99 179
62 99 180
62 99 181
62 99 180
62 99 181
62 99 180
62 99 177
62 99 179
62 99 180
63 100 180
62 99 181
62 99 179
62 99 179
62 99 179
62 99 180
62 99 180
62 99 180
61 98 177
61 99 179
62 99 179
62 99 180
62 99 179
61 98 178
63 100 180
62 99 181
62 99 178
61 99 179
62 99 180
62 99 179
62 99 180
62 99 179
62 99 180
62 99 181
62 99 181
62 99 179
62 99 181
62 99 180
62 99 180
62 99 176
62 99 179
61 99 179
62 99 180
62 99 176
62 99 178
61 99 180
62 99 176
62 99 179
61 98 177
62 99 180
62 99 176
63 99 177
61 98 177
62 99 180
62 99 179
62 99 180
62 99 178
62 99 180
62 99 181
62 99 181
62 99 180
61 98 176
62 99 178
62 99 179
62 99 179
62 99 178
62 99 179
62 99 180
61 98 177
61 99 179
62 99 176
62 99 178
62 99 179
62 99 178
62 99 176
62 99 180
62 99 176
62 99 179
62 99 176
62 99 177
62 99 179
62 99 176
62 99 176
62 99 177
61 98 177
61 99 179
62 99 179
63 99 178
63 100 177
62 99 174
62 99 178
62 99 175
62 99 179
62 99 177
63 100 179
62 99 173
62 99 177
62 98 174
62 99 175
62 99 174
63 99 178
63 99 174
61 99 177
62 98 174
61 98 174
61 98 174
62 99 176
63 100 179
62 99 174
62 99 177
62 99 177
61 98 174
62 99 176
61 98 168
62 99 174
62 99 176
62 98 173
61 98 169
62 98 174
63 99 178
62 99 175
63 99 173
62 98 170
61 97 170
62 98 174
61 97 171
62 98 168
63 99 175
61 97 168
63 99 176
62 99 176
62 98 173
62 98 169
62 98 172
62 98 169
61 96 164
61 97 163
62 98 169
60 94 159
62 97 167
60 94 155
60 94 157
64 93 145
69 88 124
75 86 97
83 89 79
77 79 54
81 84 60
84 88 67
78 80 57
99 101 71
95 97 71
88 91 62
86 90 64
89 93 68
102 105 74
96 98 70
103 104 73
101 103 72
98 102 74
110 111 76
104 107 74
112 114 80
97 99 69
103 107 76
102 104 69
114 116 78
112 114 78
114 116 78
119 120 77
130 129 87
126 126 81
124 125 84
126 128 85
127 127 82
133 132 84
147 146 95
136 135 85
148 145 94
131 131 84
142 140 88
148 145 91
144 144 91
146 144 92
148 145 92
151 148 91
145 143 86
151 148 97
160 156 95
154 151 94
153 151 95
157 154 97
162 158 96
163 159 96
155 153 93
160 156 93
161 157 97
160 156 97
166 162 98
160 155 91
164 160 98
169 165 99
165 160 100
166 161 94
166 161 100
167 162 97
167 162 98
167 162 94
168 164 100
167 162 97
170 165 98
171 166 101
172 166 102
177 170 102
169 164 95
172 166 95
173 168 104
176 170 103
168 162 94
176 170 101
174 167 96
170 165 93
173 167 100
170 165 94
175 168 103
173 167 97
175 168 101
174 168 98
174 167 96
170 164 96
172 166 96
171 165 93
167 160 91
172 165 95
171 165 95
173 167 101
175 169 99
166 160 90
168 162 91
172 165 94
169 163 93
173 166 93
166 160 90
174 167 97
171 164 96
163 157 90
162 156 87
165 159 85
162 157 87
163 158 85
163 156 89
166 159 90
171 164 95
161 155 85
165 158 92
164 157 84
162 155 87
169 162 87
166 159 91
159 153 83
164 157 87
149 144 72
160 153 86
157 150 82
158 151 81
158 151 84
157 150 79
156 150 82
158 150 81
149 143 78
147 141 69
160 153 81
150 144 76
145 140 68
144 140 70
149 143 68
150 144 65
146 141 66
142 136 68
143 140 61
146 146 58
143 144 60
152 155 56
148 154 45
149 160 39
160 170 47
157 173 34
165 181 32
169 188 25
170 191 16
169 189 0
171 194 0
175 197 0
171 195 0
172 195 0
175 197 0
172 196 0
173 196 0
173 197 0
173 197 0
172 195 0
171 195 0
170 193 0
173 196 0
169 192 0
172 196 0
172 195 0
173 196 0
171 195 0
172 196 0
170 194 0
174 197 0
173 197 0
173 196 0
173 196 0
173 197 0
175 198 0
173 196 0
174 196 0
173 196 0
172 196 0
172 195 0
170 194 0
169 193 0
173 196 0
170 192 0
172 196 0
173 196 0
171 194 0
171 195 0
172 195 0
171 195 0
173 196 0
173 197 0
174 197 0
171 195 0
170 194 0
174 196 0
174 196 0
171 194 0
171 194 0
167 191 0
169 194 0
169 193 0
172 195 0
174 198 0
170 194 0
170 192 0
173 196 0
171 194 0
169 193 0
173 196 0
169 192 0
169 193 0
169 193 0
168 192 0
173 196 0
172 195 0
172 196 0
171 195 0
172 195 0
170 193 0
171 194 0
171 194 0
168 192 0
174 197 0
172 195 0
172 196 0
170 194 0
174 197 0
171 196 0
169 193 0
170 193 0
173 195 0
169 192 0
172 195 0
172 196 0
169 191 0
170 193 0
171 194 0
171 194 0
168 191 0
166 190 0
171 195 0
167 190 36
146 171 102
112 139 144
69 104 175
63 99 179
62 99 179
63 100 179
62 99 180
62 99 180
62 99 180
62 99 179
62 99 180
62 99 179
62 99 180
62 99 179
62 99 180
62 99 179
61 99 180
62 100 181
62 99 181
62 99 181
62 99 179
62 99 176
63 100 181
62 99 181
62 99 181
62 99 180
62 99 180
62 99 180
62 99 178
62 99 180
62 99 181
62 99 179
63 100 180
62 99 179
62 99 179
61 99 179
62 99 180
61 98 173
62 99 181
61 99 179
62 99 178
61 99 178
62 99 180
62 99 179
61 99 181
62 99 179
62 99 178
62 99 178
62 99 180
62 99 178
62 99 180
62 99 179
62 99 178
62 99 180
62 99 181
62 99 181
62 99 177
62 99 178
61 98 175
62 99 180
62 99 178
62 99 179
62 99 178
62 99 178
62 99 180
62 99 179
62 99 180
62 99 179
62 99 179
62 99 175
62 99 179
62 99 180
62 99 180
62 99 179
62 99 179
62 99 180
62 99 175
62 99 180
62 99 181
62 99 179
61 98 176
62 99 174
62 99 179
62 99 177
62 99 180
62 99 179
63 100 181
62 99 178
61 98 171
62 99 176
61 98 177
62 99 176
62 99 178
61 98 179
62 99 177
62 99 174
62 99 179
62 99 175
63 100 180
61 98 178
62 99 178
62 99 180
61 98 175
61 98 175
62 99 177
62 99 175
62 99 174
62 99 177
61 99 178
62 99 177
62 99 177
62 99 173
62 99 177
62 99 175
63 99 176
62 99 178
63 99 176
62 99 175
62 99 176
62 99 174
62 99 173
62 99 177
63 99 177
61 98 176
62 99 173
63 99 177
62 99 175
63 99 173
62 98 173
62 99 174
62 99 172
62 99 178
62 99 172
62 99 173
62 98 171
62 99 177
62 99 177
62 98 173
63 100 176
61 97 170
62 98 176
62 98 172
63 100 175
61 97 166
61 97 172
62 98 170
61 97 170
61 96 160
61 97 165
61 97 169
61 97 168
62 98 168
60 95 161
61 97 169
62 97 168
59 93 162
58 91 154
61 95 163
59 85 132
66 84 113
64 72 73
76 83 71
85 86 60
82 86 59
69 73 52
79 81 58
71 75 55
81 85 62
93 95 66
79 83 61
87 90 65
93 95 66
86 90 63
92 95 67
96 100 72
96 101 75
92 96 70
108 110 75
101 104 75
113 114 75
107 111 77
117 119 81
121 122 83
113 115 81
110 111 74
116 117 79
130 130 86
129 128 83
123 124 83
138 137 90
125 126 87
135 135 88
132 132 84
129 130 87
141 139 87
144 143 89
143 141 89
148 145 91
141 140 87
148 146 88
155 152 92
145 144 92
149 146 91
150 148 94
149 147 93
152 150 94
150 148 91
162 157 97
156 152 93
164 160 95
153 150 91
158 154 95
161 156 92
162 158 94
170 165 98
165 160 91
168 163 98
167 162 95
162 158 93
168 163 95
164 160 94
164 160 93
170 164 99
171 165 97
167 161 93
166 162 96
173 167 102
170 164 97
172 166 99
172 166 97
172 166 92
173 167 99
168 164 95
171 164 95
173 167 101
176 169 103
174 168 101
171 166 99
172 166 95
173 167 95
172 166 97
171 165 95
175 169 100
170 164 93
171 166 95
173 167 96
171 165 93
167 162 92
169 164 95
171 165 96
173 166 97
170 163 87
171 165 94
171 164 97
167 161 94
172 165 93
170 164 91
173 166 96
170 164 91
165 159 88
172 165 94
167 161 90
168 162 87
167 160 89
167 160 92
167 160 91
168 162 91
165 158 93
163 156 89
164 158 90
166 160 90
162 156 82
162 156 87
163 156 87
157 151 80
161 154 83
158 151 83
164 157 82
157 151 79
156 150 84
167 160 86
156 149 80
163 157 83
158 152 81
156 150 75
145 140 75
156 149 75
154 148 80
143 137 70
150 144 75
149 143 78
150 144 75
147 141 67
142 138 63
152 149 65
150 149 61
153 156 58
149 153 54
153 162 41
151 160 36
159 171 45
156 172 25
165 180 30
171 188 32
172 193 16
169 189 0
175 198 0
172 196 0
172 196 0
172 196 0
175 198 0
172 195 0
171 195 0
173 197 0
175 198 0
173 196 0
171 195 0
172 195 0
172 196 0
173 197 0
173 197 0
173 196 0
170 193 0
169 193 0
171 196 0
170 194 0
172 196 0
172 196 0
175 198 0
173 197 0
172 195 0
172 196 0
173 196 0
174 198 0
171 194 0
172 195 0
172 196 0
171 194 0
171 194 0
172 196 0
170 194 0
172 196 0
174 197 0
170 194 0
172 196 0
172 195 0
172 196 0
171 194 0
171 194 0
169 192 0
174 197 0
170 193 0
170 194 0
170 194 0
167 191 0
171 194 0
170 193 0
172 196 0
172 195 0
171 194 0
171 195 0
172 195 0
171 195 0
173 196 0
170 193 0
172 195 0
171 195 0
169 192 0
172 195 0
173 196 0
173 196 0
173 196 0
171 195 0
174 197 0
174 197 0
171 193 0
173 196 0
170 193 0
173 196 0
172 196 0
171 194 0
172 196 0
169 192 0
167 191 0
172 196 0
173 196 0
173 196 0
168 193 0
171 195 0
170 194 0
173 196 0
172 195 0
167 190 0
171 194 0
170 193 0
172 196 0
170 194 0
172 194 0
173 196 18
166 189 44
140 164 114
92 122 161
63 100 179
63 100 180
63 99 178
63 99 178
62 99 180
62 99 177
62 99 180
62 99 180
62 99 179
63 100 180
62 99 177
62 99 180
62 99 178
62 99 178
61 99 179
62 99 180
62 99 179
61 98 180
62 99 181
63 99 179
62 99 177
62 99 180
61 98 176
62 99 179
62 99 181
61 98 176
62 99 181
62 99 178
62 99 178
63 100 180
63 100 181
62 99 181
62 99 181
62 99 180
63 99 179
62 99 179
62 99 178
62 99 180
62 99 180
62 99 180
62 99 180
62 99 181
62 99 181
62 99 178
62 99 180
62 99 178
62 99 177
62 99 181
63 100 179
62 99 179
62 99 179
62 99 180
61 99 181
62 99 180
62 99 180
62 99 178
62 99 179
62 99 180
61 99 180
62 98 174
62 99 175
62 99 181
61 99 180
62 99 176
62 99 180
62 99 181
62 99 178
61 99 178
63 100 179
62 99 177
62 99 180
62 99 179
62 99 179
62 99 179
62 99 177
62 99 176
62 99 180
62 99 179
62 99 181
62 99 176
63 100 178
62 99 179
63 99 177
62 99 178
62 99 177
63 100 180
62 99 179
62 99 173
62 99 175
63 99 178
62 99 177
62 99 180
62 99 176
62 99 179
62 99 175
62 99 180
63 99 177
62 99 178
62 99 181
62 99 179
62 99 178
63 100 177
62 99 174
62 99 176
63 100 178
62 99 173
61 98 179
61 98 175
62 99 176
62 99 175
62 99 179
62 98 172
62 99 176
62 99 176
61 98 176
62 98 174
62 99 172
62 99 175
62 99 175
62 99 176
62 99 175
62 99 175
63 99 174
62 98 172
63 100 179
62 98 174
62 99 170
62 98 172
62 99 172
62 99 174
62 99 173
62 99 175
62 99 171
62 98 171
62 98 168
62 98 163
62 98 171
62 99 175
62 99 170
63 99 174
61 98 169
62 98 170
62 98 173
61 97 166
61 98 170
62 98 172
61 97 168
61 97 165
62 97 162
61 97 168
62 98 168
60 96 170
60 94 158
59 93 157
61 95 156
60 94 161
71 99 149
68 90 131
64 75 85
73 80 76
78 81 60
69 74 54
86 87 60
77 82 57
79 83 60
68 74 57
73 79 60
87 91 67
88 90 64
75 81 60
94 96 65
91 94 68
95 99 70
106 108 73
100 101 69
97 100 68
112 114 78
113 115 78
109 112 73
108 110 77
119 119 78
114 114 75
125 125 85
120 120 80
128 129 85
126 126 81
119 120 77
132 131 83
125 126 83
133 132 87
143 140 90
148 144 89
138 137 88
139 137 89
140 139 83
148 146 91
147 145 89
140 138 87
147 145 90
151 147 89
150 148 94
152 149 93
156 153 93
157 152 93
159 156 94
154 152 90
156 153 93
162 157 93
162 158 96
163 159 95
154 151 91
165 160 96
161 157 95
169 163 98
162 157 95
162 159 92
160 156 97
159 154 89
164 160 90
164 160 101
169 164 99
172 166 95
172 167 99
168 162 99
170 164 94
173 167 99
171 166 99
169 164 96
170 164 99
173 167 99
171 166 95
172 167 98
172 168 99
171 165 97
173 167 97
171 165 94
173 167 98
172 166 96
171 165 98
170 163 94
168 163 96
173 167 93
175 169 96
173 167 97
168 162 92
172 166 97
170 164 92
171 165 98
177 170 101
174 167 96
172 165 96
173 166 94
172 165 99
166 160 90
171 164 91
173 165 95
170 163 90
166 160 86
170 163 92
164 158 90
171 163 95
168 162 89
165 158 84
169 162 89
162 156 84
167 161 87
161 156 86
164 158 81
160 154 81
166 160 89
162 156 85
160 155 79
158 152 82
157 151 79
166 157 89
162 154 85
164 157 84
157 150 80
153 148 77
154 148 80
154 147 81
156 150 77
155 149 78
147 141 73
158 151 78
145 138 75
155 149 75
148 142 69
145 139 75
149 143 73
138 132 66
138 134 54
146 141 63
143 146 54
140 142 54
145 149 52
152 160 47
151 161 36
168 180 47
160 174 36
158 175 30
163 184 16
163 184 16
172 194 0
172 195 0
171 195 0
175 198 0
174 196 0
173 197 0
172 196 0
173 196 0
175 198 0
172 196 0
169 193 0
174 197 0
172 196 0
171 195 0
172 195 0
173 197 0
172 195 0
173 195 0
173 196 0
173 196 0
172 195 0
174 197 0
174 197 0
171 195 0
171 195 0
173 196 0
171 194 0
171 195 0
172 195 0
174 197 0
174 196 0
172 195 0
174 197 0
173 196 0
172 195 0
173 196 0
174 197 0
173 197 0
171 195 0
173 195 0
172 196 0
169 192 0
172 195 0
175 197 0
172 195 0
171 195 0
173 197 0
173 196 0
171 194 0
171 194 0
174 197 0
172 196 0
172 196 0
171 195 0
170 193 0
173 196 0
173 196 0
173 196 0
174 196 0
173 196 0
173 196 0
171 194 0
172 196 0
172 196 0
167 191 0
171 195 0
173 195 0
171 194 0
170 194 0
170 194 0
169 192 0
174 197 0
169 193 0
169 192 0
171 195 0
171 193 0
169 192 0
172 195 0
173 195 0
171 194 0
170 193 0
172 195 0
170 194 0
171 195 0
172 194 0
170 193 0
170 193 0
171 194 0
171 193 0
166 190 0
171 194 0
172 195 0
173 196 0
167 191 36
146 170 92
107 134 149
66 102 179
63 100 178
63 100 179
62 99 177
62 99 179
62 99 178
62 99 177
62 99 179
62 99 180
62 99 177
62 99 179
62 99 180
62 99 180
62 99 180
62 99 179
62 99 181
62 99 177
62 99 179
62 99 180
62 99 180
62 99 179
62 99 179
62 99 179
62 99 180
62 99 180
62 99 180
62 99 179
62 99 180
62 99 181
62 99 178
62 99 180
62 99 179
63 99 180
62 99 179
62 99 178
62 99 181
62 99 181
61 99 179
61 98 178
61 98 179
62 99 180
61 98 179
62 99 179
61 99 180
62 99 177
62 99 177
62 99 177
62 99 177
62 99 179
63 100 180
63 99 179
62 99 180
62 99 180
62 99 179
62 99 175
62 99 180
62 99 177
62 99 181
62 99 177
62 99 178
62 99 177
62 99 176
62 99 180
62 99 180
61 98 176
61 99 177
62 99 180
62 99 178
62 99 180
62 99 178
62 99 180
62 99 179
62 99 178
61 99 178
62 99 177
62 99 176
62 99 176
62 99 179
63 100 179
62 99 181
62 99 180
62 99 179
62 99 177
62 99 179
61 98 174
62 99 179
62 99 178
62 99 177
62 99 176
62 99 179
62 99 176
62 99 177
62 99 177
63 99 175
63 99 178
62 99 176
62 99 174
62 99 176
62 99 181
61 98 175
61 98 176
63 100 180
62 99 176
62 99 179
62 99 176
62 99 173
62 99 176
62 99 177
62 99 176
62 99 176
62 99 178
62 98 172
63 99 178
61 98 175
61 98 173
62 99 174
62 99 174
62 99 176
61 98 172
62 99 175
61 97 172
62 99 176
62 98 171
62 99 173
62 99 177
61 97 169
62 99 175
62 99 175
62 99 174
62 98 173
62 99 173
61 97 169
62 99 178
62 98 172
62 99 172
63 99 173
61 98 170
62 98 173
62 99 174
63 99 173
62 99 172
62 99 171
62 98 173
62 98 170
62 97 167
62 98 171
61 97 164
62 98 171
61 98 169
61 96 163
61 97 168
61 96 163
61 97 163
62 97 168
60 95 161
60 95 164
60 94 161
60 95 164
67 93 144
61 78 95
69 77 80
73 78 62
67 69 49
81 84 59
79 81 56
76 82 61
71 75 54
72 77 55
78 83 61
84 88 62
92 95 70
79 84 63
94 97 69
93 96 66
97 100 70
86 91 65
106 108 72
102 106 73
107 110 78
126 125 81
101 103 69
126 125 85
113 115 80
116 116 71
112 114 74
130 129 87
122 123 80
124 123 83
117 119 79
134 133 84
128 129 83
123 123 73
138 137 89
138 137 87
144 143 89
136 135 76
130 130 79
143 141 85
146 144 87
146 144 88
140 138 89
148 147 92
148 145 87
155 151 92
151 148 93
154 150 92
156 152 93
155 151 91
162 157 94
164 159 98
164 158 94
160 155 95
161 156 91
160 156 96
167 161 96
166 162 98
166 160 96
170 163 95
167 162 97
165 160 96
169 164 98
165 161 93
162 157 93
172 166 96
166 161 95
167 161 94
168 162 95
168 163 96
172 166 98
174 168 99
172 166 99
172 165 99
171 166 101
170 165 93
175 167 98
175 169 101
170 164 91
171 165 98
171 165 96
173 167 97
171 165 96
171 165 91
174 167 97
172 166 95
168 162 95
165 159 94
172 166 97
167 161 95
171 164 96
170 165 93
173 167 97
174 167 98
170 164 93
169 163 92
168 162 93
172 165 93
167 161 85
170 164 96
171 165 90
169 161 90
167 161 92
160 154 84
165 158 87
167 160 90
164 157 87
172 164 97
160 154 82
164 158 89
167 161 84
168 161 88
163 156 87
163 156 88
167 160 87
156 151 76
160 154 79
155 148 77
154 149 75
158 152 80
151 146 69
160 153 81
166 160 80
156 150 77
158 152 80
153 146 79
154 148 75
144 139 63
134 129 65
149 143 75
150 144 76
137 132 65
136 130 62
139 135 60
147 144 64
145 144 59
147 147 61
145 150 45
146 152 42
153 159 59
156 169 47
164 179 28
157 171 34
162 180 16
166 184 32
166 186 16
169 189 0
171 195 0
174 197 0
174 197 0
173 196 0
172 196 0
172 195 0
171 195 0
172 196 0
175 198 0
172 196 0
173 197 0
172 195 0
173 195 0
171 194 0
172 195 0
173 197 0
171 194 0
172 195 0
173 196 0
171 194 0
170 194 0
174 197 0
173 197 0
172 196 0
174 198 0
172 196 0
172 195 0
172 196 0
170 193 0
170 194 0
173 195 0
170 194 0
169 193 0
169 192 0
171 194 0
171 195 0
173 196 0
172 196 0
167 191 0
170 193 0
174 197 0
170 194 0
174 197 0
172 195 0
174 197 0
168 192 0
172 195 0
174 197 0
172 195 0
172 196 0
172 195 0
171 194 0
172 196 0
171 194 0
172 195 0
174 197 0
171 194 0
169 192 0
171 195 0
172 196 0
171 194 0
171 194 0
168 192 0
171 194 0
172 195 0
167 190 0
173 196 0
172 195 0
171 196 0
168 192 0
171 195 0
174 197 0
170 194 0
168 192 0
171 194 0
170 193 0
173 196 0
172 196 0
170 193 0
172 196 0
168 192 0
169 191 0
172 195 0
172 196 0
169 193 0
170 194 0
171 195 0
172 195 0
168 191 0
171 195 0
173 196 0
170 194 0
165 188 60
128 153 126
80 112 168
63 100 180
63 100 180
63 99 179
63 100 180
63 100 178
63 99 178
62 99 179
63 99 177
63 99 180
61 98 177
62 99 178
62 99 181
62 99 181
61 99 177
63 100 181
62 99 181
61 98 178
63 100 178
62 99 180
62 99 179
62 99 178
61 99 179
62 99 176
62 99 181
62 99 179
62 99 179
62 99 180
61 99 179
62 99 179
62 99 178
62 99 180
62 99 179
62 99 179
63 100 179
62 99 180
62 99 179
62 99 178
63 100 180
61 98 175
61 99 178
62 99 178
62 99 180
63 99 177
62 99 181
61 98 178
62 99 180
62 99 177
62 99 180
62 99 179
61 98 178
62 99 179
62 99 177
62 99 178
62 99 176
62 99 178
62 99 180
62 99 178
61 98 178
62 99 179
62 99 178
62 99 180
62 99 177
62 99 181
62 99 178
62 99 180
62 99 180
61 98 176
62 99 179
61 98 177
62 99 177
62 99 178
62 99 180
61 99 178
62 99 178
62 99 176
62 99 176
62 99 175
62 99 179
62 99 175
62 99 177
62 99 178
62 99 179
62 99 179
62 99 176
63 99 177
62 99 173
62 99 179
62 99 177
62 99 180
62 99 179
62 99 177
62 99 172
62 99 174
62 99 174
62 99 176
62 99 176
62 99 171
62 99 180
62 99 175
62 99 177
62 99 176
62 99 178
62 99 177
62 99 177
62 98 174
63 99 175
62 99 174
62 99 175
63 100 178
61 98 175
63 100 178
62 99 178
62 99 175
62 99 176
62 99 177
62 99 178
62 99 177
62 99 175
62 99 171
62 99 176
63 99 174
62 99 176
62 99 175
62 99 179
62 99 175
62 98 169
62 99 177
62 98 173
62 98 173
62 99 173
61 98 176
62 98 171
61 98 177
63 99 175
62 99 172
61 98 169
62 98 172
62 98 173
61 98 169
62 98 171
62 98 170
61 98 172
62 98 163
60 96 170
62 98 171
62 99 170
61 97 166
62 97 163
60 96 166
62 98 169
60 95 160
60 96 162
60 96 163
62 97 166
61 96 160
60 94 159
61 95 164
61 97 166
59 90 141
66 89 128
69 83 100
63 71 67
85 87 60
59 64 48
67 69 50
77 82 60
80 83 57
76 82 59
82 86 63
78 83 62
85 88 60
83 86 61
73 77 56
88 91 65
83 87 63
95 98 66
98 102 74
109 110 75
98 100 69
117 118 75
110 112 74
106 108 72
114 116 79
125 124 84
121 121 79
129 128 85
122 122 81
126 125 84
125 126 86
123 123 77
131 131 86
125 126 79
139 137 84
142 140 86
147 145 93
130 130 83
135 134 84
144 142 89
147 145 90
145 143 88
141 139 86
149 145 87
149 146 88
145 143 88
149 148 91
153 149 95
162 157 95
162 157 91
160 156 99
160 156 89
156 153 93
161 157 94
162 158 93
161 157 98
164 159 97
163 158 94
161 156 92
165 161 91
162 158 90
163 158 94
173 167 96
169 164 94
167 163 97
171 165 98
165 160 92
170 165 96
174 168 99
171 165 95
173 167 101
168 162 91
173 167 97
171 166 95
170 165 91
174 168 97
174 168 99
169 164 96
170 164 94
174 168 101
174 168 95
174 167 94
170 164 89
174 167 97
173 167 97
170 164 97
167 162 92
173 167 95
167 162 88
174 167 94
172 165 94
170 164 93
173 166 95
171 164 99
168 162 88
171 163 95
164 159 87
170 163 92
173 166 95
166 160 92
167 160 91
165 158 87
163 157 81
164 158 87
170 162 89
161 154 80
162 156 80
160 154 84
162 156 84
163 157 83
161 155 83
160 154 84
169 161 89
163 157 88
164 157 87
159 153 79
165 158 83
154 147 78
155 148 80
162 155 80
150 145 74
157 151 75
153 148 75
153 148 77
145 140 68
149 143 73
160 153 80
153 146 74
146 141 70
138 134 63
147 141 62
141 135 56
140 135 67
141 136 59
145 140 63
138 138 53
143 145 48
147 153 57
141 145 49
149 158 45
154 167 34
153 166 41
161 175 28
161 179 16
164 182 22
171 191 19
169 191 0
175 198 0
171 194 0
172 196 0
173 196 0
171 195 0
170 194 0
172 197 0
174 197 0
172 196 0
172 195 0
173 197 0
173 197 0
174 197 0
172 196 0
176 199 0
173 195 0
172 196 0
172 196 0
173 196 0
174 197 0
172 195 0
175 198 0
173 196 0
172 196 0
171 195 0
170 193 0
173 196 0
172 195 0
171 194 0
173 196 0
172 195 0
172 195 0
173 196 0
170 195 0
174 197 0
173 196 0
172 196 0
171 194 0
173 197 0
171 194 0
170 194 0
174 196 0
172 196 0
172 196 0
172 196 0
172 195 0
169 193 0
168 191 0
171 194 0
172 195 0
172 195 0
172 195 0
170 194 0
172 195 0
171 195 0
173 196 0
175 197 0
171 194 0
170 194 0
172 196 0
168 192 0
172 195 0
172 195 0
170 194 0
171 194 0
170 193 0
169 192 0
172 195 0
173 197 0
171 195 0
173 196 0
171 193 0
170 194 0
172 195 0
169 193 0
171 194 0
169 192 0
167 190 0
170 194 0
168 191 0
170 193 0
171 194 0
168 191 0
168 191 0
169 193 0
168 192 0
168 191 0
171 194 0
168 191 0
174 197 0
171 195 0
170 193 18
151 175 94
106 134 147
66 102 174
63 100 179
62 99 178
62 99 179
63 100 175
62 99 180
63 100 181
63 100 180
62 99 177
62 99 174
63 100 180
62 99 178
62 99 180
62 99 178
62 99 179
63 100 180
63 100 181
62 99 176
63 99 178
62 99 178
62 99 177
62 99 179
63 100 181
63 100 180
63 100 178
61 98 176
62 99 181
62 99 181
62 99 181
62 99 180
62 99 180
62 99 180
62 99 181
62 99 177
62 99 177
62 99 181
61 98 178
62 99 179
62 99 179
62 99 180
62 99 179
62 99 180
62 99 179
62 99 179
62 99 180
61 99 180
62 99 177
62 99 180
62 99 179
61 99 179
61 98 179
62 99 176
62 99 178
63 99 178
61 98 176
61 98 178
63 100 179
62 99 179
62 99 180
62 99 177
62 99 179
62 99 177
62 99 180
62 99 179
62 99 179
62 99 178
62 99 178
62 99 180
62 99 180
61 98 176
63 100 180
61 98 179
62 99 179
62 99 177
62 99 177
62 99 177
62 99 177
62 99 173
62 99 179
63 100 180
62 99 181
61 98 177
62 99 175
62 99 178
62 99 178
62 100 181
62 99 175
62 99 177
62 99 175
62 98 175
61 99 178
62 99 178
62 99 178
62 99 175
62 99 178
63 99 177
62 99 174
63 99 178
62 98 172
62 99 176
62 99 175
62 99 176
62 99 176
61 98 173
62 99 173
63 100 180
63 100 178
62 99 176
62 99 174
62 99 178
62 99 175
61 99 178
62 99 176
62 99 177
62 99 177
63 99 172
63 100 176
63 100 180
62 99 177
61 98 174
62 99 171
62 98 175
62 99 174
62 99 178
62 99 173
63 100 175
62 99 174
62 99 176
61 98 170
62 98 169
62 98 170
61 98 171
61 98 175
62 99 173
62 98 172
63 99 175
62 98 167
61 97 167
62 98 171
62 99 171
61 97 164
62 98 168
62 99 169
62 98 171
62 98 166
62 99 169
62 98 169
62 98 170
61 96 163
61 97 170
61 97 164
62 98 167
62 98 169
61 96 162
62 97 166
60 95 162
61 96 169
60 93 156
60 96 165
59 92 155
63 90 134
67 81 96
69 78 82
61 69 60
59 64 46
76 81 56
74 78 57
61 68 50
84 88 61
79 83 61
72 76 54
83 88 62
85 89 64
87 90 61
88 92 62
83 88 62
87 92 65
92 96 66
107 109 72
92 96 68
103 106 72
115 116 76
106 107 72
116 117 78
109 111 72
113 114 75
124 124 83
127 127 86
122 122 78
119 119 77
129 129 81
135 133 82
135 134 84
134 134 86
132 131 80
137 136 84
142 141 87
145 144 88
141 137 86
144 142 85
149 146 91
153 149 91
155 151 94
145 144 86
155 151 92
149 146 89
159 154 92
165 160 91
153 150 91
159 155 91
163 158 90
153 149 87
148 146 87
160 156 95
160 156 94
162 157 94
161 156 90
158 154 86
162 158 92
160 156 91
171 164 96
165 160 96
166 161 92
167 162 93
172 165 98
169 164 97
164 159 93
166 160 95
170 164 97
169 164 91
171 165 97
173 166 91
170 164 95
172 166 92
168 162 92
170 164 95
171 164 92
171 165 90
173 166 97
170 163 96
173 167 94
170 164 93
173 167 93
169 163 91
171 165 95
171 165 94
168 163 97
174 167 97
166 160 90
171 164 95
165 159 83
171 165 93
168 162 93
172 166 89
167 161 91
167 161 89
165 159 90
164 158 86
168 161 85
167 161 91
167 162 90
165 159 84
165 157 86
169 162 88
167 160 84
166 160 87
165 158 83
161 155 84
164 158 87
158 152 82
165 158 90
170 163 93
163 157 85
157 152 80
162 156 77
155 149 76
154 147 79
154 149 76
158 151 84
161 154 83
159 152 83
160 153 83
152 145 78
156 150 73
156 150 75
151 144 78
155 149 70
151 145 71
152 145 74
138 134 61
150 144 66
157 150 73
143 138 65
141 137 62
137 134 61
133 134 42
149 153 54
147 154 47
153 160 45
164 176 42
152 166 28
159 174 25
166 185 22
169 185 28
170 192 11
170 192 11
174 197 0
172 196 0
172 196 0
176 199 0
170 194 0
173 196 0
173 196 0
171 195 0
174 198 0
172 195 0
173 196 0
171 195 0
173 197 0
173 197 0
172 196 0
171 195 0
171 194 0
173 197 0
171 195 0
173 195 0
174 197 0
173 196 0
172 196 0
170 194 0
172 194 0
170 194 0
174 197 0
172 195 0
173 196 0
168 192 0
173 197 0
167 191 0
170 194 0
170 193 0
172 195 0
173 196 0
172 195 0
172 195 0
170 194 0
174 197 0
173 196 0
172 195 0
170 194 0
172 196 0
171 195 0
172 196 0
171 194 0
173 196 0
171 193 0
171 195 0
170 193 0
170 193 0
172 196 0
174 196 0
170 194 0
170 194 0
168 192 0
172 195 0
174 197 0
174 197 0
169 191 0
171 194 0
171 195 0
170 194 0
172 195 0
172 195 0
171 195 0
171 193 0
170 193 0
172 195 0
170 194 0
170 193 0
169 192 0
167 191 0
168 191 0
174 196 0
173 197 0
171 194 0
173 196 0
171 194 0
168 192 0
170 194 0
170 194 0
171 195 0
170 193 0
173 196 0
171 194 0
171 194 0
174 196 0
173 196 0
170 194 0
157 181 78
136 161 118
91 121 163
63 100 179
63 100 180
63 100 179
62 99 179
63 100 181
62 99 178
62 99 179
62 99 178
63 100 181
63 99 179
62 99 177
62 99 179
62 99 179
62 99 179
62 99 179
62 99 177
63 100 178
62 99 177
62 99 178
62 99 180
62 99 177
62 99 179
62 99 180
62 99 178
61 98 178
62 99 179
62 99 178
62 99 179
63 100 180
62 99 179
62 99 181
61 99 180
62 99 178
61 98 180
62 99 178
62 99 181
62 99 181
63 99 177
62 99 179
62 99 178
62 99 179
62 99 176
62 99 180
61 98 176
62 99 179
62 99 178
62 99 177
62 99 179
62 99 176
62 99 176
62 99 177
61 98 177
62 99 177
62 99 179
62 99 176
62 99 176
62 99 177
62 99 176
62 99 174
62 99 176
62 99 179
62 99 180
62 99 177
62 99 178
63 100 178
63 100 180
62 99 178
62 99 177
62 99 179
62 99 181
62 99 177
63 100 180
62 99 176
62 99 178
62 99 176
62 99 178
62 99 174
63 99 177
62 99 180
62 99 181
62 98 174
62 99 177
63 100 180
61 98 177
62 99 174
62 99 177
61 98 176
63 99 176
62 99 174
62 99 178
62 99 176
62 99 176
62 99 174
62 99 177
62 99 179
62 99 176
62 99 177
62 99 175
63 99 178
62 99 180
61 98 172
62 99 177
62 99 176
62 99 179
62 99 178
62 99 175
62 99 177
62 99 175
62 99 177
63 99 172
62 99 176
62 99 176
62 99 175
63 99 175
62 99 174
62 99 175
62 99 176
62 98 172
62 99 176
62 99 174
62 99 176
62 99 178
62 99 173
63 99 177
62 99 174
63 99 175
62 99 172
62 99 175
62 99 173
62 99 178
61 98 172
62 99 172
62 99 171
62 98 169
63 99 177
62 98 171
61 98 167
63 100 175
62 98 166
61 98 173
61 98 170
62 99 172
62 98 173
63 100 176
62 99 165
63 99 170
61 97 163
62 98 170
60 96 165
62 97 166
61 98 170
61 97 166
62 98 170
61 96 167
62 98 167
61 96 159
60 95 156
61 96 162
59 94 159
60 94 157
57 87 140
56 81 123
72 83 92
63 72 75
64 69 49
67 72 49
66 70 50
73 77 56
72 76 56
75 79 57
77 81 55
87 89 59
79 84 59
89 92 62
82 87 63
83 87 62
96 99 71
106 107 73
105 106 73
91 95 67
117 117 79
101 104 68
105 107 69
108 109 70
117 118 81
119 120 82
114 115 75
124 124 79
121 122 77
121 121 77
132 131 83
131 130 83
133 132 82
124 125 82
143 140 82
135 133 84
136 135 85
144 142 85
141 139 86
141 139 88
144 141 84
142 140 87
147 145 87
154 151 92
157 153 89
150 147 89
154 150 94
149 146 88
153 150 87
153 149 88
150 147 84
161 156 91
161 157 94
168 162 95
159 155 89
159 155 92
162 158 91
166 160 93
169 162 96
166 161 89
162 158 88
171 164 98
165 160 97
163 159 94
165 161 96
171 165 99
165 161 95
164 159 91
169 163 94
170 165 95
169 163 91
168 163 90
173 166 98
171 164 89
170 164 94
170 165 91
168 163 86
165 159 92
169 164 96
171 164 92
174 166 93
174 167 98
173 166 92
171 164 90
170 163 94
174 166 96
170 164 89
173 166 98
170 165 93
172 166 93
170 162 94
171 164 95
168 162 87
172 166 93
166 161 82
173 167 99
167 160 87
166 160 90
162 156 81
169 163 90
163 158 87
167 160 86
163 157 82
164 157 84
167 160 89
165 159 84
166 159 85
156 151 75
165 158 87
166 159 88
162 156 83
161 154 85
162 156 82
157 150 80
165 159 87
158 152 78
153 148 77
152 146 75
155 149 76
156 150 76
167 159 91
156 150 85
146 140 72
151 145 73
143 138 63
151 145 67
147 142 69
143 138 73
148 142 71
143 137 66
138 133 58
151 145 71
138 134 61
145 141 62
146 146 59
142 146 45
149 152 51
150 157 47
152 162 45
156 170 39
160 174 32
163 181 32
161 177 30
164 184 19
170 189 16
171 194 0
173 196 0
172 195 0
172 196 0
172 196 0
172 195 0
174 197 0
175 198 0
173 197 0
172 195 0
171 194 0
172 196 0
174 197 0
173 196 0
170 194 0
172 195 0
172 195 0
173 196 0
174 197 0
173 196 0
173 197 0
171 194 0
173 196 0
172 195 0
171 195 0
171 195 0
170 193 0
174 197 0
174 197 0
167 191 0
170 194 0
170 193 0
174 198 0
170 194 0
171 195 0
174 196 0
170 193 0
171 194 0
168 192 0
170 195 0
173 197 0
172 195 0
174 197 0
171 195 0
169 193 0
172 196 0
171 195 0
172 194 0
173 197 0
170 193 0
174 197 0
171 195 0
170 193 0
173 196 0
171 194 0
172 195 0
171 195 0
174 197 0
172 196 0
172 195 0
172 195 0
172 196 0
169 193 0
170 193 0
172 194 0
171 194 0
169 192 0
172 195 0
171 195 0
170 193 0
173 196 0
170 192 0
173 197 0
172 196 0
171 195 0
171 194 0
169 192 0
167 191 0
172 196 0
173 197 0
172 194 0
170 193 0
171 194 0
168 191 0
170 194 0
169 192 0
169 194 0
164 187 0
170 193 0
171 193 0
171 193 0
167 191 25
150 174 88
112 140 141
69 104 175
63 100 179
62 99 178
62 99 178
63 100 179
62 99 179
62 99 177
63 100 180
62 99 179
62 99 178
61 98 176
62 99 179
62 99 175
62 99 179
63 100 181
62 99 178
62 99 174
63 100 178
63 100 181
63 99 176
63 100 180
62 99 178
62 99 180
62 99 180
62 99 178
62 99 178
62 99 180
62 99 178
62 99 178
62 99 178
62 99 178
62 99 178
62 99 179
62 99 181
62 99 180
62 99 179
62 100 181
62 99 179
62 99 180
62 99 177
62 99 177
62 99 177
61 98 176
61 98 178
62 99 179
62 99 180
62 99 178
62 99 179
62 99 179
61 99 176
62 99 177
63 100 181
62 99 177
62 99 178
62 99 180
63 100 180
62 99 177
61 98 174
62 99 176
63 100 180
63 99 179
62 99 179
62 99 179
62 99 179
62 99 176
62 99 179
62 99 173
63 99 177
61 98 176
61 98 176
61 99 177
62 99 179
61 98 175
62 99 178
62 99 178
62 98 175
62 99 177
62 98 175
62 99 178
62 99 180
62 99 178
61 98 178
62 99 179
62 99 179
62 99 179
63 99 175
62 99 178
62 99 177
62 99 180
62 99 177
63 99 177
63 100 180
63 100 180
62 99 176
62 99 176
63 99 178
62 99 180
62 99 179
62 99 178
62 99 180
61 98 173
62 99 176
62 99 176
62 99 176
63 99 175
61 98 174
61 99 176
62 99 178
63 99 176
61 99 179
62 99 174
62 99 179
62 99 175
62 99 174
62 99 176
62 98 175
62 99 171
62 99 176
63 99 174
62 99 175
62 99 176
62 99 176
64 100 175
62 99 174
62 99 168
62 99 174
63 99 177
62 98 172
63 100 176
62 99 172
62 98 175
62 98 171
62 99 174
61 98 170
62 99 173
61 98 171
62 98 172
63 99 174
62 99 170
63 99 172
61 98 176
62 98 171
62 99 174
62 98 169
63 99 176
62 98 168
62 98 168
61 96 159
61 98 169
63 99 174
61 98 171
62 98 170
61 97 167
62 98 169
61 97 166
61 96 164
61 97 166
61 96 157
61 96 163
60 95 160
59 93 162
59 93 154
58 84 132
58 77 111
63 72 71
70 74 52
61 63 44
62 66 45
62 68 49
73 76 54
68 74 56
75 79 56
81 85 60
85 88 62
89 93 64
83 87 62
84 88 61
85 89 62
101 103 71
89 93 64
97 101 67
94 98 69
115 116 75
100 103 67
108 110 73
114 115 77
116 117 77
118 118 74
111 113 71
125 125 79
132 131 85
126 126 82
123 123 80
126 126 82
132 132 82
138 137 85
142 140 86
137 134 83
142 140 86
140 138 87
134 133 77
148 145 89
145 142 88
149 145 87
151 148 88
156 152 89
150 147 82
152 149 88
153 149 87
150 147 87
161 156 94
157 153 93
152 149 89
161 156 92
165 160 96
160 156 91
164 159 95
160 155 88
160 155 91
164 160 95
161 157 93
160 155 91
168 163 90
166 161 90
168 162 94
168 163 92
167 161 95
163 159 93
170 163 90
168 163 94
171 165 94
173 167 98
169 162 93
168 163 90
173 167 97
172 165 93
171 164 95
165 160 87
169 164 94
174 168 96
171 164 94
173 166 94
167 162 88
168 162 89
171 165 91
173 166 97
165 159 86
169 163 89
172 165 94
170 164 91
172 164 92
169 163 89
173 166 89
173 166 92
168 161 89
169 162 88
171 163 96
169 162 90
171 164 92
174 167 98
168 162 87
164 158 84
166 159 90
171 165 91
163 157 80
163 157 83
162 156 80
163 156 85
163 157 88
160 154 82
156 152 78
168 161 90
161 154 80
164 157 83
169 162 88
166 159 84
161 154 75
153 148 79
155 148 80
155 150 76
156 149 75
162 155 81
149 143 65
150 145 71
152 146 68
152 145 70
156 150 75
156 149 75
148 142 70
143 138 65
146 140 72
146 139 71
143 138 68
151 147 69
147 144 61
140 138 61
144 146 52
147 152 48
155 163 41
151 159 36
152 164 32
164 179 34
155 170 25
167 185 32
170 190 11
168 191 0
169 190 16
173 196 0
174 197 0
169 193 0
173 197 0
174 197 0
173 195 0
175 198 0
171 193 0
171 195 0
175 198 0
169 193 0
173 197 0
174 198 0
172 195 0
172 195 0
173 197 0
173 197 0
173 195 0
175 198 0
171 195 0
170 194 0
173 195 0
171 195 0
173 196 0
173 196 0
173 196 0
173 196 0
172 195 0
173 196 0
172 195 0
173 195 0
171 195 0
172 196 0
173 196 0
174 196 0
171 194 0
174 197 0
171 194 0
173 197 0
173 196 0
169 192 0
173 195 0
170 193 0
172 195 0
171 195 0
172 196 0
172 194 0
173 195 0
172 196 0
172 194 0
171 195 0
172 196 0
171 193 0
171 195 0
172 195 0
170 194 0
170 193 0
169 192 0
171 194 0
169 192 0
172 195 0
170 194 0
171 194 0
170 193 0
169 193 0
169 192 0
171 195 0
170 194 0
169 193 0
171 195 0
171 195 0
171 194 0
173 196 0
167 191 0
172 196 0
170 194 0
172 196 0
169 192 0
171 194 0
169 192 0
169 192 0
172 195 0
171 195 0
170 194 0
173 196 0
169 191 0
169 193 0
171 194 0
170 194 0
169 193 0
164 188 54
129 155 120
90 120 163
62 99 176
62 99 177
62 99 177
63 99 176
62 99 179
63 99 176
62 99 177
62 99 178
62 99 180
62 99 180
62 99 180
62 99 178
62 99 177
62 99 180
62 99 179
62 99 177
62 99 177
62 99 181
62 99 178
62 99 177
62 99 181
62 99 178
62 99 179
62 99 178
62 99 179
62 99 177
63 100 181
62 99 178
62 99 176
62 99 179
63 100 180
63 100 181
62 99 178
62 99 177
62 99 179
62 99 176
62 99 179
62 99 178
62 99 179
62 99 179
62 99 180
62 99 176
62 99 176
62 99 177
62 99 179
63 100 181
61 99 178
62 99 176
62 99 178
61 98 179
61 98 175
63 100 179
62 99 179
62 99 179
62 99 178
62 99 178
62 99 180
62 99 177
62 99 175
62 99 176
61 99 180
62 99 177
62 99 177
62 99 177
62 99 175
62 99 176
62 99 176
61 98 176
63 99 178
62 98 174
62 99 178
62 99 177
62 99 177
62 99 176
62 99 176
62 99 177
62 99 178
61 98 178
62 99 177
62 99 175
62 99 178
62 99 176
62 99 173
62 99 180
62 99 174
62 98 172
62 99 180
61 98 172
62 99 174
62 99 178
62 99 180
62 99 174
62 99 175
62 99 175
62 99 179
62 99 176
61 98 174
63 99 176
62 99 175
62 99 174
63 100 180
62 99 177
61 98 168
62 99 174
62 99 178
61 98 171
62 99 179
61 98 172
62 99 175
63 100 179
61 98 174
61 98 175
62 99 172
62 99 175
61 98 174
62 99 173
62 99 171
62 99 177
62 99 175
63 100 176
62 99 176
61 98 173
62 99 173
62 99 176
62 98 171
62 99 167
62 98 173
63 100 171
63 99 174
62 99 172
62 98 166
62 98 172
62 98 171
62 99 176
61 98 172
62 98 165
62 99 175
62 98 169
62 98 171
62 99 170
61 98 169
61 97 168
61 98 171
62 98 166
62 98 169
62 98 169
62 98 166
62 98 168
62 98 170
62 98 168
61 97 167
62 98 165
61 96 163
61 97 166
61 97 164
62 98 168
59 95 160
61 96 165
60 95 156
61 95 159
59 92 153
59 93 155
62 92 143
62 81 116
67 77 80
70 77 72
63 68 52
68 73 53
71 75 52
81 83 54
69 73 52
66 71 51
66 72 50
78 84 57
82 84 56
86 90 62
86 90 62
100 102 68
77 83 58
96 99 66
95 98 66
109 110 71
106 108 71
105 106 69
96 100 67
119 120 79
124 123 76
119 119 75
114 115 70
115 116 71
121 121 79
137 136 81
130 129 79
132 131 84
126 125 80
139 138 87
144 142 89
140 138 85
140 137 80
142 139 87
140 138 77
143 141 85
135 134 82
141 138 86
147 144 92
146 143 88
147 145 87
157 153 89
156 153 89
152 149 84
153 150 88
159 155 92
163 158 92
160 156 88
163 158 92
161 155 91
160 157 84
164 159 95
166 161 94
166 160 98
160 156 84
168 162 94
165 159 95
166 159 92
171 165 98
172 165 97
168 162 93
166 161 95
170 164 98
163 158 88
172 166 96
163 158 89
173 167 97
172 167 95
169 163 93
170 164 91
167 161 93
172 165 90
172 166 90
171 164 91
172 165 87
172 166 94
170 164 94
170 164 91
167 161 90
165 160 83
175 168 95
170 163 87
171 165 88
168 162 87
168 161 87
169 163 88
170 163 91
165 159 87
174 167 97
168 163 93
167 161 86
167 161 90
169 162 95
163 157 87
167 161 91
169 162 87
164 158 83
161 156 84
166 160 86
167 160 86
163 157 82
163 157 86
169 161 87
159 152 84
158 152 79
156 151 77
167 159 83
162 156 81
158 152 80
166 159 80
160 153 80
152 145 74
151 145 75
154 147 73
157 150 80
148 142 73
147 142 70
149 142 74
145 139 70
151 144 71
149 142 72
149 143 70
144 138 69
150 144 69
146 139 66
141 135 64
137 131 64
140 137 61
133 131 49
147 148 63
145 146 56
150 156 52
148 157 36
158 168 45
154 167 37
162 177 25
162 180 30
164 183 25
168 187 19
171 194 0
170 190 0
173 195 0
172 196 0
172 196 0
173 196 0
170 194 0
170 193 0
174 197 0
171 195 0
172 195 0
174 197 0
172 195 0
174 198 0
171 194 0
171 194 0
169 193 0
173 196 0
172 196 0
173 196 0
171 195 0
175 198 0
172 196 0
173 196 0
173 196 0
170 194 0
169 192 0
170 194 0
171 195 0
171 195 0
171 194 0
171 194 0
170 194 0
173 196 0
170 194 0
171 194 0
171 194 0
171 194 0
172 196 0
172 195 0
173 196 0
172 195 0
174 197 0
172 195 0
172 195 0
173 197 0
171 194 0
167 191 0
171 194 0
174 197 0
172 195 0
171 195 0
172 196 0
167 191 0
171 195 0
172 196 0
169 192 0
171 195 0
171 195 0
172 196 0
168 191 0
170 193 0
169 192 0
170 194 0
171 194 0
170 193 0
170 193 0
170 194 0
173 197 0
169 192 0
169 192 0
170 194 0
167 191 0
173 196 0
168 192 0
167 191 0
171 194 0
172 195 0
171 194 0
173 197 0
171 194 0
169 192 0
175 198 0
172 194 0
169 193 0
169 192 0
175 197 0
169 193 0
170 193 0
170 194 0
170 193 0
169 191 25
150 174 90
115 141 140
73 106 171
62 99 179
63 100 178
63 99 179
62 99 176
62 99 178
62 99 177
62 99 177
63 100 179
62 99 179
63 99 180
62 99 179
62 99 179
62 99 178
62 99 177
62 99 179
62 99 180
62 99 178
62 99 178
62 99 177
62 99 179
61 98 177
62 99 179
62 99 177
62 99 178
62 99 181
62 99 179
62 99 177
62 99 181
62 99 178
62 99 179
62 99 176
62 99 179
61 98 175
62 99 178
62 99 177
61 98 176
63 99 177
62 99 177
62 99 179
62 99 177
62 99 178
62 99 181
62 99 178
62 99 179
62 99 176
62 99 178
62 99 179
62 99 179
62 99 177
63 100 180
62 99 179
62 99 178
62 99 177
62 99 179
62 99 175
62 99 178
62 99 176
62 99 175
62 98 174
61 99 178
62 98 174
61 98 176
61 98 178
62 99 178
62 99 178
62 99 180
62 99 174
62 99 176
63 99 177
62 99 173
62 99 177
62 99 177
62 99 175
62 99 178
62 99 179
62 99 176
63 100 181
62 99 177
63 99 177
63 99 177
62 99 175
62 99 176
62 99 177
62 98 173
61 98 172
62 99 178
62 99 178
62 99 178
62 99 177
62 99 177
62 99 174
62 99 174
62 99 177
62 99 179
62 99 178
62 99 174
62 99 177
62 99 175
62 99 174
62 99 170
62 99 178
63 99 177
62 99 175
62 99 174
61 98 174
61 99 177
61 98 171
62 99 174
62 99 175
62 99 173
62 99 176
62 99 176
62 99 178
62 99 173
62 99 175
63 99 178
62 99 175
62 99 171
61 98 171
61 98 175
63 100 174
62 99 178
62 99 175
62 99 174
62 99 175
63 100 177
62 99 174
63 99 180
62 98 170
61 98 167
62 99 173
61 98 168
63 99 177
61 98 174
62 98 169
62 98 173
62 99 169
62 98 171
62 99 175
62 98 171
62 99 172
62 98 166
62 99 174
62 99 172
63 99 175
61 97 171
62 98 169
62 98 167
63 99 171
61 97 167
61 97 163
60 96 170
61 97 169
62 97 168
61 97 165
61 96 162
61 96 161
61 97 164
61 97 167
61 96 162
61 96 157
60 95 159
58 90 147
66 90 135
57 77 107
68 74 63
51 58 50
51 58 41
55 61 47
67 73 55
67 71 48
74 79 55
69 76 54
70 75 53
85 88 63
86 90 62
95 98 65
84 88 63
88 92 62
96 98 69
96 100 68
91 94 63
108 108 72
103 105 68
106 108 72
108 111 71
120 120 78
118 119 70
116 118 73
123 123 74
125 125 76
123 122 77
128 126 79
124 123 75
142 139 81
132 131 80
124 124 77
137 135 78
136 135 82
145 142 85
139 137 85
130 131 82
145 142 86
147 144 87
153 149 91
145 143 85
151 147 84
150 146 85
153 149 85
148 145 83
159 154 89
165 159 89
150 146 84
154 150 86
153 150 81
160 155 94
165 159 95
159 155 82
163 158 91
164 158 92
161 156 88
161 156 89
174 167 98
166 160 90
165 160 90
167 161 91
170 164 96
170 163 92
170 164 88
172 165 91
164 159 90
169 163 99
170 164 96
169 164 90
168 162 93
170 165 95
164 159 86
172 165 96
170 164 87
167 161 86
169 163 85
174 168 97
169 163 91
172 165 96
171 165 90
172 165 94
167 161 85
164 158 87
163 159 85
175 168 95
167 161 85
171 165 92
166 161 83
167 161 88
170 163 86
172 165 93
165 159 85
166 161 86
165 159 84
169 162 84
168 161 90
160 154 80
163 157 84
166 159 86
168 161 80
166 159 84
165 159 85
166 159 87
161 155 85
161 156 81
163 157 81
156 150 76
158 152 79
157 151 80
158 151 76
160 153 70
158 152 75
157 150 80
159 152 79
157 150 76
159 153 75
151 145 79
157 151 77
154 148 75
156 149 75
149 144 75
148 142 68
144 139 63
142 136 66
154 148 75
142 136 68
140 134 66
142 135 63
144 138 64
141 143 48
151 152 57
148 152 41
154 161 51
147 155 45
152 165 39
157 170 39
160 177 25
165 182 32
166 184 25
165 185 11
168 190 0
173 196 0
172 196 0
172 195 0
171 195 0
173 196 0
174 198 0
172 196 0
171 196 0
172 196 0
169 192 0
169 193 0
172 195 0
174 197 0
173 197 0
172 195 0
172 195 0
171 194 0
173 196 0
173 196 0
173 196 0
173 196 0
172 196 0
175 198 0
170 194 0
173 196 0
172 195 0
172 195 0
172 196 0
173 196 0
172 196 0
173 196 0
171 195 0
172 196 0
171 195 0
171 194 0
170 194 0
173 196 0
171 194 0
171 195 0
169 193 0
173 197 0
172 195 0
170 193 0
171 195 0
169 193 0
173 197 0
169 193 0
170 194 0
173 197 0
169 191 0
167 190 0
171 194 0
171 195 0
170 193 0
171 194 0
172 195 0
171 193 0
171 195 0
174 197 0
171 194 0
170 192 0
173 195 0
171 195 0
173 196 0
172 195 0
172 195 0
171 193 0
171 194 0
170 193 0
168 192 0
170 194 0
170 194 0
169 193 0
171 192 0
170 194 0
171 194 0
173 196 0
173 197 0
174 197 0
168 191 0
169 193 0
171 194 0
170 193 0
166 190 0
170 193 0
171 194 0
170 193 0
170 194 0
168 191 0
170 194 0
161 184 40
142 167 103
98 127 158
65 100 176
63 100 180
62 99 179
62 99 177
62 99 176
63 100 179
63 100 179
62 99 178
63 100 179
62 99 178
63 100 178
62 99 179
62 99 180
62 99 179
62 99 180
62 99 180
62 99 176
62 99 179
62 99 180
62 99 179
61 98 174
62 100 181
62 99 181
62 99 177
62 99 179
62 99 181
62 99 179
62 99 177
62 99 177
62 99 175
63 100 181
62 98 175
62 99 177
62 99 177
63 99 177
61 98 178
62 99 178
62 99 178
62 99 181
62 99 178
62 99 178
62 99 180
62 99 179
61 98 174
62 99 178
61 98 176
62 99 179
62 99 178
62 99 177
62 99 178
62 99 180
62 99 175
62 99 177
62 99 179
62 99 176
62 99 177
62 99 177
62 99 177
62 99 178
62 99 179
62 99 180
63 100 181
61 98 175
62 99 179
61 99 178
62 99 178
62 99 177
62 99 178
62 99 175
62 99 172
62 99 175
62 99 178
61 98 176
62 99 176
62 99 176
62 99 178
61 98 175
62 99 177
62 99 178
61 98 174
62 99 178
63 99 177
63 100 178
62 99 176
62 99 174
62 99 175
62 99 176
61 98 174
61 98 175
62 98 175
62 99 176
63 99 178
62 99 179
62 99 174
61 98 175
62 99 177
61 98 175
62 99 176
62 99 173
62 99 177
62 99 177
62 99 173
62 99 178
62 99 174
61 98 174
61 98 175
63 99 174
62 99 174
61 98 172
62 99 173
62 98 170
62 99 175
62 99 175
62 99 174
62 99 172
62 99 176
63 100 179
63 99 179
62 98 172
62 99 174
61 98 172
62 99 170
62 99 175
62 99 173
62 98 171
62 99 172
62 98 170
61 98 176
62 99 171
63 99 175
62 99 174
62 98 171
63 99 174
61 98 171
62 99 172
62 99 172
62 99 171
62 98 167
63 99 170
61 97 169
63 99 170
63 99 175
62 98 172
62 98 169
63 99 168
62 98 171
62 98 168
62 98 170
62 99 168
63 99 172
62 98 169
61 97 167
62 98 167
61 97 163
61 97 163
62 97 165
61 96 163
62 97 168
60 96 164
61 96 159
61 95 156
60 94 157
59 93 149
57 91 146
59 90 138
73 87 107
60 72 82
63 68 60
58 62 45
51 56 36
74 77 55
65 72 52
61 66 48
75 79 55
83 86 57
77 82 53
76 82 58
96 98 63
95 98 69
99 101 65
87 91 58
93 96 62
93 96 61
108 109 74
101 104 63
117 117 71
107 108 69
127 127 80
109 112 74
115 116 73
113 115 73
123 122 75
127 127 80
133 132 81
129 129 72
139 138 85
126 126 72
139 136 79
135 134 81
136 135 82
143 140 81
140 139 80
132 132 77
143 140 83
149 145 85
152 148 86
150 147 90
143 141 84
145 143 82
154 150 86
154 150 85
157 153 89
158 153 89
160 156 94
151 148 83
162 158 93
155 150 84
161 156 89
165 159 94
164 159 91
166 160 95
170 163 97
162 156 93
167 161 84
168 162 91
164 159 90
167 162 92
161 156 86
168 163 92
167 161 90
164 159 90
169 163 93
168 163 90
168 163 88
172 165 90
168 162 89
169 163 89
170 164 89
169 163 88
170 164 87
173 166 95
167 161 86
172 166 93
169 163 90
169 163 94
168 161 93
172 166 93
169 164 87
174 167 97
169 162 84
174 166 91
170 164 95
173 166 96
168 162 86
161 155 82
167 161 87
167 161 88
166 159 89
164 157 85
171 164 91
167 161 84
170 163 89
166 159 87
164 158 87
171 164 95
162 155 79
165 159 85
169 161 87
163 157 84
160 155 81
164 157 81
162 155 84
164 157 80
160 154 80
158 152 81
155 150 73
158 152 74
144 139 66
160 153 75
156 148 76
156 149 76
156 149 77
155 149 74
157 150 73
148 141 65
155 148 75
153 147 71
146 140 64
144 139 65
149 142 64
144 138 61
138 132 66
141 135 69
147 142 63
147 143 64
144 141 57
146 151 45
150 153 57
148 156 41
156 162 47
158 170 42
157 171 32
158 173 36
159 175 30
163 182 16
163 183 0
169 191 0
170 192 0
169 193 0
172 196 0
173 197 0
171 194 0
172 195 0
173 197 0
172 195 0
172 195 0
172 195 0
175 197 0
172 197 0
172 195 0
171 194 0
173 197 0
173 196 0
173 197 0
172 196 0
170 193 0
172 196 0
170 193 0
171 195 0
171 194 0
172 195 0
173 196 0
171 193 0
173 197 0
171 194 0
173 196 0
173 196 0
172 196 0
171 195 0
172 197 0
172 195 0
172 196 0
174 197 0
171 195 0
171 194 0
170 194 0
169 192 0
171 193 0
174 197 0
173 196 0
171 195 0
173 197 0
169 192 0
172 195 0
173 196 0
170 193 0
171 195 0
168 192 0
170 194 0
173 196 0
171 195 0
169 193 0
171 194 0
170 193 0
172 196 0
172 194 0
167 191 0
167 191 0
171 195 0
170 194 0
170 193 0
171 195 0
166 188 0
172 196 0
172 195 0
173 196 0
169 193 0
174 197 0
170 194 0
167 191 0
172 195 0
170 193 0
168 191 0
174 197 0
170 194 0
173 196 0
170 193 0
171 193 0
167 191 0
168 191 0
171 195 0
166 189 0
171 194 0
169 192 0
169 192 0
171 194 0
169 193 31
155 179 70
124 150 126
83 115 166
64 100 179
63 100 177
64 100 179
62 99 179
63 100 178
63 99 178
62 99 180
62 99 179
63 100 178
62 99 177
62 99 174
63 99 179
62 99 180
62 99 178
62 99 179
62 99 181
63 99 179
62 99 178
62 99 177
62 99 176
62 99 179
62 99 179
62 99 178
62 99 177
61 98 176
62 99 178
62 99 180
62 99 181
62 99 180
62 99 180
62 99 179
62 99 177
62 99 180
62 99 181
62 99 178
62 99 179
62 99 178
62 99 179
62 99 177
62 99 179
63 100 179
62 99 177
62 99 177
61 98 177
63 99 179
62 99 176
62 99 180
61 99 178
63 100 180
62 99 177
62 99 180
62 99 174
62 99 178
62 99 178
62 100 181
63 99 177
62 99 179
62 99 180
62 99 175
62 99 177
62 99 179
62 99 178
63 99 180
62 99 178
61 98 173
63 100 178
62 99 180
62 99 177
62 99 178
62 99 176
62 99 179
62 99 178
62 99 177
63 100 179
62 99 175
62 99 178
62 99 177
62 99 176
62 99 175
62 99 174
63 100 178
61 98 171
61 99 177
61 98 169
62 99 179
62 99 177
62 99 172
62 99 173
62 99 177
62 99 177
62 99 176
61 98 175
61 98 176
62 99 178
62 99 175
61 98 176
63 99 177
62 99 174
62 99 175
62 99 175
63 99 177
62 98 172
61 98 175
63 99 178
62 99 176
62 98 172
62 99 173
62 98 171
62 99 172
62 99 170
62 99 175
62 99 175
62 99 172
62 99 171
62 98 172
61 98 169
61 98 172
62 99 178
62 99 174
62 98 172
62 99 175
62 99 173
62 98 173
62 99 171
62 99 172
63 100 177
62 99 175
62 99 171
62 99 170
62 98 170
62 99 174
62 99 175
62 99 172
63 100 178
63 99 178
62 99 170
62 99 171
62 98 170
62 99 171
62 98 170
62 98 170
62 98 171
62 98 170
62 98 165
63 99 174
62 98 172
61 97 166
62 99 166
62 99 175
62 98 168
61 97 162
62 98 170
62 98 164
60 96 159
62 97 166
61 96 165
61 97 167
60 96 166
59 95 160
62 98 166
61 96 166
61 95 162
60 95 152
60 94 158
59 92 149
57 83 122
53 71 99
59 67 67
64 69 51
54 59 38
67 71 50
74 77 56
72 76 50
81 84 55
73 76 53
68 75 53
93 95 60
89 93 58
90 92 61
87 92 60
93 95 60
93 97 61
89 92 62
98 100 66
106 108 70
98 99 62
111 111 69
123 123 80
109 111 70
114 115 72
110 112 70
123 122 72
118 117 71
133 131 83
123 123 80
130 128 74
137 137 82
133 131 80
130 128 80
130 129 71
141 138 81
138 136 77
140 138 83
142 140 81
149 146 86
148 145 86
144 141 81
148 145 85
146 142 82
150 147 84
155 151 92
150 147 84
153 149 88
156 151 89
164 159 85
159 155 90
151 147 85
163 158 90
156 152 88
159 155 87
168 162 95
166 160 90
166 160 91
156 152 88
169 163 96
166 160 92
162 158 90
166 161 91
165 159 87
165 160 90
167 162 94
167 162 99
169 163 90
169 162 96
168 162 90
167 161 89
172 165 90
168 162 88
165 160 78
169 163 87
170 164 88
171 165 90
169 163 90
173 165 93
167 161 85
173 166 89
168 162 86
169 163 88
166 160 86
170 163 90
171 165 93
169 163 90
171 164 86
172 165 89
161 155 83
172 165 93
169 161 87
163 157 83
166 160 86
166 160 86
163 157 79
159 154 80
167 160 87
160 154 82
171 163 90
164 157 84
163 156 84
161 154 87
159 154 73
168 160 89
161 155 84
166 159 83
165 158 85
162 156 83
157 150 75
160 154 79
156 151 74
152 146 75
156 151 77
159 152 77
154 147 70
156 150 75
160 153 80
156 150 76
150 144 68
152 146 74
156 150 76
150 143 70
144 138 64
134 128 56
148 141 65
146 142 64
132 126 57
141 137 62
142 137 58
146 146 57
145 149 52
141 145 41
145 154 39
154 161 44
158 172 36
155 168 28
159 172 41
158 177 19
158 177 11
169 189 22
167 187 16
173 195 0
170 194 0
171 195 0
172 196 0
174 196 0
174 197 0
172 196 0
172 196 0
170 195 0
171 195 0
174 197 0
175 198 0
172 196 0
169 192 0
174 197 0
172 196 0
174 196 0
173 195 0
172 196 0
172 195 0
174 198 0
173 196 0
172 195 0
172 195 0
172 196 0
172 196 0
174 197 0
170 194 0
170 193 0
172 195 0
172 196 0
169 193 0
171 194 0
173 196 0
170 194 0
170 193 0
171 194 0
171 195 0
172 195 0
173 196 0
172 195 0
171 194 0
170 194 0
173 196 0
172 196 0
170 194 0
170 193 0
171 194 0
173 196 0
172 195 0
173 196 0
168 192 0
170 194 0
172 195 0
172 195 0
172 196 0
171 194 0
173 197 0
172 195 0
171 196 0
169 193 0
173 196 0
172 195 0
170 192 0
169 192 0
169 192 0
173 195 0
170 192 0
168 192 0
169 193 0
173 196 0
168 191 0
167 190 0
169 192 0
170 193 0
173 196 0
171 195 0
170 193 0
168 190 0
168 191 0
171 194 0
170 193 0
170 193 0
171 194 0
173 196 0
169 193 0
168 191 0
170 193 0
168 191 0
168 191 36
154 179 80
117 145 140
69 104 174
62 99 175
63 100 179
63 100 177
63 100 180
63 99 178
62 99 179
62 99 179
62 99 176
62 99 177
62 99 178
63 100 179
62 99 179
62 99 177
62 99 179
62 99 178
62 99 176
61 99 177
62 99 175
62 99 177
62 99 179
62 99 176
62 99 180
62 99 178
61 98 174
62 99 180
62 99 176
62 99 180
62 99 179
63 99 179
62 99 179
63 100 180
62 99 178
62 99 178
62 99 176
62 98 175
62 99 179
62 99 177
62 99 175
62 99 177
62 99 178
62 99 175
62 99 174
62 99 178
62 99 179
62 98 174
62 99 175
62 99 180
61 99 180
62 99 175
62 99 177
62 99 177
62 99 179
62 99 178
62 99 177
62 99 175
62 99 177
63 99 177
62 99 177
62 99 177
62 99 178
63 100 181
62 99 174
62 99 179
62 99 177
61 98 176
62 99 178
61 98 174
62 99 178
62 99 178
62 99 178
62 99 178
63 99 177
62 99 178
62 99 177
62 99 175
62 99 173
63 99 179
62 99 175
62 98 175
62 99 178
62 99 173
62 98 174
62 99 176
62 99 178
62 99 178
62 99 176
62 99 176
62 99 175
62 99 175
62 99 179
61 98 176
62 99 177
62 99 175
62 98 171
61 98 174
63 99 179
62 99 177
62 99 173
62 99 178
62 99 174
62 99 177
62 99 174
62 99 171
62 99 180
62 99 176
62 99 175
61 98 172
62 99 173
62 99 172
62 99 174
63 99 173
62 99 175
62 99 177
62 99 177
63 99 176
62 99 177
61 98 172
63 99 175
62 99 172
62 99 176
62 99 173
62 99 177
62 99 174
62 99 173
62 99 175
62 99 172
62 98 168
62 99 176
61 98 168
62 99 173
61 98 170
62 99 170
62 99 170
62 98 169
61 98 170
62 99 174
62 99 173
62 99 173
63 99 172
62 99 174
62 99 173
62 99 170
61 97 164
62 98 167
62 98 169
63 99 172
61 98 171
62 98 163
61 97 162
62 98 169
62 98 171
62 97 163
63 98 167
63 99 168
63 98 167
62 98 170
61 96 161
60 95 155
62 98 168
61 96 165
61 96 155
61 96 160
59 93 150
60 94 153
59 93 157
59 87 140
54 74 103
56 68 73
57 64 53
55 62 44
54 62 48
73 76 49
70 76 51
69 75 51
74 77 53
74 77 48
80 85 59
89 93 60
81 85 57
80 84 52
92 96 59
96 99 64
99 101 61
98 101 67
93 96 61
119 119 75
113 114 74
110 111 68
116 116 73
127 127 77
117 118 74
108 110 71
115 116 71
133 132 80
129 128 79
137 134 81
122 122 77
134 132 81
138 135 82
126 126 78
134 132 75
139 137 75
134 132 78
147 144 81
136 134 75
148 144 84
146 142 86
152 148 82
152 148 85
146 143 83
147 145 82
157 153 88
153 149 84
150 147 88
156 152 93
154 149 85
165 159 89
159 154 86
157 152 86
158 153 83
161 156 84
162 156 86
155 151 81
163 158 86
163 158 86
162 157 82
164 159 86
160 156 90
165 160 89
168 161 92
164 160 84
167 162 93
173 167 94
168 161 89
169 163 92
168 162 86
169 161 92
167 160 86
167 161 84
169 163 82
165 160 87
167 161 82
173 166 90
170 163 90
171 164 87
170 163 91
170 163 92
170 164 89
170 164 90
173 166 85
169 163 92
167 160 88
167 160 85
170 162 88
163 158 86
169 162 85
167 161 87
167 160 89
171 164 89
168 160 90
159 153 79
168 162 89
157 151 77
161 154 80
162 157 78
170 163 87
161 155 82
160 153 84
157 151 77
164 158 78
160 153 81
167 159 88
164 158 84
160 153 77
159 153 76
162 155 82
160 153 76
157 151 75
159 153 77
155 149 76
155 149 67
151 146 70
150 143 69
149 143 67
142 135 62
152 145 70
147 142 67
145 140 66
145 140 65
147 141 69
142 136 59
134 129 61
136 130 54
146 142 61
142 141 54
141 142 48
132 137 44
149 152 49
151 158 42
159 171 39
158 171 28
155 170 34
162 179 28
164 180 25
169 190 19
168 189 0
168 190 0
172 195 0
172 195 0
170 194 0
170 193 0
174 197 0
171 194 0
169 193 0
169 193 0
169 193 0
173 196 0
173 196 0
174 197 0
172 196 0
174 196 0
173 196 0
172 195 0
173 196 0
172 195 0
174 197 0
171 195 0
171 195 0
172 196 0
171 194 0
172 196 0
170 193 0
172 196 0
170 194 0
175 198 0
173 196 0
172 196 0
174 197 0
173 196 0
169 193 0
171 194 0
172 196 0
170 194 0
171 194 0
170 194 0
173 196 0
173 196 0
170 193 0
172 196 0
172 196 0
171 195 0
168 192 0
171 194 0
172 195 0
170 194 0
174 197 0
172 195 0
172 196 0
171 194 0
172 196 0
172 194 0
169 193 0
172 195 0
172 196 0
170 194 0
171 195 0
172 195 0
172 194 0
173 197 0
169 192 0
170 194 0
171 194 0
171 193 0
172 195 0
169 194 0
169 193 0
170 193 0
172 195 0
170 193 0
175 197 0
172 195 0
166 190 0
170 193 0
171 195 0
173 195 0
170 193 0
171 194 0
167 191 0
169 191 0
174 197 0
169 192 0
169 194 0
170 193 0
167 190 0
170 193 0
170 192 0
161 184 60
137 162 107
83 114 162
63 100 178
63 100 180
63 99 176
63 99 174
63 100 178
62 99 175
63 100 178
62 99 180
62 99 178
62 99 178
62 99 178
63 100 179
62 99 178
62 99 177
63 100 179
62 99 179
62 99 177
62 99 177
62 99 180
62 99 173
62 99 178
62 99 180
62 99 179
61 98 176
62 99 176
62 99 178
62 99 179
62 99 178
62 99 179
62 99 179
61 99 178
61 98 177
62 99 179
61 99 178
62 99 178
62 99 180
63 100 179
62 99 180
62 99 177
62 99 179
62 99 178
62 99 177
62 99 176
62 99 179
62 99 176
62 99 179
62 99 177
62 99 175
62 98 173
62 99 177
62 99 180
62 98 174
62 99 177
62 99 176
62 99 174
62 99 178
62 98 172
62 99 177
62 99 178
62 99 179
63 100 179
62 99 176
62 99 177
62 99 175
62 99 180
62 99 178
62 99 175
62 99 178
62 99 177
62 99 172
62 99 175
62 99 176
63 100 179
62 99 174
62 99 176
62 99 178
63 99 175
63 99 175
62 99 175
62 99 177
62 99 180
62 98 172
62 99 175
62 99 175
62 99 176
62 99 177
62 99 173
62 99 174
62 99 175
62 99 178
62 99 181
62 99 178
61 98 170
62 99 179
62 99 174
62 99 176
62 99 175
62 99 176
62 99 178
62 99 173
62 99 175
62 99 175
62 98 165
62 99 176
63 100 178
62 99 175
62 99 177
62 99 180
62 99 172
62 99 173
62 99 174
62 99 178
62 99 177
61 98 172
62 99 173
61 98 171
63 99 177
62 99 178
63 99 169
62 99 173
63 100 177
62 99 173
62 99 175
63 99 174
62 98 173
62 99 172
62 99 173
62 99 171
62 99 173
62 99 175
62 98 167
62 99 172
61 98 168
61 98 166
62 98 169
62 98 172
62 98 169
62 99 167
62 98 172
61 98 172
61 97 167
62 99 174
62 98 168
61 97 164
63 99 171
62 99 172
62 98 170
62 98 172
62 99 173
62 97 162
61 97 162
61 97 166
62 98 170
62 97 162
61 97 165
62 98 168
61 96 161
61 97 163
61 97 163
61 96 164
61 96 163
61 96 160
61 96 163
60 95 162
61 94 157
60 94 155
58 90 144
53 76 107
55 71 85
54 58 45
57 62 42
67 73 52
66 70 44
63 67 45
74 80 55
72 77 50
72 78 54
85 88 54
71 77 54
84 88 58
87 89 56
88 91 58
88 92 62
95 98 65
93 96 60
94 96 64
103 105 66
109 110 69
114 115 71
108 109 65
108 111 71
112 112 64
114 113 69
114 115 71
134 132 77
125 125 78
134 133 77
125 125 73
135 133 78
137 135 79
138 136 78
137 135 83
142 140 76
141 138 77
135 132 77
144 141 77
145 141 79
148 146 84
150 147 82
152 148 81
150 146 81
147 144 84
154 150 87
157 152 87
165 159 84
162 156 88
159 154 88
156 151 84
159 154 84
155 151 82
163 158 91
155 152 83
160 155 83
164 158 88
161 156 87
159 154 85
159 155 83
163 158 90
167 161 90
165 160 84
167 162 90
164 158 81
167 161 95
169 163 91
167 161 87
166 161 82
166 160 88
164 159 83
170 164 89
168 162 88
171 165 88
168 162 86
167 161 87
165 159 81
167 162 84
166 161 85
169 162 88
168 161 84
171 164 88
171 164 89
168 161 86
168 162 84
170 163 90
172 166 93
165 159 88
168 161 84
168 161 84
167 160 85
166 159 88
172 164 86
167 160 88
168 161 79
168 161 82
163 157 81
168 160 81
165 159 87
166 159 84
164 158 77
160 153 79
153 148 76
157 152 74
161 155 84
161 155 82
155 148 76
158 152 71
153 146 78
158 152 74
152 146 78
157 150 81
155 148 78
154 147 71
155 149 69
156 150 78
148 142 65
148 142 69
154 149 68
152 146 74
149 143 69
155 148 67
144 138 70
145 139 62
143 137 61
141 135 68
147 141 62
144 140 61
142 141 54
130 132 42
147 154 49
151 155 47
146 152 37
150 160 37
158 171 34
157 172 25
166 182 34
164 181 22
162 181 11
169 191 0
173 195 11
172 193 0
173 196 0
170 194 0
172 196 0
173 196 0
171 194 0
173 197 0
171 195 0
173 196 0
171 195 0
173 197 0
173 196 0
169 193 0
172 196 0
174 196 0
174 196 0
174 196 0
171 194 0
172 196 0
173 197 0
171 194 0
172 196 0
170 194 0
175 198 0
172 195 0
171 195 0
172 195 0
174 197 0
172 196 0
173 197 0
172 194 0
172 195 0
172 195 0
173 196 0
170 193 0
173 196 0
172 195 0
171 194 0
172 196 0
172 195 0
172 195 0
169 194 0
174 197 0
172 195 0
171 195 0
170 194 0
170 193 0
171 195 0
172 195 0
170 194 0
171 195 0
171 194 0
173 196 0
173 196 0
171 194 0
171 194 0
173 196 0
173 196 0
172 196 0
168 192 0
169 193 0
168 192 0
171 194 0
173 196 0
170 193 0
171 193 0
169 193 0
170 193 0
170 193 0
167 191 0
173 196 0
170 194 0
169 192 0
172 195 0
166 189 0
171 194 0
163 186 0
171 194 0
170 193 0
174 198 0
165 188 0
170 194 0
172 194 0
164 187 0
170 194 0
169 192 0
171 195 0
170 194 0
168 191 18
157 180 72
124 150 133
74 108 172
63 100 180
63 100 177
63 100 179
63 100 178
63 99 175
62 99 177
62 99 174
62 99 179
63 100 180
62 99 178
62 99 179
62 99 175
63 99 177
63 100 179
62 99 178
63 100 181
62 99 178
62 99 179
62 99 180
62 99 177
62 99 178
63 100 180
63 100 176
63 99 176
62 99 178
62 99 176
62 99 179
62 99 176
62 99 178
62 99 179
62 99 176
62 99 179
62 99 178
61 98 179
62 99 176
61 98 178
62 99 174
62 99 180
62 99 179
63 100 179
62 99 177
62 99 178
62 99 176
62 99 175
62 98 175
62 99 175
62 99 178
62 99 179
62 98 175
62 99 178
62 99 180
63 100 179
62 99 179
62 99 176
62 99 176
62 99 179
62 99 176
61 98 177
62 99 177
63 100 178
61 98 176
61 98 176
62 99 178
62 99 176
62 98 176
61 98 178
62 98 174
62 99 177
62 99 176
62 99 173
62 99 179
62 99 181
62 99 177
62 99 173
63 99 176
62 99 180
62 99 174
62 99 178
62 99 175
62 99 176
62 99 173
62 99 179
63 99 178
62 99 173
61 98 175
63 100 180
62 99 172
62 99 174
62 99 177
61 98 177
62 99 177
63 100 176
62 99 173
62 99 177
62 98 175
63 100 179
62 99 173
62 99 178
62 98 168
62 98 168
62 98 170
63 99 178
63 99 173
62 99 175
61 98 167
63 99 176
63 99 177
62 99 174
63 99 173
63 100 178
62 98 174
63 100 178
62 99 176
62 99 172
61 98 172
62 99 173
62 99 174
63 99 176
63 99 171
63 99 173
63 99 176
62 99 178
62 99 177
61 98 169
62 99 173
62 99 175
62 99 174
62 98 168
61 98 167
63 99 174
62 99 175
62 99 171
62 98 172
63 100 177
62 98 171
62 99 170
62 99 173
62 99 176
62 98 164
61 98 166
62 98 170
62 99 171
62 99 174
63 100 174
61 98 170
61 97 166
62 98 168
62 98 168
62 98 167
61 98 166
62 98 170
62 98 162
61 97 166
61 97 161
62 98 170
61 97 166
62 97 161
61 96 161
61 96 164
61 96 162
60 95 159
61 97 164
61 97 162
61 96 158
59 93 147
58 91 144
57 89 142
62 83 117
47 67 94
49 59 61
51 58 48
60 66 45
58 64 44
63 69 49
55 61 45
73 78 54
70 74 46
74 78 54
70 76 49
80 84 58
74 79 50
91 93 59
88 91 56
96 99 63
105 106 66
96 100 65
106 107 67
114 116 75
105 107 64
112 113 68
130 129 76
109 110 69
112 113 68
125 125 79
128 127 79
123 122 71
128 127 70
142 139 80
136 134 81
135 133 73
133 131 77
138 136 78
135 133 75
140 137 78
144 141 83
142 140 83
146 143 83
141 138 82
140 137 74
149 145 78
150 147 78
154 150 86
153 149 82
158 153 86
149 146 84
155 151 87
157 153 90
155 150 84
161 156 84
159 155 86
157 153 87
163 156 87
160 155 83
157 153 88
164 158 89
169 163 87
158 153 87
165 159 84
162 157 84
171 164 94
166 160 84
164 158 88
166 160 81
168 161 89
168 161 82
165 160 87
166 160 87
165 159 81
169 162 85
169 163 90
166 161 87
166 161 86
166 161 86
171 164 90
172 164 87
168 162 81
170 163 89
167 160 85
167 160 79
166 160 83
166 160 84
169 163 87
165 158 84
166 159 86
167 161 80
163 157 79
167 160 84
167 161 81
166 158 82
161 155 77
163 155 82
159 153 80
167 160 86
159 154 75
163 156 83
163 157 77
157 151 73
167 160 87
165 158 75
162 156 75
160 154 80
158 151 75
155 149 76
156 150 75
148 142 68
164 156 85
151 145 73
156 149 71
162 155 80
156 149 72
145 138 68
156 151 69
154 148 68
154 147 74
146 140 61
156 149 79
142 134 64
150 144 63
142 136 59
149 143 61
137 133 53
146 140 61
142 137 63
137 131 61
140 137 53
138 139 54
144 144 52
151 153 58
152 162 41
158 167 44
155 165 41
156 172 16
157 171 28
161 180 16
168 187 22
169 189 11
167 189 0
170 192 0
171 192 0
170 194 0
174 196 0
171 194 0
173 196 0
172 196 0
176 198 0
172 195 0
169 192 0
172 195 0
173 196 0
174 197 0
171 195 0
170 194 0
173 196 0
170 193 0
172 195 0
174 197 0
172 195 0
171 195 0
171 195 0
169 192 0
171 194 0
171 195 0
170 194 0
172 195 0
170 194 0
174 198 0
173 196 0
169 193 0
171 194 0
167 191 0
170 194 0
168 191 0
170 194 0
169 192 0
171 194 0
173 197 0
171 195 0
172 196 0
171 195 0
173 195 0
170 193 0
169 192 0
172 196 0
173 196 0
172 195 0
170 194 0
172 195 0
166 190 0
171 194 0
166 190 0
168 192 0
169 192 0
172 196 0
171 195 0
172 194 0
172 196 0
167 191 0
170 194 0
168 192 0
171 193 0
172 195 0
170 193 0
170 194 0
171 196 0
169 192 0
167 190 0
169 193 0
168 191 0
172 194 0
172 195 0
172 195 0
168 192 0
168 192 0
171 195 0
170 193 0
168 192 0
171 193 0
172 196 0
171 195 0
173 196 0
170 193 0
169 193 0
171 194 0
172 195 0
168 191 0
172 195 0
164 187 47
145 169 94
95 125 154
65 101 179
64 100 177
63 100 177
63 100 179
63 100 180
63 100 180
63 100 178
62 99 178
62 99 176
63 100 178
62 99 178
62 99 175
62 99 177
62 99 175
62 99 176
61 98 170
62 99 176
62 98 174
62 99 176
62 99 178
62 99 176
62 99 178
63 100 179
62 99 177
62 99 175
62 99 173
62 99 178
62 99 175
62 99 180
62 99 178
62 99 175
62 99 177
61 98 172
62 99 177
62 98 176
62 99 176
61 98 176
62 99 180
62 98 179
62 99 177
62 99 177
62 99 177
61 98 175
62 99 175
62 99 175
62 99 177
62 99 174
62 99 176
61 98 175
62 99 177
62 99 174
61 98 176
61 98 175
62 99 178
63 99 174
62 99 178
62 99 178
61 98 175
62 99 175
62 99 175
61 98 177
62 99 179
62 99 177
62 99 176
62 98 175
62 99 177
62 99 177
61 98 174
62 99 177
63 99 177
62 99 178
62 99 172
63 99 178
62 99 179
62 99 179
62 99 173
61 98 176
62 99 176
62 99 175
62 99 173
62 99 179
63 99 174
62 99 173
62 99 178
62 99 171
62 99 174
62 99 178
62 99 174
62 99 174
61 98 174
62 99 175
62 99 175
63 100 175
61 98 177
62 99 176
62 99 176
62 99 178
62 99 178
62 99 179
62 99 174
62 99 175
62 99 171
61 98 171
62 99 171
62 99 173
61 98 168
62 99 172
62 99 173
62 99 175
62 99 172
62 98 174
62 99 178
62 99 174
63 99 173
61 98 172
62 99 175
63 99 171
62 98 169
63 99 174
63 99 173
62 98 170
62 99 171
62 98 169
62 99 175
62 98 170
62 99 172
61 98 165
62 99 171
62 98 172
62 98 171
62 98 168
63 99 173
62 98 167
62 99 168
62 99 172
62 98 167
62 98 168
62 99 171
62 99 170
63 99 174
61 98 168
61 98 170
62 99 173
62 98 169
63 99 172
62 99 169
62 98 164
62 98 170
62 99 173
62 98 168
63 99 169
62 98 162
63 99 166
61 97 166
62 98 164
61 97 165
61 97 166
62 98 166
61 97 167
62 97 164
61 96 162
61 96 162
61 95 162
60 95 158
61 96 157
60 94 151
60 95 158
60 94 151
59 89 140
55 76 108
44 60 80
59 65 53
56 61 39
56 61 43
66 72 46
66 69 45
61 68 47
66 71 43
62 68 43
81 85 51
85 86 54
78 82 46
66 71 45
93 97 57
88 91 58
88 91 61
96 99 62
112 113 70
98 99 60
104 106 68
105 104 65
114 115 62
107 108 64
122 121 71
123 123 74
127 125 72
119 120 74
130 129 77
125 124 75
123 121 66
137 136 79
135 133 74
134 133 78
139 137 81
135 134 72
140 137 79
143 140 79
141 139 74
146 144 84
148 144 82
146 144 84
151 147 82
151 147 87
156 153 82
153 149 83
154 150 87
151 147 82
163 158 93
152 148 86
158 153 85
152 149 82
160 156 88
159 155 84
156 152 86
164 158 88
163 158 83
159 154 83
162 157 79
163 158 86
162 156 84
164 159 89
167 161 80
163 158 83
170 163 91
167 161 83
166 160 88
169 162 92
171 164 87
170 163 92
164 159 82
163 157 81
171 165 88
171 165 85
169 163 86
172 165 92
169 163 83
169 163 87
171 165 88
174 167 95
168 162 85
170 163 91
168 161 87
163 157 81
162 157 82
169 162 92
166 159 80
170 164 88
167 160 83
166 159 84
162 156 75
163 156 79
161 155 77
166 159 81
164 156 80
160 154 79
155 150 76
166 159 77
160 154 80
163 156 77
155 149 78
156 150 75
159 153 74
164 158 81
159 154 78
158 152 71
159 153 77
165 158 80
157 152 70
155 148 70
157 151 72
156 149 73
147 141 68
151 145 67
158 152 70
154 148 67
147 142 66
145 139 65
145 138 67
138 133 62
146 140 63
146 139 65
147 141 59
140 134 59
132 127 56
142 138 61
137 139 48
143 142 59
145 152 37
152 157 49
145 148 49
141 152 30
159 172 36
163 176 32
163 178 28
164 184 0
160 180 16
168 189 11
171 192 0
170 190 0
172 192 0
171 194 0
173 197 0
168 192 0
173 197 0
171 194 0
169 193 0
170 193 0
171 194 0
174 197 0
170 193 0
173 196 0
171 195 0
173 196 0
171 194 0
173 196 0
173 196 0
175 198 0
173 197 0
172 195 0
174 196 0
173 197 0
171 195 0
171 194 0
171 194 0
171 195 0
171 195 0
170 194 0
172 196 0
172 196 0
172 195 0
169 192 0
169 192 0
172 196 0
169 191 0
173 196 0
171 194 0
171 195 0
170 193 0
173 196 0
171 194 0
169 193 0
169 192 0
167 190 0
168 192 0
171 195 0
174 197 0
173 195 0
170 193 0
171 194 0
172 195 0
173 197 0
172 195 0
172 195 0
170 194 0
174 197 0
174 197 0
170 193 0
172 195 0
169 192 0
167 190 0
172 195 0
168 192 0
171 194 0
171 193 0
170 193 0
170 193 0
173 196 0
169 192 0
171 194 0
171 194 0
173 196 0
167 189 0
173 197 0
167 190 0
166 190 0
171 195 0
168 191 0
170 193 0
168 191 0
166 189 0
169 193 0
173 195 0
165 188 0
165 188 0
171 194 0
169 193 0
170 192 0
160 183 57
144 168 108
86 118 167
63 100 179
63 100 179
63 99 176
63 100 180
63 100 177
62 99 179
63 100 178
63 100 179
63 100 178
62 99 175
62 99 179
62 99 178
61 98 176
62 99 175
62 99 178
62 99 179
62 99 179
62 99 179
61 98 175
62 99 178
63 100 177
62 99 175
62 99 178
63 99 178
62 99 177
61 98 171
62 99 176
62 99 178
62 99 178
62 99 179
62 99 175
62 99 179
62 99 178
63 99 177
63 99 178
62 99 175
63 99 178
62 99 177
62 99 176
61 98 178
62 99 175
62 99 180
62 99 178
62 99 178
62 99 175
62 99 176
61 99 181
62 99 178
62 99 175
62 99 175
62 99 175
62 99 177
62 99 177
62 99 175
62 99 177
61 98 177
62 99 174
62 98 174
62 99 176
62 99 178
62 99 177
63 100 180
62 99 177
61 98 175
62 99 177
62 99 178
62 99 174
62 99 176
62 99 177
62 98 173
62 99 180
63 99 176
62 99 177
61 98 174
63 100 179
62 99 174
62 99 173
62 99 173
62 99 167
62 99 176
63 99 178
62 99 175
62 99 174
62 99 175
62 99 178
62 99 177
62 99 175
63 99 175
62 98 172
62 99 178
62 99 174
61 98 172
62 99 173
63 99 178
62 99 173
62 99 171
62 99 170
62 99 178
62 99 178
62 99 172
63 99 176
62 99 171
62 98 171
62 99 176
62 99 176
61 98 172
62 99 174
62 99 174
62 99 170
63 99 173
62 99 171
62 99 175
63 99 174
62 98 169
62 98 168
62 99 174
62 99 172
62 98 173
62 99 172
63 99 175
63 99 172
63 99 172
62 98 161
61 98 171
62 98 174
63 99 175
63 99 172
62 99 173
62 99 175
62 99 168
62 99 170
61 98 166
63 99 174
62 98 166
63 99 173
62 99 170
61 98 162
62 99 173
62 99 173
62 99 173
62 99 172
62 98 170
61 97 168
62 98 171
62 98 166
63 99 167
62 98 166
62 98 167
61 96 161
60 96 160
62 97 166
63 100 171
62 98 167
62 98 171
61 97 162
61 96 160
61 97 164
62 98 161
61 96 158
63 98 169
61 97 163
62 98 171
61 96 160
61 96 157
61 97 163
60 93 155
60 94 156
61 96 160
66 94 137
56 80 121
46 64 86
48 57 58
45 53 35
52 59 39
58 63 40
64 68 43
76 79 49
85 88 54
72 77 49
76 80 50
78 82 54
85 90 61
82 85 52
87 90 57
86 90 59
84 87 57
89 93 53
103 104 63
99 101 60
100 103 63
109 109 63
113 114 71
114 115 68
103 105 64
132 130 74
125 123 73
121 120 69
114 114 66
116 117 66
125 124 72
124 124 67
134 132 72
131 130 73
130 130 74
149 145 82
141 138 79
140 137 78
139 136 81
140 137 78
143 140 82
139 136 75
145 142 85
148 146 79
153 148 85
154 150 88
146 143 75
154 151 78
149 145 79
153 149 83
157 153 87
160 155 84
161 154 84
161 155 81
156 151 81
163 157 85
163 158 82
161 156 75
159 154 83
165 159 88
163 158 87
167 162 86
168 161 89
165 159 86
164 159 83
165 159 84
162 157 80
166 160 85
171 164 91
168 162 90
168 162 87
160 155 77
169 163 90
168 162 86
167 162 83
165 159 84
169 162 94
168 161 86
169 162 85
165 158 81
167 160 84
163 158 77
171 163 88
169 163 89
169 163 81
167 161 84
169 163 86
163 157 80
166 159 87
163 156 80
166 161 86
162 156 79
164 157 87
168 161 87
163 156 79
162 155 80
157 151 70
164 158 84
157 152 76
160 154 75
165 157 81
158 153 75
164 157 79
160 153 77
162 155 75
152 146 67
157 151 74
154 149 63
153 147 70
154 148 71
149 144 61
154 148 75
162 156 75
157 151 74
156 149 72
149 144 60
150 144 64
156 150 71
148 142 69
146 140 68
136 132 59
135 130 67
137 133 58
141 137 60
144 137 61
143 141 56
138 138 45
145 143 57
135 139 39
150 154 47
144 152 39
153 165 32
145 159 19
158 172 22
161 177 32
164 183 11
164 185 11
168 190 0
170 193 0
171 192 0
172 194 0
173 196 0
172 195 0
171 194 0
172 194 0
171 194 0
170 194 0
173 196 0
174 197 0
170 194 0
173 197 0
173 197 0
171 194 0
173 196 0
172 195 0
171 195 0
173 197 0
170 194 0
171 194 0
172 195 0
174 197 0
174 196 0
173 196 0
171 194 0
170 193 0
173 197 0
172 196 0
172 195 0
173 197 0
173 197 0
172 196 0
169 193 0
174 197 0
172 195 0
174 197 0
172 195 0
170 194 0
169 192 0
171 194 0
170 193 0
169 193 0
172 195 0
171 193 0
173 196 0
172 195 0
170 193 0
169 192 0
171 195 0
171 195 0
169 192 0
171 194 0
170 194 0
170 194 0
170 194 0
172 195 0
172 195 0
173 195 0
168 192 0
171 194 0
169 191 0
170 193 0
174 197 0
170 194 0
172 196 0
170 193 0
167 191 0
170 193 0
170 193 0
171 195 0
168 191 0
170 194 0
169 193 0
167 191 0
167 190 0
171 195 0
166 190 0
172 195 0
168 192 0
168 191 0
169 192 0
171 193 0
170 193 0
165 187 0
169 192 0
169 193 0
169 192 0
168 190 0
172 195 25
157 180 70
120 146 134
73 107 174
62 99 173
63 100 177
62 99 175
63 100 179
62 99 179
63 99 176
62 99 179
62 99 174
62 99 175
63 100 179
62 99 176
62 99 176
63 100 179
62 99 172
62 99 175
62 99 177
63 100 179
62 99 176
63 99 178
62 98 174
62 99 179
63 99 177
62 99 178
62 99 175
62 99 175
61 98 175
62 99 176
62 99 179
62 99 177
62 99 180
62 99 176
62 99 179
62 99 177
63 99 178
62 99 178
62 99 177
62 99 176
61 98 176
62 99 178
62 99 179
62 99 179
62 99 177
62 99 179
62 99 176
62 99 179
62 99 177
62 99 178
61 98 173
62 98 174
62 99 178
62 98 173
62 99 177
62 99 178
63 100 177
62 99 175
62 99 177
62 99 175
62 99 180
62 99 175
62 99 179
62 99 176
61 98 173
62 99 178
62 99 180
62 99 175
62 99 179
62 98 172
62 99 174
62 99 173
62 98 174
62 99 176
62 99 176
61 98 175
62 99 178
62 99 175
62 99 177
62 99 175
62 99 174
62 99 176
62 99 175
63 99 178
62 98 175
62 99 175
62 99 173
62 99 177
62 99 176
62 99 171
62 99 177
63 99 174
62 99 180
62 99 177
62 98 172
61 98 171
63 99 172
62 99 177
62 99 173
62 99 173
62 99 175
62 99 174
61 98 177
62 99 175
62 99 176
63 99 173
62 99 171
62 99 178
62 99 172
62 99 174
62 99 174
62 99 173
62 99 174
62 99 178
63 99 175
62 98 166
62 99 172
62 99 174
62 99 173
62 99 174
63 100 175
62 98 168
62 99 174
62 99 169
62 99 171
61 98 174
62 99 172
62 98 174
63 100 175
62 98 171
61 98 163
62 99 176
62 99 172
62 99 171
62 99 171
62 99 171
62 99 173
62 98 165
61 98 167
62 99 173
61 98 166
62 98 168
62 99 173
62 98 173
62 98 167
62 98 168
62 98 165
62 98 170
61 98 164
62 98 168
62 98 166
61 97 163
60 96 160
63 99 172
62 98 169
62 97 161
63 99 167
62 98 164
62 97 164
61 97 156
61 97 161
61 96 162
61 96 162
62 97 163
61 96 152
62 97 165
61 95 157
60 95 157
60 95 158
59 93 149
61 95 152
57 89 141
60 85 123
58 78 110
45 59 69
40 51 44
61 65 30
62 67 43
56 64 43
67 71 46
75 79 52
71 75 38
67 72 48
66 72 48
80 85 52
91 94 56
83 86 52
93 96 58
103 104 57
93 95 57
96 98 59
96 99 56
107 107 59
115 115 64
113 114 71
107 108 67
108 108 65
126 125 75
119 118 70
123 122 71
125 125 75
121 122 71
122 121 69
134 131 69
120 119 69
121 121 66
141 138 77
143 140 79
139 136 79
143 139 76
138 136 76
145 142 75
145 142 77
141 138 79
141 139 76
150 146 83
146 143 79
152 149 81
150 146 82
158 153 88
153 148 80
154 150 86
158 154 80
152 148 81
156 152 83
161 157 78
157 153 84
161 156 84
165 159 88
164 158 83
156 151 77
163 158 87
168 162 90
159 154 79
167 160 88
165 159 90
161 156 79
165 159 81
162 155 83
164 158 86
166 160 84
165 159 82
166 160 82
167 160 86
164 159 78
170 164 88
165 158 86
164 158 76
164 159 82
163 157 82
163 156 80
165 158 82
165 159 81
163 158 80
163 156 85
166 160 80
166 160 81
167 160 84
170 163 87
164 157 80
173 164 89
158 154 78
161 154 77
165 159 84
162 156 80
167 160 82
161 154 77
164 158 80
159 152 76
165 159 72
162 155 82
159 152 73
156 150 75
157 151 72
157 151 80
159 152 79
152 146 66
151 145 70
160 153 75
162 155 83
155 148 75
158 152 74
162 154 81
151 145 68
152 146 73
152 146 70
146 141 64
146 141 67
153 147 68
148 141 67
145 139 64
141 136 59
136 130 60
142 136 66
143 138 66
129 124 56
133 129 53
149 145 59
148 149 57
144 148 36
146 151 42
151 160 34
147 156 32
148 158 39
149 161 22
159 174 19
161 179 19
159 176 16
164 185 0
171 193 11
169 190 0
169 191 0
168 188 0
173 196 0
172 195 0
175 198 0
172 195 0
174 197 0
173 197 0
170 193 0
171 195 0
172 195 0
170 194 0
173 196 0
172 196 0
171 194 0
173 196 0
170 194 0
172 195 0
167 192 0
170 194 0
174 196 0
172 195 0
172 196 0
172 195 0
172 196 0
175 198 0
173 196 0
173 197 0
165 189 0
169 194 0
170 193 0
172 196 0
172 196 0
170 193 0
169 193 0
173 196 0
173 196 0
169 193 0
171 195 0
172 195 0
173 197 0
171 194 0
173 197 0
173 196 0
173 195 0
172 196 0
172 194 0
172 196 0
172 195 0
169 192 0
170 193 0
170 193 0
172 195 0
169 192 0
171 196 0
170 193 0
169 192 0
167 191 0
169 194 0
170 193 0
171 195 0
171 194 0
171 194 0
172 196 0
171 195 0
166 190 0
172 195 0
171 195 0
167 191 0
172 195 0
170 194 0
172 195 0
170 194 0
170 195 0
169 192 0
167 191 0
168 191 0
165 188 0
171 194 0
165 189 0
171 192 0
170 193 0
170 195 0
170 193 0
169 192 0
167 191 0
170 193 0
171 195 0
167 190 44
147 171 95
103 132 147
63 100 177
62 99 172
63 100 178
62 99 178
63 100 178
62 99 172
63 100 177
63 100 178
63 100 181
63 100 179
62 99 176
62 99 178
62 99 174
62 99 178
62 99 178
62 99 174
62 99 176
62 99 179
62 99 177
62 99 177
62 99 176
62 99 177
62 99 174
62 99 172
62 99 171
62 99 180
62 99 177
62 99 176
62 99 180
62 99 177
62 99 177
62 99 179
62 99 177
61 98 177
62 99 178
62 99 178
62 99 176
63 99 177
62 99 172
61 98 174
62 99 175
62 99 180
62 99 178
63 99 179
62 99 180
62 99 177
62 98 175
63 99 179
62 98 177
62 98 175
61 98 173
62 99 176
63 99 179
62 99 179
62 99 174
62 99 178
62 99 179
61 99 176
62 99 177
62 99 173
62 99 175
62 99 176
63 99 178
62 99 174
62 99 175
61 98 170
62 99 173
62 99 176
62 99 178
62 99 178
62 99 176
62 99 172
62 99 173
62 99 173
62 99 174
62 98 174
63 100 179
62 99 175
62 99 174
62 99 180
62 98 171
61 98 176
62 99 175
61 98 174
62 98 173
62 99 175
62 99 173
62 99 178
62 99 176
62 99 171
62 99 173
62 99 174
62 99 178
62 99 173
62 99 176
62 98 169
62 99 174
62 99 176
62 99 174
62 99 177
61 98 172
63 99 177
62 98 168
62 99 176
63 100 178
61 98 168
62 99 170
62 99 176
62 99 174
63 99 176
62 99 174
62 98 168
62 99 177
61 98 172
62 99 174
62 98 172
62 99 174
61 98 171
63 99 173
62 99 175
62 99 168
62 99 173
63 99 173
63 99 171
62 99 175
62 99 170
61 98 168
62 98 170
61 98 167
63 99 169
63 99 175
63 99 170
62 99 168
63 99 175
62 99 171
63 99 177
63 99 171
62 98 170
62 99 172
62 99 170
63 99 173
62 99 169
62 98 166
62 99 170
62 98 167
62 98 156
61 97 165
62 97 158
62 98 171
62 98 169
62 97 160
61 97 166
62 98 168
61 97 165
62 98 167
61 96 166
62 98 165
62 97 168
61 96 159
62 97 162
61 96 163
61 96 157
62 98 161
61 95 155
61 97 163
61 96 163
60 95 155
61 96 159
60 94 150
60 93 149
57 89 141
67 83 100
49 64 78
60 65 50
52 58 37
46 53 35
67 72 48
61 67 42
56 63 34
72 74 40
72 76 48
74 79 50
80 82 50
85 90 52
93 96 51
95 98 58
102 104 65
98 100 60
103 105 61
110 111 65
107 108 65
114 115 65
114 113 67
108 110 62
129 126 66
118 118 67
114 115 62
130 128 73
117 116 67
130 128 70
119 119 66
130 128 72
134 131 76
130 127 70
129 128 73
148 145 82
140 137 76
145 143 76
146 143 76
146 142 69
137 135 77
143 139 78
147 145 79
152 148 78
148 144 79
150 145 81
153 149 86
148 144 75
156 151 86
153 148 76
159 154 84
157 152 88
168 161 89
157 152 82
160 155 82
161 155 79
169 162 83
162 157 86
170 163 87
160 155 83
159 153 84
156 150 84
165 158 85
163 157 79
158 153 74
164 158 83
165 159 85
168 161 85
169 162 87
171 164 89
168 161 84
166 160 79
168 162 86
159 153 71
173 165 92
169 162 85
162 156 82
166 159 75
166 160 78
165 159 84
168 161 82
163 156 82
163 158 83
165 159 78
167 161 80
168 161 78
167 161 84
162 156 80
168 161 85
164 158 80
162 156 75
163 157 82
160 154 75
166 160 84
167 161 80
163 158 75
158 153 75
160 153 77
156 150 70
162 154 80
158 152 75
156 149 75
165 158 87
153 148 68
158 153 74
155 149 74
156 151 76
149 144 67
155 149 67
151 145 62
157 151 72
150 143 68
143 138 59
154 147 73
140 134 58
149 144 60
154 147 67
139 133 67
153 147 75
149 142 70
145 138 63
147 141 65
140 134 60
136 130 59
145 141 66
145 141 61
144 143 57
143 147 37
149 153 47
151 155 53
154 164 34
163 174 48
155 168 30
158 174 25
161 178 16
164 185 16
168 187 11
169 190 0
168 189 0
171 193 0
170 192 0
171 194 0
176 198 0
172 196 0
172 195 0
174 197 0
170 193 0
172 195 0
171 195 0
171 194 0
171 195 0
171 194 0
170 193 0
174 198 0
170 193 0
173 197 0
172 196 0
170 193 0
171 194 0
170 193 0
171 195 0
170 193 0
172 195 0
172 195 0
171 195 0
169 192 0
172 196 0
170 194 0
172 196 0
172 196 0
173 196 0
174 197 0
171 195 0
167 190 0
172 196 0
171 194 0
174 197 0
168 191 0
173 196 0
172 195 0
171 195 0
172 194 0
172 195 0
170 194 0
170 193 0
172 195 0
173 196 0
173 197 0
171 194 0
171 194 0
174 196 0
172 195 0
169 192 0
171 195 0
168 192 0
171 194 0
171 195 0
171 194 0
171 195 0
169 193 0
168 191 0
171 194 0
172 196 0
171 194 0
172 196 0
169 193 0
172 196 0
166 190 0
169 193 0
172 196 0
165 189 0
166 189 0
170 192 0
169 191 0
167 190 0
169 193 0
168 191 0
169 192 0
171 193 0
171 194 0
170 194 0
172 195 0
169 192 0
171 194 0
171 194 0
169 193 0
168 191 0
165 188 54
135 161 111
94 124 152
64 100 179
62 99 174
62 99 174
64 100 180
62 99 178
63 100 178
62 99 177
63 100 181
63 99 176
62 99 178
63 100 179
62 99 175
63 99 177
62 99 178
62 99 175
62 99 173
62 99 180
62 99 175
62 99 179
62 99 177
62 99 179
62 99 177
62 99 177
61 98 174
62 99 178
62 99 181
62 99 176
62 99 179
62 98 171
62 99 177
63 100 180
62 99 174
62 99 179
62 99 178
62 99 179
62 99 178
62 98 172
62 99 174
62 99 178
62 99 177
62 99 175
61 99 177
61 98 176
62 99 180
62 99 177
63 99 178
63 100 180
62 99 176
62 99 177
62 99 177
62 99 179
61 98 175
61 98 173
62 99 177
62 99 177
61 98 172
62 99 175
62 99 174
62 99 177
62 99 173
62 98 173
62 99 177
62 99 177
61 98 176
63 99 174
62 99 176
62 99 175
62 99 176
62 99 174
62 98 171
62 99 174
62 99 177
62 99 176
61 98 172
62 99 174
62 99 178
62 99 177
62 99 177
62 99 178
63 99 176
62 99 174
62 99 175
62 99 174
62 99 175
62 98 173
62 99 171
62 99 172
62 99 174
62 99 176
62 99 174
61 98 175
62 99 172
62 99 175
63 100 176
62 99 175
61 98 169
61 98 170
63 99 177
62 99 173
62 99 177
61 98 168
62 98 171
63 100 177
62 99 172
62 99 169
62 98 172
63 100 180
62 99 177
62 99 173
62 98 173
62 99 173
62 99 176
61 98 175
62 99 175
62 98 169
63 99 171
62 99 171
62 98 166
62 98 173
62 98 170
62 99 172
62 98 167
61 98 165
61 98 168
62 98 169
62 99 171
62 99 173
62 98 170
62 99 175
62 99 168
62 98 167
62 99 172
63 99 176
62 98 172
63 99 173
62 98 167
62 98 169
62 98 170
62 98 169
63 99 170
62 98 165
62 98 165
62 97 162
62 99 170
63 99 172
61 98 171
62 98 170
62 98 172
61 97 163
62 98 164
62 98 167
62 98 163
61 97 162
62 98 165
63 98 169
62 98 163
62 99 168
63 99 166
61 97 159
62 98 165
61 97 160
60 96 163
60 95 156
60 95 156
60 95 156
61 96 159
62 97 162
60 95 155
60 95 155
60 93 150
64 93 140
57 79 108
50 64 79
53 62 54
54 60 41
59 63 30
63 67 39
75 77 43
75 78 49
74 79 47
61 66 43
78 82 55
85 90 54
85 88 52
97 99 55
86 89 50
90 94 58
92 94 52
97 100 58
102 104 58
99 101 60
102 105 67
104 105 60
106 106 61
103 104 61
116 118 68
113 114 63
125 124 71
120 120 67
130 128 71
121 121 63
132 131 73
123 123 71
138 136 74
132 131 70
140 137 73
138 136 71
134 133 78
147 144 77
150 146 82
145 143 78
146 143 74
148 144 75
146 143 75
144 141 77
148 143 78
158 153 86
157 152 83
154 149 78
149 145 78
157 152 82
152 147 81
162 156 84
162 156 83
159 154 82
158 153 83
161 156 81
168 161 87
159 154 80
158 153 76
165 159 86
161 156 80
163 157 81
163 158 84
164 158 81
164 158 89
169 161 89
163 157 76
164 157 83
166 160 84
166 161 87
163 156 77
172 166 87
166 160 82
164 158 78
166 160 80
165 159 80
162 156 80
164 158 78
164 158 84
168 161 80
167 161 82
168 161 85
166 159 83
168 162 84
165 159 84
166 159 75
164 157 79
162 157 75
165 158 82
164 157 75
160 154 78
161 155 75
166 159 80
161 155 80
166 159 80
157 151 75
155 150 70
163 157 74
157 150 81
159 153 74
162 155 77
160 153 76
161 153 76
160 154 76
160 154 75
153 147 70
156 150 67
162 154 80
147 141 63
153 147 69
157 151 64
146 141 59
151 144 74
150 145 69
153 146 68
154 147 67
143 137 63
141 135 65
151 146 64
145 140 63
137 132 54
138 134 54
148 143 54
141 137 54
146 146 48
143 143 53
146 151 45
145 151 39
150 158 34
144 158 28
157 170 30
155 170 28
160 178 19
163 180 19
162 179 16
167 188 0
171 190 16
173 194 0
171 193 0
170 192 0
168 192 0
173 196 0
175 198 0
173 196 0
174 198 0
174 197 0
169 193 0
174 198 0
171 195 0
174 197 0
171 194 0
170 193 0
171 194 0
171 194 0
168 192 0
174 197 0
168 192 0
172 196 0
173 196 0
172 194 0
173 196 0
170 193 0
172 196 0
172 195 0
171 195 0
170 194 0
171 194 0
172 195 0
172 195 0
171 195 0
170 193 0
170 194 0
168 191 0
172 195 0
173 196 0
171 195 0
169 192 0
171 195 0
170 193 0
166 190 0
173 197 0
172 195 0
169 193 0
172 196 0
170 192 0
168 191 0
170 194 0
169 193 0
172 195 0
171 195 0
171 194 0
169 193 0
170 193 0
167 192 0
175 198 0
168 192 0
170 193 0
172 194 0
169 191 0
167 189 0
169 193 0
170 193 0
171 193 0
173 196 0
170 193 0
167 191 0
169 192 0
170 193 0
173 196 0
169 191 0
170 193 0
170 194 0
167 190 0
170 193 0
167 190 0
172 196 0
167 191 0
168 189 0
166 190 0
170 193 0
171 194 0
168 191 0
165 188 0
164 187 0
170 193 0
172 195 0
159 183 70
126 152 128
75 108 165
63 100 176
63 100 174
63 100 178
62 99 177
62 99 175
62 99 176
62 99 175
63 100 180
63 100 178
62 99 177
62 99 177
62 99 178
62 99 179
63 99 176
62 99 176
62 99 177
62 99 176
62 99 178
62 98 171
63 100 179
62 99 178
62 99 174
63 100 180
62 99 180
62 99 179
62 99 177
62 99 179
62 99 177
62 99 177
61 98 176
61 98 177
62 99 179
62 99 175
61 98 173
62 99 178
63 100 179
63 100 180
62 99 176
63 99 178
62 99 176
62 99 176
62 99 177
62 99 176
62 99 178
62 99 172
62 99 178
62 99 176
62 99 175
62 99 177
62 99 173
62 98 175
62 99 175
62 99 178
62 99 173
63 100 178
62 99 178
62 99 175
62 99 178
63 100 178
62 99 173
63 99 175
62 99 172
63 99 177
62 99 178
62 98 168
62 99 173
62 99 180
63 99 177
63 99 178
62 99 176
62 99 172
62 98 170
62 99 173
61 98 171
62 99 174
61 98 174
62 99 172
62 99 176
62 99 174
62 99 172
61 98 175
62 99 176
63 99 175
63 99 176
62 99 176
62 99 174
62 98 173
62 99 171
62 99 175
62 99 175
62 99 173
62 99 175
62 99 174
61 98 171
62 98 170
63 99 175
62 98 171
62 98 172
61 98 168
62 99 169
62 99 173
62 99 174
63 99 175
63 99 176
62 99 171
62 99 171
62 99 174
62 98 171
61 98 169
62 98 168
62 99 169
62 99 175
62 99 174
62 98 169
62 99 176
62 99 174
62 98 170
63 99 171
62 98 167
62 98 170
62 99 171
62 99 175
62 98 173
63 99 175
62 99 171
62 99 175
62 99 173
63 99 173
62 99 168
62 99 168
62 99 172
62 98 167
63 99 172
63 99 171
62 98 168
63 99 171
62 99 175
62 99 173
62 98 169
63 99 174
62 98 169
63 99 171
62 98 164
62 99 170
62 98 167
62 98 170
62 98 169
62 98 169
63 99 169
62 98 168
62 97 162
61 97 164
62 99 165
61 97 161
61 97 164
62 98 167
61 98 164
62 98 162
61 97 165
61 97 162
62 97 163
60 95 152
62 98 168
62 98 163
62 98 163
61 96 163
62 97 158
60 95 153
60 94 151
58 91 150
58 91 148
59 82 119
47 62 68
51 60 52
55 60 30
56 62 39
56 60 26
63 67 34
63 69 44
76 79 47
73 74 42
81 83 49
79 83 52
74 78 42
79 83 49
90 90 55
92 93 53
91 94 57
94 96 54
97 99 52
110 110 67
101 103 60
111 111 63
95 98 61
116 116 70
104 106 60
112 112 58
110 110 67
126 125 62
137 133 72
119 120 68
115 115 59
132 130 76
124 123 64
132 131 70
127 126 74
131 130 66
138 135 71
140 136 77
140 137 76
134 132 63
140 137 76
144 140 76
149 145 77
148 144 79
141 138 74
146 142 76
150 147 78
144 140 75
154 149 78
155 150 82
158 153 81
153 148 79
160 154 79
161 155 81
166 161 85
152 148 80
149 145 73
160 155 78
165 158 79
160 155 90
159 154 81
161 155 79
164 157 86
163 157 82
163 158 78
160 155 78
169 162 83
162 157 78
164 158 80
159 153 78
168 160 85
165 158 78
170 163 86
165 159 80
166 160 80
163 157 82
164 157 81
164 157 81
168 161 88
168 162 82
167 159 86
161 155 74
165 159 80
166 159 83
169 162 82
162 156 75
165 158 81
164 158 76
164 158 79
160 153 79
163 158 74
159 153 74
159 153 75
156 149 68
162 156 77
151 147 66
164 156 78
164 157 78
163 156 78
155 149 62
156 150 72
153 147 66
153 147 62
161 154 76
152 145 64
153 147 65
159 153 75
152 146 66
149 143 66
156 150 75
150 145 66
154 148 68
157 152 72
145 141 60
150 144 67
148 142 62
145 139 59
147 141 63
137 132 61
143 137 62
142 136 65
129 125 56
147 142 61
129 126 44
136 134 47
139 140 48
143 148 39
140 145 39
147 154 39
153 161 34
158 170 39
159 173 28
160 177 28
161 178 22
166 184 22
170 191 16
170 191 0
169 190 0
170 191 0
170 193 0
170 193 0
175 198 0
170 194 0
172 195 0
173 196 0
171 195 0
170 193 0
174 198 0
173 196 0
167 190 0
174 197 0
173 196 0
173 196 0
172 196 0
173 197 0
176 198 0
172 195 0
171 195 0
170 194 0
172 196 0
173 196 0
172 195 0
171 194 0
172 195 0
172 195 0
171 194 0
171 194 0
172 196 0
170 194 0
170 193 0
171 195 0
171 195 0
171 195 0
173 196 0
172 194 0
173 196 0
171 194 0
173 197 0
171 194 0
173 196 0
171 195 0
170 193 0
169 192 0
171 194 0
168 191 0
172 196 0
172 195 0
172 195 0
170 193 0
172 196 0
172 196 0
171 194 0
173 196 0
173 196 0
169 193 0
171 195 0
168 192 0
169 193 0
173 196 0
172 196 0
169 193 0
172 195 0
168 192 0
170 192 0
164 188 0
167 191 0
169 192 0
172 195 0
168 192 0
165 188 0
170 194 0
169 193 0
169 192 0
168 192 0
169 193 0
173 196 0
171 194 0
168 191 0
172 195 0
172 195 0
168 192 0
167 191 0
171 194 0
168 191 0
170 194 0
162 186 31
153 178 84
119 145 137
63 99 174
63 99 171
62 99 174
62 99 176
63 100 176
63 100 179
62 99 174
63 100 178
63 100 177
63 99 177
62 99 176
63 99 178
63 99 176
63 99 175
62 99 177
62 99 174
63 99 178
62 99 176
62 99 176
62 99 178
62 98 174
62 99 178
62 99 174
62 99 179
61 98 175
62 99 178
63 99 177
62 99 179
61 98 175
62 99 176
62 99 176
62 99 176
62 99 179
62 99 174
62 99 176
63 100 176
61 98 176
61 98 175
62 99 175
62 99 177
62 99 178
61 98 176
62 99 176
63 99 177
63 99 176
62 99 178
61 98 177
62 100 181
62 99 176
62 99 179
62 99 179
62 99 176
61 97 165
62 99 172
62 99 177
62 99 175
62 99 178
63 100 178
62 99 175
62 99 176
62 99 174
62 99 178
62 99 174
62 99 171
61 98 171
62 99 174
62 99 178
61 98 175
62 99 176
62 99 178
63 99 176
62 99 177
62 99 176
62 99 177
61 98 169
62 98 169
61 98 176
61 98 176
62 99 170
62 99 173
62 99 173
63 100 175
63 99 177
62 99 169
62 99 173
62 99 171
61 98 174
62 99 175
62 99 176
62 99 174
62 99 174
63 100 178
61 98 172
62 99 175
62 99 173
63 100 176
62 99 176
62 99 171
62 99 173
61 98 172
62 99 176
62 99 170
62 99 173
62 99 174
62 98 171
62 98 172
63 99 168
62 99 174
62 99 174
62 98 168
61 98 174
62 99 172
62 99 174
62 99 172
62 98 169
62 99 169
63 99 177
62 99 177
62 98 169
62 99 172
62 99 172
63 100 176
62 98 168
62 99 171
62 98 167
62 99 173
62 98 171
62 99 176
62 99 176
62 98 169
62 99 171
63 99 170
61 98 167
61 98 169
62 98 163
63 100 173
62 98 171
62 98 170
62 98 168
62 99 167
62 98 166
62 99 172
62 98 167
62 99 170
62 98 164
62 99 171
62 98 166
61 98 162
62 98 167
62 99 168
62 98 168
62 99 168
61 97 162
62 98 171
61 97 161
61 98 166
62 98 170
61 97 156
62 97 162
62 98 166
61 97 160
62 98 161
60 96 159
62 98 163
63 99 168
61 96 159
61 95 156
61 96 157
59 92 151
60 95 161
59 93 147
61 93 144
54 83 129
54 74 99
49 61 68
62 64 35
67 71 44
64 68 34
53 58 31
67 71 40
80 84 47
63 68 42
74 79 41
76 79 43
80 84 51
74 77 46
93 95 51
88 91 48
98 99 50
96 97 54
107 107 60
111 113 60
93 96 54
109 110 65
111 111 59
112 113 61
119 119 66
101 103 59
127 124 66
126 123 68
118 118 66
129 127 70
126 125 65
124 124 68
134 132 74
132 130 73
142 139 75
127 126 63
137 135 69
151 147 81
140 137 74
141 137 73
148 144 68
134 132 64
137 136 73
142 138 73
154 150 80
146 143 71
151 147 77
150 145 75
149 144 74
148 144 75
156 151 81
154 149 82
155 150 82
149 144 76
157 152 83
156 152 77
159 154 76
159 154 77
163 157 86
163 156 86
158 153 77
161 156 76
160 154 83
164 157 75
163 157 82
168 162 87
166 159 83
169 162 85
159 153 76
169 162 86
160 154 72
163 157 81
166 160 83
164 158 75
165 159 82
167 161 84
164 158 80
161 155 76
164 156 80
165 158 80
161 156 74
164 157 79
165 159 79
170 163 88
157 151 73
164 158 80
161 153 78
163 157 73
166 160 79
159 153 69
166 159 74
164 157 80
163 157 72
158 152 73
158 151 77
162 156 77
154 148 70
154 147 70
157 150 73
163 156 75
159 151 74
144 138 64
151 145 66
154 148 67
159 153 74
157 151 65
158 151 75
154 148 66
154 147 66
142 137 60
142 136 63
152 145 69
145 139 67
143 137 61
138 133 51
142 136 57
147 141 63
143 138 61
138 132 60
145 138 61
140 135 54
140 135 58
125 122 45
139 137 49
141 144 39
142 146 37
133 138 28
158 169 39
154 167 32
148 159 34
155 167 36
162 177 28
158 174 22
163 182 0
167 187 16
168 188 11
169 190 0
171 190 0
172 193 0
171 194 0
173 196 0
173 196 0
172 195 0
173 196 0
169 192 0
169 192 0
171 194 0
172 195 0
175 197 0
171 194 0
172 194 0
168 193 0
172 195 0
173 197 0
166 190 0
168 191 0
172 195 0
169 194 0
169 193 0
172 195 0
170 194 0
172 196 0
173 196 0
175 198 0
172 195 0
171 194 0
167 190 0
173 197 0
170 193 0
171 194 0
172 196 0
172 196 0
172 195 0
171 194 0
171 195 0
171 194 0
170 193 0
172 195 0
169 193 0
168 192 0
171 195 0
171 195 0
168 191 0
173 196 0
169 192 0
169 192 0
173 196 0
170 193 0
169 194 0
171 195 0
170 193 0
170 192 0
171 195 0
171 194 0
168 192 0
166 190 0
167 190 0
169 193 0
170 193 0
171 194 0
171 194 0
172 195 0
168 191 0
171 195 0
172 195 0
167 191 0
170 193 0
168 192 0
169 192 0
170 192 0
167 190 0
168 192 0
170 194 0
171 195 0
170 193 0
173 196 0
170 193 0
171 194 0
171 194 0
171 194 0
170 194 0
172 195 0
167 190 0
170 194 0
170 194 0
163 187 36
151 175 84
98 127 150
63 99 174
63 100 177
63 99 176
63 99 177
63 99 175
62 99 174
62 99 178
62 99 177
63 100 177
63 99 176
63 100 177
63 99 178
62 99 179
63 99 178
62 99 176
62 99 178
62 99 177
62 99 180
62 99 174
62 99 179
62 99 177
63 99 178
63 99 176
62 99 177
62 99 180
62 99 178
62 99 178
63 99 178
62 99 177
62 99 181
62 99 174
61 98 175
62 99 177
62 99 174
62 99 178
62 99 176
62 99 178
62 99 176
62 99 180
62 99 177
62 99 173
62 99 178
62 99 175
62 99 179
63 99 178
62 99 175
62 99 176
62 98 176
61 98 174
62 99 177
62 99 177
63 100 178
62 99 170
61 98 175
62 99 176
62 99 177
62 99 177
62 99 170
62 99 175
62 99 176
63 99 177
62 98 173
62 99 176
61 99 177
61 98 167
62 99 179
62 99 177
62 99 175
63 100 177
61 98 172
62 99 174
62 99 176
62 98 173
61 98 172
62 99 174
62 98 175
62 99 177
61 99 177
61 98 171
63 100 178
62 99 172
62 99 170
61 98 169
62 99 175
63 99 169
61 98 174
62 99 178
61 98 166
62 99 175
62 99 176
62 99 172
61 98 172
63 100 174
62 99 174
62 99 175
62 99 176
61 98 174
62 98 170
63 99 175
62 99 171
62 98 171
62 99 174
62 99 172
62 98 170
62 99 178
61 98 168
62 99 170
62 99 172
62 99 174
62 98 169
62 99 175
63 100 178
62 98 169
62 99 171
62 98 167
62 98 166
62 98 169
62 99 171
62 98 170
62 99 174
63 99 171
62 98 168
62 99 174
62 99 172
62 98 167
62 98 171
62 99 169
62 99 173
62 99 173
62 99 170
62 99 168
62 99 171
61 98 172
62 98 166
62 99 172
62 99 170
62 98 167
63 99 171
61 98 166
62 98 168
62 98 162
62 98 166
62 98 169
62 99 168
62 98 167
62 99 170
62 98 166
62 98 168
61 97 163
63 99 172
62 98 164
61 97 162
62 98 159
62 97 158
63 99 168
63 99 170
62 97 161
62 98 165
62 98 168
60 96 152
62 97 165
61 96 159
61 97 163
62 98 164
60 95 151
61 97 156
59 94 157
62 97 159
62 97 162
59 94 153
60 95 155
61 95 154
57 88 138
52 73 98
53 65 74
67 70 37
47 54 29
59 62 28
63 67 32
63 69 40
68 73 41
73 78 46
78 81 45
79 80 36
81 82 47
81 84 44
84 89 49
95 96 52
98 100 55
92 94 49
104 105 58
104 105 59
113 113 60
98 100 57
127 125 67
115 115 67
119 118 62
118 117 63
107 107 51
131 129 72
126 125 61
121 119 65
121 118 58
131 129 69
133 132 69
117 117 67
134 132 70
130 127 67
135 132 74
135 132 77
134 131 70
144 141 72
142 139 71
144 141 81
144 141 77
148 144 77
143 140 74
144 141 74
159 154 85
151 149 77
148 144 79
155 150 78
149 145 73
160 154 77
157 152 79
157 153 76
161 155 78
157 152 77
163 157 86
166 159 84
166 160 87
165 159 87
165 159 87
161 156 80
159 153 81
160 154 79
164 158 78
162 156 77
165 158 78
166 159 83
163 156 78
165 159 84
164 158 79
170 163 86
166 159 84
165 158 77
166 159 80
167 160 79
164 158 79
164 158 81
164 157 74
165 158 75
167 160 83
168 161 80
164 158 77
158 152 66
165 159 79
165 159 81
162 154 75
158 152 73
161 154 73
163 158 75
168 161 84
162 156 74
163 156 76
158 152 75
167 159 84
163 157 81
154 147 69
162 156 80
152 147 65
148 143 66
158 152 70
154 148 59
150 144 69
160 154 71
153 147 72
158 150 74
148 142 65
157 151 75
150 144 70
148 143 66
145 139 59
154 147 73
139 134 56
155 149 66
149 143 59
151 145 65
136 131 53
147 141 63
140 135 57
140 133 58
138 133 57
133 129 54
139 135 60
134 132 51
154 154 48
145 151 44
150 157 39
148 156 44
149 159 32
159 173 30
163 178 25
165 180 25
165 184 11
168 187 22
167 188 11
171 193 0
171 193 0
165 184 0
168 188 0
171 193 0
174 197 0
172 194 0
171 195 0
174 197 0
171 194 0
171 194 0
171 195 0
170 195 0
172 195 0
171 195 0
172 195 0
173 197 0
170 194 0
171 194 0
173 196 0
170 194 0
169 192 0
171 194 0
171 195 0
170 194 0
171 194 0
169 193 0
172 196 0
170 193 0
170 193 0
170 194 0
172 195 0
172 196 0
169 193 0
171 194 0
171 195 0
171 194 0
170 193 0
169 193 0
171 194 0
173 196 0
171 194 0
173 196 0
171 194 0
173 197 0
170 194 0
169 193 0
169 191 0
170 193 0
172 195 0
167 191 0
169 192 0
170 194 0
169 192 0
169 192 0
168 191 0
171 194 0
171 194 0
173 196 0
173 196 0
173 197 0
173 196 0
168 192 0
172 195 0
171 194 0
171 194 0
167 190 0
169 192 0
168 191 0
167 191 0
170 193 0
170 193 0
171 194 0
168 191 0
169 192 0
170 193 0
165 188 0
170 192 0
169 191 0
168 191 0
172 195 0
166 189 0
170 192 0
167 191 0
168 192 0
173 197 0
171 194 0
170 193 0
172 195 0
169 193 0
159 182 57
135 160 117
102 130 152
63 99 175
63 100 177
62 99 174
62 99 173
63 100 178
63 99 177
63 99 177
62 99 175
62 99 176
62 99 175
62 99 171
62 99 176
62 99 176
62 99 176
63 100 180
62 99 172
62 99 173
63 99 177
62 98 174
62 99 176
62 99 177
62 99 177
62 99 178
63 99 176
62 99 177
62 99 172
62 99 175
62 99 178
62 99 179
62 99 179
62 98 171
62 99 172
63 100 180
62 99 179
62 99 179
62 99 175
62 99 177
62 99 177
62 99 179
61 98 176
62 99 180
62 98 174
62 99 179
61 98 174
62 99 180
62 99 175
61 98 175
62 99 177
62 99 173
62 99 177
61 98 172
62 99 175
62 99 175
63 99 176
61 98 174
62 99 174
62 99 177
63 99 177
62 99 178
63 99 177
62 99 176
62 99 176
62 99 172
62 99 174
62 99 175
62 99 174
62 99 174
61 98 172
62 99 173
62 99 177
61 98 180
62 99 174
63 99 175
62 99 173
62 99 174
61 98 173
62 99 174
63 99 177
62 99 172
62 99 172
62 99 173
62 99 175
62 99 174
62 99 175
62 99 174
62 99 171
62 99 172
62 99 172
62 99 169
62 99 175
62 99 178
61 98 172
62 99 174
62 99 173
63 99 171
62 99 177
62 99 175
61 98 170
62 99 174
63 99 173
63 99 169
63 100 180
63 100 174
62 99 176
63 99 174
62 98 169
62 99 174
62 98 168
63 99 175
61 98 170
62 98 171
62 99 174
62 99 175
62 99 169
61 98 170
63 99 173
63 99 172
62 99 169
63 99 174
63 99 173
62 98 169
62 98 171
61 98 169
62 98 166
62 98 167
62 98 169
61 98 167
63 99 174
62 99 171
62 98 164
62 99 172
62 98 172
62 99 170
62 98 165
62 98 169
62 98 168
61 98 165
62 98 169
62 98 169
62 98 168
61 97 159
61 98 163
62 99 169
62 98 165
62 99 170
61 97 163
62 98 168
62 99 169
62 98 170
61 97 161
60 97 162
62 98 161
61 97 167
62 99 167
63 98 167
62 98 166
61 97 163
61 97 158
61 97 159
61 96 155
61 97 160
61 96 156
62 97 163
62 97 166
60 94 154
60 94 152
63 98 161
60 94 152
61 95 159
61 96 155
60 94 154
60 95 159
59 92 144
59 79 113
58 71 86
57 63 38
48 54 26
57 64 31
64 68 34
64 67 29
66 72 40
57 63 37
69 72 40
96 95 44
82 85 47
91 92 46
86 88 51
86 87 43
92 95 52
95 97 50
101 102 53
98 101 59
92 95 61
104 104 59
111 111 58
118 118 59
111 111 57
109 110 62
122 121 62
121 119 55
114 115 61
127 126 71
122 121 61
124 122 66
125 123 63
138 135 75
127 125 66
134 132 72
138 135 65
142 138 70
132 129 65
144 140 71
142 138 73
137 135 73
144 139 73
153 148 82
141 138 67
151 146 81
151 146 72
151 146 84
146 141 75
153 148 76
154 150 76
156 150 80
155 151 74
155 150 74
162 156 80
162 155 81
165 158 80
156 151 78
161 157 78
151 146 73
163 157 83
158 153 79
160 155 77
156 150 77
162 155 78
163 157 78
161 156 74
155 150 74
160 154 78
164 157 80
165 159 84
162 157 74
162 155 75
163 157 80
166 159 80
162 156 77
163 157 75
155 149 73
160 154 69
164 157 84
160 154 72
167 160 83
164 156 79
165 158 70
169 162 83
165 159 75
163 156 80
161 154 79
160 153 74
163 158 72
168 160 82
160 153 75
160 154 76
163 156 75
156 151 67
164 158 80
156 150 72
157 152 72
152 147 71
160 154 71
152 147 68
159 152 70
155 149 64
154 147 64
146 140 65
148 143 66
157 149 78
148 143 61
155 150 64
140 135 56
155 148 67
148 141 59
154 147 71
154 147 65
142 137 56
148 141 68
148 142 61
132 127 57
148 143 58
131 125 52
140 135 60
137 133 49
143 141 56
144 144 54
146 150 53
148 151 42
154 162 44
152 160 37
153 163 34
153 164 36
158 170 25
162 178 16
162 180 16
167 186 11
169 191 0
169 189 0
169 190 0
169 188 0
173 195 0
169 191 0
170 194 0
172 196 0
172 194 0
169 192 0
168 191 0
171 195 0
173 196 0
171 194 0
170 195 0
171 194 0
170 194 0
170 193 0
173 196 0
173 196 0
172 195 0
171 194 0
173 196 0
170 194 0
173 196 0
171 195 0
172 196 0
168 191 0
170 193 0
173 196 0
169 193 0
172 196 0
168 192 0
171 194 0
169 192 0
172 195 0
171 194 0
172 196 0
172 195 0
173 196 0
170 193 0
172 195 0
172 196 0
170 193 0
170 194 0
170 194 0
171 195 0
174 197 0
168 191 0
173 196 0
170 194 0
172 196 0
172 196 0
170 193 0
174 197 0
171 194 0
170 193 0
167 189 0
173 195 0
171 195 0
169 191 0
170 193 0
169 194 0
171 194 0
168 191 0
171 195 0
173 196 0
169 194 0
173 197 0
169 192 0
166 188 0
172 196 0
169 191 0
169 193 0
170 194 0
166 189 0
167 191 0
170 193 0
172 194 0
171 194 0
167 190 0
165 188 0
169 191 0
169 193 0
167 191 0
170 194 0
169 193 0
171 195 0
171 195 0
166 191 0
166 190 0
157 181 57
130 155 120
82 114 166
64 100 178
62 99 173
62 99 172
63 99 177
63 100 177
62 99 174
62 99 176
63 99 176
62 99 176
62 99 178
62 99 176
62 99 174
62 99 176
63 99 177
62 99 177
62 99 176
62 99 176
62 98 174
62 99 179
62 98 174
61 98 175
62 99 177
62 99 175
62 99 175
62 99 179
62 99 179
62 99 173
62 99 174
62 99 177
61 98 172
62 99 176
62 98 176
63 99 178
62 99 176
61 98 175
63 99 174
62 99 177
62 99 179
62 98 174
62 99 174
62 99 175
62 99 175
61 98 176
62 98 173
61 98 175
62 99 178
62 99 172
62 99 176
63 99 175
62 99 177
62 99 177
62 99 178
63 100 178
62 99 176
62 99 176
62 99 178
61 98 177
62 99 173
62 99 174
62 99 178
62 99 177
63 99 176
62 99 173
62 99 175
61 98 174
62 99 176
62 98 169
61 98 170
62 99 172
61 98 177
62 99 174
61 98 170
62 99 174
63 99 173
62 98 175
63 100 174
62 99 172
62 99 176
62 99 175
62 99 169
62 99 169
62 98 169
62 98 168
62 99 173
63 99 177
62 99 175
62 99 174
61 98 172
62 99 172
62 99 177
62 99 174
62 99 175
62 99 174
63 99 175
63 99 173
62 99 177
62 99 171
62 98 170
62 98 170
62 98 171
61 98 172
62 99 175
62 99 174
63 99 169
62 99 173
61 98 167
62 98 165
62 99 172
63 99 170
62 99 172
62 99 172
62 99 169
62 98 166
61 98 166
62 99 170
62 99 172
62 99 174
62 98 167
62 99 173
62 98 168
62 99 172
63 99 168
62 98 168
62 99 169
62 99 168
61 98 166
63 99 167
63 99 174
62 98 171
62 98 167
61 98 169
62 98 170
62 99 172
63 100 173
62 99 170
62 98 168
64 100 177
62 99 173
63 99 166
61 98 162
62 98 163
62 98 166
63 99 167
62 98 166
62 99 171
62 99 171
62 99 170
62 98 165
62 98 167
62 99 174
63 99 167
62 98 163
62 98 164
62 98 162
62 98 166
60 96 156
61 97 163
62 98 160
62 98 168
62 98 168
62 98 169
61 96 152
61 97 161
62 98 160
62 97 156
62 97 159
61 95 154
59 94 153
62 96 154
61 97 159
60 93 141
61 95 154
59 91 149
64 89 122
48 66 74
64 72 68
50 56 33
54 59 32
65 69 37
66 69 31
54 60 37
72 75 41
67 72 39
81 82 36
76 80 43
85 89 48
82 85 51
79 83 46
97 98 54
98 98 52
91 93 48
110 110 56
112 111 59
105 106 53
96 97 49
106 106 53
113 114 60
120 118 60
113 113 57
117 117 66
126 125 66
122 122 63
126 124 65
132 129 67
133 131 67
140 136 72
136 133 69
140 136 69
131 128 63
137 134 69
134 131 71
139 136 64
132 130 67
143 139 70
132 130 58
147 143 76
133 131 62
146 142 68
147 144 68
149 145 75
154 149 78
155 150 73
154 149 75
151 146 69
151 147 75
152 148 63
163 157 78
157 152 81
161 156 82
162 157 78
152 148 71
151 147 77
162 156 80
159 154 77
165 159 79
160 154 75
165 158 80
163 158 75
162 155 76
160 155 73
163 156 76
162 156 77
165 159 80
166 159 81
160 154 75
164 158 74
158 151 69
160 154 73
161 155 73
164 158 80
162 156 74
164 158 81
156 150 69
165 159 80
164 157 77
160 155 72
160 153 75
154 148 72
159 154 76
162 155 80
165 158 77
169 162 79
156 149 67
167 161 79
156 150 67
158 152 70
160 154 75
157 151 69
157 150 70
155 149 69
155 149 70
162 156 75
157 152 67
157 151 68
156 150 68
153 147 69
150 143 62
162 156 70
154 148 68
149 143 68
146 140 68
150 144 68
148 142 64
148 142 65
145 140 62
145 140 61
137 131 58
147 141 57
146 139 61
137 132 57
144 138 48
135 129 52
131 128 54
132 130 45
137 133 54
147 147 51
152 151 54
147 151 32
152 159 45
153 164 36
152 163 34
156 166 34
163 178 16
162 178 19
162 180 22
169 190 0
172 193 11
169 190 0
169 189 0
170 191 0
172 191 0
170 190 0
171 195 0
172 196 0
173 197 0
173 196 0
171 195 0
173 197 0
171 194 0
172 196 0
173 195 0
171 194 0
172 196 0
174 197 0
169 194 0
170 193 0
172 196 0
170 194 0
173 196 0
174 197 0
168 191 0
171 195 0
173 195 0
171 195 0
172 195 0
174 197 0
172 196 0
169 192 0
171 195 0
172 195 0
169 193 0
171 193 0
171 194 0
175 197 0
173 196 0
173 196 0
174 197 0
171 194 0
170 193 0
170 193 0
169 192 0
168 191 0
172 195 0
170 193 0
170 193 0
172 195 0
169 192 0
171 195 0
170 193 0
173 196 0
169 192 0
171 194 0
173 196 0
169 193 0
167 190 0
170 194 0
170 193 0
172 195 0
170 193 0
170 195 0
168 192 0
167 191 0
172 195 0
168 192 0
171 194 0
171 193 0
170 194 0
168 191 0
169 192 0
168 191 0
169 192 0
171 194 0
170 193 0
169 192 0
171 195 0
168 192 0
169 192 0
167 191 0
172 195 0
165 188 0
170 193 0
171 194 0
165 189 0
169 191 0
171 193 0
168 191 0
162 185 25
155 178 62
117 143 140
68 103 172
63 99 175
64 100 177
63 100 178
63 99 176
63 99 174
62 99 176
62 99 176
63 99 176
62 99 174
62 99 174
61 98 168
62 99 177
62 99 176
62 99 175
63 99 176
62 99 177
63 100 178
62 99 177
62 99 173
62 99 172
62 99 176
62 99 177
62 99 177
62 99 176
63 100 179
63 99 179
62 99 176
62 99 173
61 98 170
62 99 178
63 99 177
63 99 175
62 99 175
62 99 175
62 99 176
62 99 178
62 99 175
62 99 174
62 99 177
62 99 176
62 99 177
61 98 176
63 99 177
63 99 179
63 99 175
62 99 176
62 98 175
61 98 176
62 99 174
62 99 176
62 99 175
62 99 174
62 99 174
62 99 177
62 99 174
62 98 171
61 98 172
62 99 177
62 99 179
62 99 176
62 99 174
62 99 176
62 99 176
61 98 172
63 100 177
62 98 174
61 98 175
62 99 175
62 98 169
62 99 173
63 99 175
63 99 175
62 99 177
62 99 171
61 98 173
62 99 178
62 98 173
62 99 175
62 99 173
62 99 175
62 99 174
62 99 173
62 99 172
62 98 172
62 99 173
63 99 176
62 98 172
63 99 175
63 100 175
62 99 175
63 99 177
61 98 172
62 99 175
62 98 169
62 98 168
63 99 176
62 99 173
62 99 172
62 99 172
62 98 172
62 98 170
62 98 171
62 99 171
62 99 173
62 98 168
61 98 167
62 99 173
62 98 169
63 99 177
62 98 168
62 99 174
63 100 179
62 99 169
63 99 172
62 98 166
62 99 171
62 99 172
62 99 178
61 98 169
62 99 172
62 99 170
62 98 168
62 98 166
62 98 170
61 98 167
62 99 168
62 99 172
62 98 170
62 99 171
62 99 170
61 98 165
62 99 169
62 98 164
62 98 166
62 99 170
63 99 169
63 99 170
62 98 161
62 99 163
62 99 174
61 97 164
62 99 167
62 98 166
62 98 161
62 98 169
62 98 163
61 97 162
62 99 173
62 99 166
62 98 165
61 98 167
62 98 164
63 99 165
62 98 170
62 97 165
61 98 163
61 96 157
62 97 163
62 98 160
61 96 156
62 97 160
59 94 152
62 97 161
61 97 160
61 98 168
60 96 156
61 96 157
61 96 159
59 93 152
59 93 151
61 96 153
60 95 157
57 89 133
58 84 122
62 81 107
64 73 63
60 64 36
55 60 32
62 66 34
58 61 22
66 71 41
80 83 35
68 73 40
73 76 38
79 82 36
78 81 49
84 87 39
84 87 50
93 95 49
81 83 46
86 89 48
97 99 60
110 110 55
114 113 53
114 113 63
112 110 61
114 114 59
117 117 63
115 116 57
121 120 59
134 131 69
116 116 55
123 122 63
126 124 65
137 133 63
130 128 67
134 131 71
122 121 61
134 132 65
135 133 64
142 139 69
140 137 68
140 138 64
140 138 66
143 140 69
144 140 70
154 149 79
149 144 77
153 148 74
152 146 75
153 149 68
146 142 73
151 147 74
156 151 76
158 152 76
156 152 78
153 149 71
156 150 74
156 151 71
153 150 73
158 153 85
162 155 77
159 153 73
156 151 76
164 158 76
166 160 83
156 150 73
165 159 82
159 154 74
161 155 74
158 153 74
165 158 77
159 154 75
161 154 78
161 155 73
161 156 69
165 159 76
164 158 75
164 159 79
158 152 73
162 156 78
159 153 75
160 154 74
160 154 74
164 157 73
160 154 75
166 159 80
155 149 75
162 156 71
161 154 71
158 152 75
158 152 73
161 155 75
157 152 70
157 151 66
165 157 76
160 153 77
152 147 66
154 148 71
153 147 63
151 145 68
155 149 64
157 151 68
157 151 71
158 152 67
148 142 63
160 153 69
152 146 60
148 142 63
148 143 62
154 148 67
147 142 61
150 143 66
147 141 60
139 134 61
145 139 57
149 142 62
138 132 51
135 131 53
142 136 53
142 136 51
141 136 57
149 145 49
135 134 42
136 136 42
146 147 56
148 153 30
143 149 30
144 151 32
154 164 44
155 168 32
162 179 25
156 171 22
163 181 25
168 185 22
168 187 11
167 186 11
169 189 0
169 190 0
172 192 0
172 192 0
171 191 0
172 196 0
171 195 0
173 197 0
173 196 0
171 195 0
170 193 0
170 194 0
170 193 0
173 196 0
168 191 0
172 196 0
171 195 0
170 193 0
171 194 0
171 195 0
171 195 0
170 193 0
172 196 0
170 193 0
172 196 0
173 196 0
171 195 0
172 195 0
171 193 0
169 193 0
171 194 0
173 197 0
168 193 0
170 193 0
170 194 0
170 194 0
171 194 0
171 195 0
171 195 0
170 193 0
172 194 0
171 195 0
167 191 0
173 197 0
165 188 0
170 193 0
168 191 0
172 195 0
172 196 0
171 194 0
171 194 0
167 190 0
173 196 0
171 195 0
170 193 0
171 194 0
168 191 0
172 196 0
172 195 0
166 190 0
170 194 0
169 191 0
170 193 0
172 195 0
170 192 0
168 191 0
170 194 0
168 191 0
170 193 0
170 193 0
165 189 0
168 192 0
167 191 0
166 190 0
171 194 0
170 192 0
167 190 0
168 192 0
170 194 0
169 193 0
171 194 0
168 191 0
170 193 0
172 195 0
167 189 0
168 192 0
168 191 0
169 193 0
169 191 0
161 183 36
140 165 99
103 132 150
66 102 173
63 100 176
62 99 177
63 100 179
63 100 176
63 100 177
63 100 178
63 100 178
62 99 175
62 99 174
62 99 175
62 99 172
63 99 176
63 100 177
62 99 176
62 99 174
62 99 174
62 99 175
62 98 175
62 99 177
62 99 178
63 100 178
63 99 176
62 98 175
61 97 166
62 99 172
62 99 178
62 99 173
62 99 178
62 99 176
62 99 177
62 99 174
62 99 174
62 99 176
62 98 170
63 99 175
62 99 177
62 98 172
62 99 179
62 99 174
62 99 175
62 99 172
62 98 172
62 99 173
62 99 177
62 99 177
62 99 174
62 98 172
61 98 170
62 98 175
61 98 170
62 98 173
62 99 177
62 99 176
62 99 177
61 98 174
62 99 169
62 99 174
62 99 177
63 99 177
61 98 172
61 98 170
62 99 178
63 99 175
62 99 177
62 99 172
62 99 180
63 100 176
61 98 167
62 98 174
62 99 173
62 99 175
62 99 173
62 99 173
62 99 172
62 99 173
62 99 174
61 98 173
61 98 172
62 99 174
62 99 175
61 98 169
62 99 174
61 98 168
62 99 174
62 98 169
62 99 177
62 98 170
62 99 175
62 98 172
62 99 173
62 98 168
62 98 169
63 99 173
62 99 172
62 99 172
63 99 177
62 98 164
62 99 172
63 99 177
62 99 178
62 98 170
62 99 173
62 99 170
62 98 169
62 98 169
62 98 171
63 100 177
62 98 167
62 98 172
63 99 175
62 98 170
62 99 167
62 99 171
62 98 169
62 99 170
62 99 175
62 98 168
62 99 172
62 99 177
62 98 169
62 99 165
62 99 173
62 98 169
62 99 171
61 98 169
62 99 172
62 99 171
62 98 166
62 98 167
62 98 165
62 99 170
62 99 167
62 99 168
62 98 163
62 99 169
61 98 169
62 98 168
61 98 162
62 98 169
62 99 171
62 98 163
62 99 168
62 99 168
62 99 168
63 100 177
63 99 174
63 99 170
61 97 166
61 97 161
62 98 168
63 99 166
62 98 166
62 98 162
62 99 167
61 97 162
62 98 167
62 98 161
62 98 162
62 98 163
62 97 166
62 98 164
62 98 165
60 95 152
61 97 157
61 96 157
61 97 156
62 97 156
61 96 155
61 96 152
61 96 154
60 94 152
59 94 150
59 92 147
62 89 129
53 73 100
53 67 71
56 61 39
74 77 39
70 72 27
65 67 32
71 74 31
71 75 39
74 78 45
73 76 43
82 84 38
78 83 44
81 85 48
83 87 44
105 105 50
94 97 50
86 89 45
115 113 56
112 111 56
98 100 51
108 108 50
108 109 59
114 114 59
117 116 59
121 120 61
119 119 59
121 120 62
124 122 67
124 123 60
126 125 52
118 117 64
132 129 64
137 134 71
126 125 60
133 131 61
131 129 61
134 132 67
148 145 71
144 140 79
155 150 82
134 132 64
148 143 74
145 141 75
146 141 71
146 142 65
152 147 78
145 141 67
155 149 74
154 148 74
157 151 78
148 143 65
154 149 75
156 151 77
160 154 78
156 150 72
161 155 76
152 147 68
153 148 76
159 153 72
159 153 77
156 150 72
160 154 72
159 154 77
158 153 72
160 153 72
160 154 73
164 157 78
156 151 70
155 150 74
164 158 77
163 156 76
160 155 75
164 157 76
162 155 78
166 159 79
162 155 71
158 152 71
163 157 76
159 153 71
163 156 80
155 148 70
158 153 73
162 156 71
164 157 75
153 146 72
165 158 80
163 156 72
159 152 70
161 154 73
159 152 75
155 149 69
158 151 72
157 151 71
154 149 64
161 155 75
151 146 63
149 143 68
145 140 62
146 141 57
160 153 70
147 142 65
155 148 63
155 149 68
146 141 57
149 143 70
147 142 59
148 142 65
151 145 63
146 141 60
145 140 59
153 146 65
149 143 68
138 133 54
127 122 51
137 132 53
138 132 53
140 135 58
147 142 54
141 139 52
147 148 49
138 137 48
139 141 45
144 149 42
147 154 34
147 156 34
155 165 39
158 172 30
157 172 22
159 175 11
163 181 16
171 191 16
170 190 16
170 192 0
170 191 0
171 193 0
169 189 0
170 190 0
170 190 0
170 193 0
171 194 0
171 194 0
171 194 0
172 195 0
168 192 0
174 197 0
173 196 0
174 197 0
172 195 0
173 196 0
172 196 0
170 193 0
172 195 0
170 194 0
169 193 0
172 195 0
172 195 0
172 194 0
171 194 0
172 196 0
171 195 0
170 194 0
170 193 0
173 196 0
170 194 0
170 194 0
170 194 0
169 193 0
170 193 0
173 196 0
171 194 0
173 196 0
168 191 0
169 193 0
168 191 0
164 187 0
171 194 0
172 195 0
170 192 0
172 196 0
166 190 0
172 194 0
167 189 0
168 191 0
169 192 0
172 196 0
172 195 0
169 193 0
169 193 0
168 192 0
167 191 0
173 197 0
169 193 0
171 194 0
169 193 0
167 190 0
172 195 0
168 191 0
173 196 0
169 192 0
170 192 0
170 193 0
169 192 0
170 194 0
166 189 0
167 191 0
171 194 0
168 192 0
168 191 0
165 188 0
169 192 0
170 192 0
168 191 0
169 192 0
172 195 0
169 192 0
169 193 0
168 191 0
166 189 0
171 194 0
161 184 0
171 195 0
170 193 0
164 187 31
136 161 107
93 122 152
63 100 176
64 100 177
63 100 175
63 99 176
62 99 176
63 100 176
63 100 179
63 100 178
63 99 176
63 99 175
62 99 178
62 99 174
63 99 175
62 99 173
62 99 179
62 99 177
62 99 173
62 99 176
62 99 174
62 99 175
62 99 178
63 99 171
62 99 174
62 99 175
62 98 175
62 99 177
62 99 173
62 99 180
62 99 178
62 99 176
62 99 175
61 98 174
62 98 174
62 99 176
61 98 173
62 99 175
62 99 175
62 99 177
63 100 179
62 99 176
63 100 177
62 99 176
62 99 174
63 99 174
62 99 173
62 99 176
62 99 177
62 99 178
62 98 168
62 99 173
62 99 173
62 98 170
62 99 173
63 100 177
62 98 174
62 99 177
62 99 178
62 99 175
62 99 172
63 99 175
62 98 174
62 99 176
62 99 176
62 99 173
62 99 175
62 99 174
62 98 168
62 99 174
63 99 174
61 98 171
62 98 166
62 98 171
62 99 175
62 99 176
62 99 171
61 98 175
63 99 173
63 100 176
63 99 176
62 98 167
62 99 175
62 99 173
61 98 171
63 100 177
62 99 174
62 99 172
63 99 173
63 99 173
62 99 169
62 99 173
62 99 174
62 99 173
63 99 174
62 99 172
62 98 168
62 98 162
62 99 176
62 98 169
63 100 178
63 99 176
62 98 170
62 99 174
62 98 168
61 98 172
62 98 168
62 99 168
62 99 173
62 98 171
62 99 173
62 98 167
62 99 168
62 98 168
62 99 173
62 98 169
62 99 170
63 99 173
62 99 170
61 97 163
62 99 171
62 99 171
63 100 179
62 99 173
62 99 169
62 99 172
62 99 170
62 98 167
62 98 169
62 99 169
62 99 171
62 99 167
61 97 162
62 99 168
62 99 170
62 98 167
62 99 171
62 99 168
61 98 162
61 98 165
62 98 164
62 98 165
62 99 168
62 98 165
62 99 170
62 98 169
63 99 167
61 97 163
61 97 162
62 98 164
62 98 168
61 97 153
62 98 163
61 97 158
61 97 163
61 97 159
62 98 162
61 97 158
62 98 162
61 97 164
62 98 165
62 96 153
60 94 147
62 98 160
61 97 161
62 98 165
63 99 172
61 96 154
62 98 163
60 94 152
60 95 154
60 94 150
61 95 148
61 95 154
60 94 150
59 92 150
61 91 139
58 79 106
71 80 65
49 58 50
65 68 26
49 54 27
60 62 27
76 78 35
66 71 33
71 76 37
79 80 38
84 88 42
75 77 39
67 72 39
79 82 42
89 92 53
102 103 44
100 101 49
95 97 50
96 98 56
107 107 50
107 108 53
101 102 56
112 112 57
118 117 58
114 113 57
114 113 55
124 123 59
122 121 59
118 117 63
131 130 63
125 124 67
128 125 66
126 123 59
142 138 64
141 139 68
130 128 67
139 137 63
134 131 66
126 125 62
141 137 67
142 138 69
145 141 70
156 150 74
137 134 68
145 141 63
145 142 66
155 150 71
151 147 72
155 149 75
150 144 72
156 149 75
151 147 72
154 149 74
157 151 79
156 152 70
151 146 65
161 155 75
155 149 69
155 151 72
154 149 68
163 156 75
158 154 70
158 153 71
163 157 75
157 152 69
162 156 80
161 155 71
162 156 77
157 151 73
162 155 78
162 155 74
163 157 72
163 156 73
163 157 77
161 155 75
164 158 79
165 158 69
162 156 71
159 153 72
153 148 62
158 153 69
167 160 83
155 149 62
161 156 73
159 152 64
156 151 61
157 151 67
159 153 66
155 147 75
157 151 71
160 154 72
156 150 66
152 146 66
158 152 73
155 149 71
158 151 72
150 144 60
152 146 62
152 147 64
148 142 67
150 145 54
145 138 66
147 141 57
154 147 64
149 143 59
153 147 62
152 146 66
140 134 56
145 140 59
142 136 53
136 131 54
148 142 66
133 128 52
137 131 54
143 137 59
133 129 45
128 124 44
145 141 54
146 143 57
142 141 44
142 144 41
143 146 44
156 162 39
150 158 30
156 170 25
162 175 32
157 171 22
152 166 25
165 181 22
160 180 16
169 191 0
173 194 0
168 188 0
172 192 0
167 189 0
171 192 0
171 193 0
170 190 0
173 197 0
173 196 0
172 196 0
172 195 0
170 194 0
171 194 0
172 195 0
168 191 0
169 193 0
172 195 0
171 195 0
172 196 0
170 194 0
170 194 0
172 195 0
173 197 0
172 196 0
171 194 0
173 196 0
174 197 0
170 194 0
172 196 0
174 197 0
167 191 0
171 195 0
173 196 0
166 189 0
170 193 0
171 194 0
169 193 0
172 196 0
170 194 0
169 192 0
169 193 0
172 196 0
168 192 0
169 192 0
171 193 0
168 192 0
172 195 0
172 196 0
173 197 0
168 191 0
172 194 0
174 198 0
171 194 0
165 188 0
173 196 0
170 194 0
172 195 0
169 193 0
169 193 0
171 194 0
172 195 0
166 190 0
168 192 0
171 193 0
167 192 0
170 193 0
171 195 0
169 193 0
167 191 0
167 190 0
168 191 0
171 194 0
166 190 0
169 192 0
165 188 0
168 192 0
170 193 0
168 191 0
172 196 0
173 195 0
170 193 0
171 193 0
171 194 0
172 195 0
164 187 0
168 191 0
172 195 0
166 191 0
167 190 0
167 191 0
168 191 0
163 186 51
127 153 125
78 111 170
64 100 177
63 99 174
63 100 176
64 100 177
63 100 175
63 99 178
63 99 173
63 99 174
63 100 175
63 100 179
62 98 169
63 99 177
62 99 176
63 99 173
63 99 173
62 99 177
62 99 176
62 99 172
62 99 175
62 98 175
62 98 174
63 99 178
62 99 175
63 99 176
62 99 174
62 99 175
62 99 176
62 99 176
62 99 177
63 99 177
62 99 176
62 98 172
62 99 174
62 98 171
62 99 173
62 99 175
61 98 172
62 99 178
62 99 176
62 99 173
62 99 173
62 99 176
62 99 175
62 98 171
63 99 178
62 99 175
61 98 174
61 98 173
62 99 173
62 99 176
62 99 177
62 99 177
62 99 175
62 99 172
61 98 173
61 98 170
62 99 179
62 98 171
62 99 175
62 99 173
62 99 175
62 99 176
61 98 173
63 100 177
62 98 171
62 99 176
62 99 175
61 98 173
62 98 172
62 99 175
62 99 172
62 99 174
62 99 175
63 99 173
62 99 177
62 98 170
62 98 168
62 98 167
62 99 173
62 99 169
62 99 175
62 98 168
62 99 172
63 99 173
62 99 171
62 98 175
63 99 175
61 98 171
62 98 174
62 98 170
62 98 169
62 99 174
62 99 173
62 99 174
62 98 173
62 99 170
62 98 168
62 98 170
62 99 174
63 99 175
61 97 164
63 100 176
63 99 172
62 99 174
63 99 174
62 98 164
62 99 172
62 99 172
62 99 169
62 99 173
61 97 165
62 99 168
62 98 168
63 100 171
63 99 173
61 98 164
62 99 171
62 98 164
62 98 166
62 98 167
62 98 167
61 98 167
61 98 167
62 98 169
62 98 168
62 99 170
62 99 173
62 98 170
63 99 170
62 98 167
62 99 168
62 98 166
62 98 165
62 98 162
62 99 170
62 98 167
62 99 170
62 98 169
62 99 170
62 98 167
62 98 165
62 98 162
61 98 169
63 99 164
63 99 173
63 99 169
61 96 156
62 98 167
62 98 164
62 99 167
62 98 166
61 97 159
62 99 167
62 98 162
62 98 166
62 99 168
61 97 164
62 98 162
62 98 164
61 97 155
63 98 159
62 97 159
62 98 165
62 98 167
61 97 152
61 96 155
62 97 162
61 95 151
61 96 159
61 95 152
62 97 159
61 95 153
60 95 150
62 97 160
57 86 132
60 81 99
62 70 71
51 58 37
60 65 31
51 56 21
66 70 37
71 73 32
76 79 39
69 73 34
74 77 35
78 81 38
77 80 36
93 94 46
87 89 45
86 89 48
87 89 43
100 101 40
100 100 45
88 91 48
109 108 52
104 105 47
106 106 55
111 109 52
118 118 60
118 118 57
108 108 54
121 119 60
121 121 57
127 124 62
115 115 55
118 116 62
126 123 60
128 127 61
140 137 68
137 133 71
139 135 69
140 138 72
138 134 69
137 135 66
135 132 58
138 134 63
152 147 69
143 139 70
143 139 63
143 140 67
142 139 62
144 140 60
156 150 74
154 150 78
149 144 65
157 151 77
157 152 80
150 145 65
161 154 81
153 148 71
154 149 72
153 148 66
157 152 71
156 151 73
158 152 70
158 152 74
158 152 68
157 153 67
162 155 72
161 155 75
161 155 74
163 157 73
162 156 68
163 156 71
163 156 77
160 154 74
157 151 70
170 162 81
164 157 75
164 157 73
158 153 69
162 156 73
162 155 75
160 153 73
161 155 67
158 153 71
159 153 66
156 150 74
159 152 69
162 155 71
156 150 67
165 158 75
159 153 70
158 151 70
157 151 66
155 148 68
159 153 75
156 149 69
148 142 65
152 147 66
150 144 63
154 148 62
151 145 59
157 151 66
152 146 62
156 149 73
149 144 59
143 137 60
146 140 57
149 143 62
144 140 52
152 147 63
143 137 57
144 137 59
140 134 53
137 131 49
151 146 62
141 135 53
144 138 54
134 130 48
137 132 53
140 135 64
137 134 52
142 142 51
138 139 44
142 145 42
142 150 28
148 154 36
143 150 19
157 172 28
155 168 28
156 168 25
164 181 19
164 179 16
166 184 11
165 183 0
169 189 0
170 192 0
169 191 0
171 190 0
172 193 0
172 193 0
172 194 0
171 194 0
171 194 0
170 194 0
171 195 0
170 194 0
172 196 0
171 195 0
173 197 0
171 194 0
171 195 0
172 195 0
173 196 0
170 194 0
172 195 0
170 194 0
171 195 0
170 195 0
174 197 0
172 197 0
172 195 0
170 193 0
170 194 0
172 195 0
171 195 0
172 195 0
169 192 0
172 195 0
173 197 0
169 193 0
168 191 0
172 195 0
169 192 0
171 195 0
169 192 0
170 193 0
168 191 0
168 193 0
169 192 0
165 189 0
166 190 0
168 191 0
170 194 0
169 193 0
169 193 0
171 195 0
169 192 0
165 189 0
171 194 0
172 194 0
170 193 0
170 194 0
167 190 0
173 197 0
172 195 0
169 192 0
169 193 0
170 193 0
170 194 0
172 195 0
167 190 0
171 194 0
166 190 0
166 189 0
169 192 0
171 194 0
172 193 0
164 188 0
171 194 0
168 191 0
171 194 0
169 192 0
168 191 0
171 195 0
168 191 0
173 196 0
167 190 0
169 192 0
170 193 0
167 190 0
167 191 0
167 191 0
170 193 0
164 187 0
166 189 0
153 177 70
113 140 136
71 106 174
63 100 175
63 99 175
63 100 176
64 100 178
63 100 177
63 100 176
63 99 171
63 99 175
62 98 173
63 100 178
62 99 172
62 99 175
62 99 173
62 99 173
62 99 176
63 99 175
62 99 175
62 99 173
62 99 170
62 98 171
62 99 172
62 99 179
62 99 176
62 99 174
63 99 175
62 98 175
61 98 172
62 99 176
62 99 179
63 99 177
61 98 174
62 99 178
62 99 177
62 99 174
62 99 177
62 99 175
62 98 174
62 99 177
63 99 178
62 99 175
62 99 175
62 99 177
63 100 177
62 99 177
62 99 171
62 98 170
62 99 178
61 98 175
61 98 172
63 100 175
63 99 175
61 98 175
61 98 173
62 98 173
62 98 173
62 99 176
62 99 174
62 99 178
62 99 174
62 99 172
61 98 169
62 99 173
62 98 175
62 99 173
62 99 167
62 99 178
62 99 177
61 98 166
62 99 174
63 99 175
62 99 174
62 98 168
62 98 169
62 98 170
63 99 173
63 99 175
62 99 172
62 99 170
63 99 173
62 98 165
62 99 177
61 98 169
62 99 170
62 99 172
62 99 177
62 98 170
62 99 172
62 98 170
62 99 175
62 99 174
62 99 173
62 98 168
62 99 171
62 98 172
62 99 172
61 98 166
62 99 175
62 99 174
63 99 170
61 98 168
62 99 174
62 98 170
62 99 173
62 98 170
62 99 168
62 99 175
62 98 169
63 99 171
62 99 172
63 99 172
62 99 171
62 99 172
62 99 174
61 98 167
62 98 165
61 98 164
62 99 170
62 99 173
62 99 171
62 99 172
62 98 168
62 98 166
62 98 167
62 98 165
62 99 166
63 99 165
62 98 163
61 98 164
62 98 164
62 98 164
62 99 169
63 99 167
62 98 164
61 98 166
62 99 170
61 97 162
62 99 166
63 99 174
63 99 172
63 99 170
62 98 171
62 98 166
61 98 163
63 99 169
62 98 163
62 98 164
62 98 163
62 99 166
62 98 165
62 97 162
62 98 161
61 97 158
61 98 162
62 98 166
62 98 165
61 97 158
62 98 165
61 96 159
61 96 158
62 98 164
61 97 159
61 96 152
61 97 160
61 96 154
62 97 158
62 97 157
62 97 156
62 97 155
61 96 158
61 95 157
61 96 153
60 95 157
60 95 151
61 95 152
58 92 149
61 87 120
72 84 86
63 70 54
68 71 36
62 66 30
77 79 29
72 75 23
73 75 21
73 76 35
63 69 37
80 82 39
92 94 46
81 84 39
88 90 43
98 99 45
88 91 48
88 92 44
91 93 39
98 99 39
108 108 55
93 94 43
115 114 51
111 111 57
105 105 49
110 111 50
124 122 61
119 118 57
131 129 61
118 116 59
124 123 60
124 122 54
121 120 48
123 123 59
134 132 62
122 121 59
140 137 70
126 125 58
142 139 68
139 136 63
141 137 72
137 134 64
142 139 63
146 142 66
138 135 57
141 137 64
146 141 66
153 148 70
140 136 68
154 149 67
158 153 70
151 146 72
149 144 70
154 149 70
151 145 70
150 146 67
156 151 75
159 153 70
153 148 69
162 155 75
154 149 69
158 152 75
163 157 78
159 153 71
161 154 78
160 154 75
155 150 65
159 153 70
161 154 77
158 152 71
160 154 73
162 155 77
162 156 75
160 153 73
159 153 69
156 151 65
162 156 74
153 148 66
158 152 69
157 151 75
155 149 67
159 153 73
158 151 68
159 152 74
158 152 67
163 155 75
158 151 69
155 148 72
152 147 66
154 148 69
154 149 61
150 146 57
149 143 60
156 150 67
149 143 61
157 151 68
156 149 68
154 148 68
151 146 59
154 148 64
143 138 54
150 144 70
154 148 65
143 137 56
137 133 54
148 141 59
151 144 61
151 145 65
137 132 51
136 131 45
149 142 63
146 140 62
138 132 53
139 134 53
147 140 60
134 129 51
145 138 63
139 137 36
133 129 52
139 140 47
146 146 47
145 154 36
145 150 42
145 151 37
147 157 32
154 167 25
157 173 16
159 175 19
162 177 16
162 181 0
165 182 0
169 188 0
170 189 0
170 190 0
170 191 0
172 193 0
170 190 0
169 189 0
174 193 0
173 196 0
173 196 0
171 195 0
173 196 0
174 197 0
171 194 0
171 194 0
172 195 0
172 195 0
171 194 0
173 197 0
171 194 0
169 193 0
171 194 0
172 195 0
170 193 0
170 195 0
171 195 0
170 193 0
170 194 0
172 195 0
175 198 0
173 196 0
167 191 0
173 196 0
170 193 0
168 191 0
172 195 0
171 194 0
172 196 0
170 193 0
170 193 0
170 193 25
170 193 0
169 192 25
173 196 0
170 194 0
170 194 0
172 195 25
170 193 0
170 194 0
170 194 0
169 193 0
170 194 0
171 195 0
170 194 0
169 193 0
171 195 25
164 188 0
170 193 0
172 195 0
170 194 0
168 192 0
170 195 0
171 195 0
168 192 0
168 191 0
169 193 0
169 193 0
171 194 0
165 187 0
170 193 0
171 194 0
168 192 0
171 194 0
171 195 0
170 193 0
171 193 0
169 192 0
170 193 0
169 192 0
170 194 0
168 192 0
166 190 0
170 193 0
168 192 0
168 190 0
168 192 0
170 193 0
166 190 0
168 192 0
170 194 0
168 192 0
164 187 25
158 182 72
122 148 128
70 105 172
63 100 175
63 100 175
63 100 177
63 100 176
63 99 172
62 99 174
63 99 178
63 100 176
62 99 177
63 100 179
63 100 179
62 99 175
62 99 177
63 99 176
62 99 176
62 99 172
62 99 175
62 99 175
61 98 173
62 99 176
62 99 176
62 99 177
62 99 172
62 99 177
62 99 179
62 99 175
62 99 180
62 98 173
61 98 170
62 99 178
62 99 178
62 98 171
62 99 180
63 99 175
62 99 176
62 98 174
63 99 176
62 99 178
62 98 173
62 99 175
62 99 172
62 99 175
62 99 177
62 99 177
62 99 173
63 99 173
62 99 175
62 99 174
63 99 174
63 99 176
62 98 173
62 99 174
62 99 175
63 100 177
62 99 173
62 99 171
62 99 179
61 98 171
62 99 173
62 99 171
61 98 172
62 99 171
62 99 176
63 100 177
62 99 171
62 99 175
62 98 172
62 99 178
62 98 167
62 98 174
63 99 179
62 99 173
62 99 171
62 99 173
62 99 174
62 98 172
62 99 173
62 99 174
62 99 175
63 99 178
62 98 170
62 99 173
63 99 176
61 98 170
62 99 175
62 99 174
62 99 174
62 99 172
61 97 167
63 99 172
62 99 174
62 99 172
61 98 172
62 99 173
62 99 173
62 98 166
62 99 170
63 99 169
61 98 170
62 98 166
62 98 169
62 99 172
62 99 173
62 99 171
62 98 170
61 98 168
62 99 169
62 98 165
62 99 169
62 99 171
62 98 172
63 99 173
61 98 164
62 99 173
63 100 174
62 98 170
62 99 176
62 98 169
62 99 168
63 100 175
63 99 170
61 98 166
63 99 170
62 98 164
62 99 172
62 98 163
62 99 174
61 98 168
62 98 170
62 98 167
62 98 164
62 98 169
62 99 172
62 98 170
62 98 164
61 97 162
62 98 162
63 99 170
61 98 168
63 100 173
62 98 167
62 99 172
62 99 167
62 99 170
62 98 165
62 98 165
61 96 160
63 98 165
63 99 167
63 99 171
62 97 158
62 99 167
62 98 161
62 98 163
62 97 165
62 98 164
61 97 156
62 98 155
63 99 167
61 97 158
61 97 159
62 98 162
62 98 161
61 96 159
61 96 158
61 96 158
62 97 160
61 96 158
61 96 157
60 94 148
61 96 156
61 95 155
60 94 153
61 95 149
57 89 135
62 87 129
69 84 101
65 74 60
54 60 28
65 69 28
69 73 30
72 75 27
63 67 21
75 76 31
83 83 33
74 77 37
84 86 45
77 80 40
73 76 29
88 90 43
96 97 46
93 94 46
98 99 52
106 107 46
94 95 41
98 100 49
98 100 50
101 103 45
111 111 54
107 107 54
103 104 43
112 112 54
129 126 58
122 119 60
119 118 49
126 125 54
127 124 53
131 127 63
137 134 65
136 133 71
137 133 63
134 130 66
137 134 57
140 136 61
133 130 60
139 135 66
135 132 59
143 138 63
141 139 67
138 135 63
147 143 70
154 149 71
149 144 65
149 144 76
148 144 70
150 145 71
158 151 71
150 145 70
143 140 67
155 150 71
152 146 70
155 150 70
154 149 72
155 149 67
149 143 68
160 153 75
153 148 64
155 150 72
159 153 72
162 155 74
159 153 67
159 153 71
163 156 74
160 154 67
154 149 66
153 147 64
164 157 75
152 148 60
159 153 69
152 146 63
163 157 73
157 151 65
153 147 59
160 154 72
156 149 66
158 152 65
154 148 72
157 152 73
158 152 72
153 148 61
154 149 61
163 156 75
154 149 61
148 143 62
152 146 59
152 146 61
157 150 66
151 146 60
154 147 66
154 148 66
157 151 64
149 143 67
160 154 64
149 143 61
152 144 70
150 144 61
143 137 54
153 147 69
144 138 59
142 136 57
149 144 64
136 132 53
148 143 60
138 133 52
147 142 57
143 137 56
137 132 57
145 138 58
127 123 44
142 138 57
144 140 51
139 137 41
138 139 45
143 142 45
137 142 32
147 152 42
139 147 30
151 160 39
151 164 30
166 177 34
158 174 25
158 173 25
162 179 16
167 187 11
165 187 0
170 191 0
162 182 0
168 189 0
168 189 0
173 193 0
166 187 0
171 190 0
169 189 0
174 197 0
173 196 0
174 197 0
172 195 0
170 194 0
171 195 0
171 195 0
170 194 0
171 194 0
172 196 0
171 194 0
169 193 0
171 194 0
170 194 0
171 194 0
167 191 0
176 198 0
170 193 0
171 194 0
169 193 0
170 193 0
171 194 0
174 197 0
170 194 0
168 191 0
172 195 0
168 192 0
174 197 25
171 194 36
170 194 25
166 190 0
172 196 0
170 193 36
170 194 25
170 193 0
170 193 25
170 194 0
169 192 25
170 194 36
172 195 0
172 195 0
170 193 0
168 191 25
171 195 36
169 192 44
167 189 25
168 192 0
169 192 0
173 196 0
168 192 25
172 195 25
169 192 25
171 194 0
167 190 0
171 195 0
170 194 25
168 191 0
170 193 0
169 192 0
166 189 0
170 194 0
170 193 0
170 193 0
171 195 0
171 193 0
172 195 0
169 192 0
169 192 0
168 191 0
167 191 0
168 190 0
165 188 0
169 191 0
164 186 0
169 192 0
168 192 0
166 189 0
166 190 0
170 193 0
165 188 0
168 191 0
168 191 0
170 192 0
168 191 25
141 165 96
109 135 137
67 102 169
63 99 172
64 100 174
63 99 172
63 99 172
63 99 174
63 100 178
63 100 177
62 99 174
62 99 174
63 99 173
62 98 173
62 99 176
62 99 175
62 98 172
62 99 178
63 99 175
63 100 177
61 98 174
61 98 170
62 98 172
62 99 177
62 99 177
63 99 176
63 100 177
63 100 177
61 98 170
62 98 174
63 99 173
61 98 175
62 99 175
61 97 174
62 98 170
62 99 175
62 99 173
62 98 172
62 99 174
62 99 175
63 100 177
62 98 170
62 99 177
62 98 173
61 98 172
63 99 172
62 98 172
62 99 177
62 98 171
62 99 174
61 98 175
62 99 175
62 98 170
62 99 175
62 99 176
62 99 172
62 99 176
62 98 170
62 99 173
62 99 175
63 99 176
62 99 174
62 99 176
62 99 174
62 98 170
62 99 175
62 99 176
62 99 172
62 99 170
62 99 174
62 99 176
62 99 173
62 99 173
62 99 173
62 99 175
62 99 175
63 99 176
63 99 173
62 99 174
62 98 167
63 99 174
61 98 169
63 99 175
62 98 171
62 98 167
61 98 172
62 99 176
62 99 175
62 99 174
62 99 170
62 99 170
62 99 173
62 98 170
62 99 175
62 98 167
62 99 171
62 99 169
62 99 173
62 99 168
62 99 169
61 98 169
61 98 169
63 100 176
62 99 170
61 98 166
62 99 173
63 99 170
62 99 171
62 98 171
63 99 175
62 98 168
62 99 171
62 99 175
62 98 169
62 98 169
62 99 173
62 98 169
62 98 169
62 99 173
62 98 168
62 98 160
62 99 168
62 99 169
61 98 165
62 98 168
63 99 171
62 99 170
62 99 169
63 99 167
62 99 169
63 99 172
62 98 162
63 99 171
62 98 166
62 98 169
62 98 165
62 99 170
62 99 165
61 98 160
62 98 161
62 98 166
63 99 168
61 97 167
63 99 169
62 98 166
62 98 159
62 99 164
62 97 155
62 98 165
63 99 171
62 98 166
63 99 173
62 98 162
62 98 166
62 98 162
61 97 155
63 99 166
62 98 167
62 98 163
61 97 159
62 98 165
61 96 154
62 98 163
62 97 157
61 97 162
62 98 165
61 96 156
61 97 157
60 95 152
61 96 155
60 95 147
61 97 157
61 96 152
60 95 151
61 96 158
61 96 156
58 91 135
59 92 139
62 90 131
68 83 98
61 67 36
63 66 31
56 59 20
65 68 24
72 75 38
73 76 31
68 73 29
75 77 34
76 77 33
86 86 30
87 88 43
86 88 35
89 91 38
104 104 44
91 93 43
104 104 45
79 83 42
100 100 47
109 108 54
115 113 57
117 115 55
115 114 52
101 103 51
113 113 59
111 109 48
125 122 49
127 125 55
121 120 51
118 116 49
128 126 64
122 120 53
129 126 58
128 126 61
130 128 57
141 138 63
139 136 60
145 140 67
139 135 61
142 138 69
144 140 66
142 138 59
151 146 74
143 140 63
143 139 60
142 138 67
152 146 67
144 140 56
146 142 64
153 147 68
155 149 80
148 144 64
152 147 66
155 150 67
160 154 77
154 149 77
155 150 65
155 149 65
154 149 72
157 151 71
154 149 65
161 154 77
159 153 72
153 148 68
155 150 62
158 152 64
160 154 69
156 151 63
156 151 66
157 150 64
160 155 63
157 151 65
160 153 66
162 156 68
161 154 69
163 158 76
156 150 66
150 145 62
152 146 66
158 152 65
154 148 68
162 154 69
159 152 70
155 148 65
155 149 65
151 146 58
161 155 72
148 142 58
155 150 62
149 143 62
150 144 61
153 146 67
146 141 57
152 147 59
149 143 60
158 152 66
142 137 57
154 148 64
151 144 66
146 140 56
143 138 52
151 145 63
154 149 63
144 138 65
135 131 45
147 141 61
146 140 57
139 133 54
145 140 52
138 133 51
141 135 52
138 132 53
134 128 48
126 122 44
136 134 52
136 137 39
142 142 44
138 141 41
146 149 37
144 148 36
150 156 37
147 158 25
149 160 19
157 169 25
154 171 16
158 174 11
162 181 0
167 185 22
170 190 11
169 191 0
172 191 0
171 190 0
169 189 0
168 189 0
170 191 0
166 186 0
169 190 0
172 195 0
171 194 0
173 196 0
171 195 0
170 194 0
170 194 0
172 195 0
169 192 0
174 197 0
175 198 0
170 194 0
170 193 0
172 196 0
171 195 0
171 195 0
169 191 0
168 192 0
170 193 0
172 196 44
171 195 0
172 195 25
170 194 0
172 196 0
170 193 25
171 195 25
171 195 25
174 197 51
167 191 0
171 193 44
173 196 44
173 196 25
171 194 36
171 194 0
169 192 0
171 193 25
171 195 25
172 196 51
171 194 0
170 193 25
173 196 25
174 197 51
171 195 36
169 192 25
170 193 25
169 192 36
172 195 44
172 195 51
168 192 25
169 191 36
172 195 0
172 195 25
171 194 0
168 191 44
169 193 0
171 195 25
172 195 25
168 192 0
171 194 0
167 189 0
170 193 25
168 193 0
172 194 0
168 191 0
169 192 0
168 192 0
167 190 0
166 189 0
172 194 0
169 192 0
171 194 0
171 194 0
170 194 0
171 195 0
169 192 0
172 195 0
167 190 0
168 193 0
166 189 0
165 188 0
171 194 0
167 190 0
163 187 0
165 188 0
163 186 25
146 169 86
111 138 148
63 99 171
63 100 176
62 98 169
63 99 173
62 98 171
63 99 174
63 99 175
63 99 176
63 99 175
62 99 173
63 100 177
63 100 178
63 99 176
63 100 176
62 99 177
62 99 175
63 100 176
62 99 174
62 99 176
62 99 176
63 99 175
62 99 175
62 99 175
62 98 173
63 99 175
62 98 175
62 99 174
62 99 171
62 99 174
63 99 176
62 99 174
62 99 176
63 99 176
62 99 174
62 99 174
61 99 177
62 99 178
62 98 175
62 99 174
63 99 178
62 99 176
62 98 172
61 98 172
62 98 173
62 98 167
61 98 169
62 99 175
61 98 177
62 99 172
62 99 176
62 99 176
62 99 175
63 99 174
63 99 178
62 99 174
62 98 170
62 98 169
63 99 176
62 98 171
62 99 172
61 98 170
62 98 172
62 99 172
62 99 175
62 99 170
62 99 174
62 99 173
62 98 172
62 99 177
61 98 169
62 99 172
62 99 172
62 99 173
62 99 171
62 99 170
62 99 172
63 100 175
62 99 176
63 99 174
61 98 172
62 99 173
61 98 166
62 98 172
62 98 170
63 99 170
62 98 167
62 98 169
62 99 174
62 98 160
62 99 170
62 99 170
62 98 170
62 98 169
62 99 175
62 99 172
62 98 168
62 99 174
62 99 175
62 99 171
62 98 170
62 99 173
63 99 170
61 98 170
61 98 165
63 99 174
62 98 165
62 99 173
62 98 165
62 98 170
62 98 167
62 99 168
62 98 168
62 98 168
62 99 168
62 99 173
62 98 167
62 99 172
63 99 174
62 98 168
62 99 166
62 98 165
62 99 174
62 99 168
62 98 164
62 99 169
61 97 163
62 99 171
61 97 160
62 99 168
63 99 168
62 98 167
62 98 167
62 98 167
63 99 167
61 97 164
63 99 172
62 99 168
62 98 163
61 98 162
62 99 168
62 98 163
62 99 168
61 97 160
61 97 154
62 98 165
63 99 169
62 98 166
62 98 167
62 98 165
62 98 165
62 99 166
63 98 162
63 99 173
62 98 163
63 98 166
62 98 158
62 98 163
62 98 166
62 98 161
62 98 162
62 98 161
61 96 160
60 95 155
61 97 167
61 97 164
61 96 152
61 97 159
62 97 159
62 98 157
61 97 159
60 94 151
61 96 157
59 93 146
60 94 147
60 94 151
59 91 137
58 83 112
65 81 99
65 71 56
61 63 34
54 58 32
77 79 28
78 79 30
75 77 32
76 79 27
85 86 39
75 77 28
89 90 37
78 78 42
86 87 39
88 89 42
92 93 37
88 90 41
96 97 40
102 102 50
105 105 48
100 100 35
100 101 49
104 104 52
115 114 56
110 110 53
126 123 57
117 116 61
130 126 64
120 118 48
128 125 61
129 125 57
122 120 49
122 121 50
124 122 50
135 131 59
118 115 58
131 128 63
127 125 60
137 133 63
142 138 71
142 138 64
138 135 67
143 139 64
136 132 63
147 143 72
149 145 68
149 144 68
143 140 67
151 147 65
143 140 55
145 140 69
148 144 64
149 144 69
149 143 64
157 150 69
140 136 64
155 149 71
150 145 64
151 146 62
159 153 72
155 149 71
154 149 67
158 152 70
157 151 67
155 150 69
159 152 66
156 150 66
159 153 70
161 155 77
153 147 63
158 152 63
159 153 64
160 153 71
165 159 77
152 146 71
160 154 65
160 153 70
154 149 65
156 149 69
158 153 64
162 156 72
150 145 70
156 149 66
157 151 69
157 150 66
153 148 67
157 150 67
152 145 64
156 150 64
158 152 68
149 143 56
155 150 64
152 146 61
148 142 51
149 143 62
154 148 72
148 143 61
147 141 58
155 149 59
144 138 61
155 147 69
144 138 58
157 150 71
140 135 45
141 136 54
149 143 56
149 144 60
147 141 63
146 140 60
137 131 56
140 134 54
136 130 52
134 129 47
139 135 49
139 137 39
141 138 41
144 142 47
147 147 48
138 141 42
145 152 41
140 149 28
149 159 22
159 169 42
159 172 25
159 173 22
156 170 19
165 183 11
168 188 11
168 186 0
171 190 0
168 187 0
170 188 0
166 186 0
169 188 0
168 187 0
167 187 0
169 190 0
167 188 0
168 192 0
170 193 0
175 197 0
172 196 0
171 194 0
170 194 0
173 195 0
172 195 0
173 195 0
167 192 0
172 196 0
172 195 25
169 192 0
172 196 0
171 195 25
167 190 0
170 194 0
172 195 44
168 193 0
173 196 36
171 194 36
171 195 25
170 192 0
173 196 25
170 194 25
172 195 36
172 195 36
171 194 25
173 196 36
174 196 57
174 197 44
171 194 36
171 193 44
171 195 0
173 196 44
170 193 44
173 195 62
173 196 44
171 194 36
170 192 25
170 193 51
171 194 25
175 198 51
172 195 44
173 195 51
174 196 51
172 195 36
170 194 25
171 193 25
171 194 36
171 194 44
171 194 36
170 193 25
170 192 36
169 193 36
166 189 51
167 191 36
173 196 51
168 191 57
174 197 36
170 193 36
176 198 36
172 195 25
168 191 25
169 192 0
166 190 25
170 195 25
165 189 25
170 193 0
168 191 0
165 187 0
170 193 0
168 192 0
167 190 0
167 190 0
168 192 0
168 192 0
167 190 0
169 192 0
166 189 0
164 188 0
171 194 0
167 190 0
166 189 40
141 165 105
91 121 153
63 100 168
64 101 177
64 100 178
63 100 175
63 100 173
63 100 178
63 99 171
63 100 178
63 99 171
63 99 176
63 99 173
63 100 178
62 99 176
63 100 178
62 98 175
62 99 175
62 99 175
62 98 173
62 99 174
62 99 176
62 99 175
61 97 171
62 99 177
62 99 175
63 99 177
62 99 175
63 99 173
62 98 170
62 99 174
62 98 171
62 99 177
62 99 172
61 98 175
62 98 173
62 99 173
62 99 174
61 98 168
62 99 173
61 98 172
62 99 177
62 99 169
62 99 173
62 99 174
62 98 172
62 99 176
62 99 172
63 99 173
62 99 171
62 99 174
62 99 171
63 99 173
63 100 178
62 99 173
62 99 173
62 99 177
62 98 171
62 99 175
62 98 174
62 99 173
62 99 173
62 99 173
62 99 176
63 99 174
62 99 172
63 100 176
63 99 175
61 98 174
62 98 170
62 99 176
61 98 176
63 99 172
62 99 174
62 99 172
61 98 170
61 98 173
62 99 173
62 99 174
62 99 175
61 98 168
62 99 173
62 98 168
62 99 170
62 99 169
62 99 170
62 99 170
61 98 166
62 98 171
61 98 171
62 98 169
62 98 169
61 98 172
62 98 168
62 98 167
61 98 168
63 99 175
62 99 168
63 99 171
62 98 167
62 99 169
61 98 167
63 99 172
62 99 174
62 98 164
63 99 174
62 99 170
62 98 161
62 98 168
63 99 177
62 98 170
62 98 168
62 99 168
62 98 171
62 99 170
62 99 169
62 98 162
63 99 173
63 99 172
62 98 170
62 99 167
62 98 167
62 99 171
62 99 170
62 98 163
61 98 165
62 98 168
62 98 170
62 99 167
62 98 168
63 99 163
62 99 166
63 99 169
62 98 165
61 97 162
62 99 166
62 98 166
62 98 164
62 99 170
63 99 165
62 98 166
62 98 166
62 99 171
63 99 167
62 98 162
62 98 167
62 98 166
62 98 159
62 98 158
63 99 166
62 98 166
62 98 160
62 98 158
62 98 162
61 97 162
61 97 161
62 97 161
61 97 160
62 97 158
62 98 162
61 97 159
61 97 159
62 98 165
62 97 156
61 97 156
62 97 158
61 97 154
60 95 152
61 95 154
61 97 160
61 97 163
61 97 155
61 96 150
60 95 147
61 96 161
61 97 156
60 94 145
60 93 143
61 91 131
60 80 97
56 66 52
66 70 31
75 77 24
56 61 31
69 72 24
71 74 33
83 83 30
73 74 33
71 73 38
71 73 23
86 88 36
79 82 33
84 86 39
96 97 36
91 92 44
91 91 43
88 91 38
98 100 40
97 96 43
108 107 42
115 114 52
113 112 42
114 112 48
109 109 44
106 106 49
116 116 51
116 115 53
124 122 61
126 123 59
123 122 53
127 125 56
136 131 61
129 126 56
129 125 63
123 120 55
141 136 65
132 129 57
131 126 54
139 136 55
139 135 65
149 143 70
138 134 61
134 132 50
145 141 66
143 139 62
148 143 64
145 141 61
140 137 64
152 146 67
150 144 71
149 144 61
149 145 60
156 150 69
160 154 72
152 146 72
158 152 73
161 155 76
152 147 63
152 147 65
155 150 66
157 152 69
154 148 64
151 145 55
159 153 72
157 152 63
157 151 71
153 147 60
156 151 67
164 157 78
157 151 73
159 152 70
157 150 68
155 148 66
152 146 61
153 149 57
159 153 62
157 150 69
161 154 72
158 152 67
151 145 61
160 153 69
154 148 63
151 145 65
158 151 65
147 141 48
150 144 59
151 145 67
151 146 64
153 147 54
152 145 59
152 146 64
149 143 60
152 146 61
149 142 63
151 145 56
146 141 59
145 139 53
147 140 59
150 143 63
152 146 62
146 141 56
155 149 62
138 134 49
141 136 54
136 132 53
142 137 53
133 127 41
133 127 44
138 133 52
149 143 61
143 137 56
146 142 53
143 140 42
140 142 32
138 138 47
141 140 45
145 150 34
147 154 25
152 161 34
152 163 28
158 168 36
161 176 22
153 168 16
162 180 22
163 182 0
165 182 11
168 188 0
170 192 0
169 190 0
166 184 0
171 189 0
170 189 0
169 189 0
171 193 0
169 189 0
171 191 0
171 195 0
169 192 0
172 195 0
170 194 0
167 191 0
173 197 0
173 197 0
172 194 0
169 192 25
169 193 0
171 195 25
169 193 25
173 197 25
169 193 25
169 192 0
173 196 25
171 195 25
170 193 25
171 194 25
171 195 25
173 196 25
171 194 0
169 192 0
175 198 44
172 195 36
174 197 44
170 193 36
175 197 57
170 194 44
173 195 57
176 198 72
174 197 51
173 196 44
174 197 57
171 194 51
173 196 67
172 195 51
171 195 25
172 195 57
171 194 51
171 194 44
169 192 44
169 193 25
166 190 25
177 199 67
166 188 25
173 195 44
172 196 44
171 194 44
170 193 44
172 195 25
171 195 57
170 194 51
170 193 36
175 197 51
169 192 36
171 194 44
174 198 51
173 197 36
171 194 36
169 191 0
165 189 25
175 198 36
169 192 25
168 191 0
166 189 25
171 194 25
168 191 25
166 189 25
164 188 0
168 191 0
167 191 0
166 190 0
168 191 0
169 193 0
169 191 0
165 189 0
168 191 0
168 191 0
166 188 0
169 192 0
167 190 0
167 191 0
161 185 57
134 159 110
93 122 155
63 100 176
63 99 172
63 99 172
64 100 175
62 98 169
63 99 175
63 100 179
63 99 172
62 99 177
62 99 172
63 99 173
63 99 173
62 99 173
62 99 177
63 100 176
62 99 175
63 100 175
62 99 176
62 98 171
62 99 176
62 98 172
62 99 172
62 99 172
61 98 173
62 98 176
62 98 172
62 99 174
61 98 173
62 99 175
62 98 174
62 99 177
62 99 176
63 99 174
62 99 173
62 99 174
62 99 173
62 98 173
63 100 175
62 99 174
62 99 176
62 99 177
62 98 167
62 99 175
61 98 171
62 99 175
62 99 173
62 98 174
61 98 169
62 99 177
62 99 173
62 99 176
62 98 172
63 99 176
62 99 174
62 99 175
63 99 173
62 99 170
62 99 173
61 98 169
62 99 175
62 98 169
62 99 172
62 98 171
63 99 172
62 99 177
62 99 172
62 99 174
62 98 168
62 98 174
62 99 175
62 99 170
61 98 168
62 98 171
62 99 175
61 98 165
62 99 176
62 98 169
62 98 168
63 99 177
62 98 171
62 99 174
63 99 174
61 98 166
62 98 170
62 99 173
62 98 173
62 98 167
62 99 172
62 98 169
62 99 171
62 99 172
62 98 169
62 98 169
62 98 167
62 98 171
62 99 171
62 98 163
63 99 169
62 98 171
62 98 170
62 99 171
62 98 172
62 99 172
62 98 165
61 97 161
62 98 164
62 99 170
63 99 172
63 99 170
61 97 164
61 98 169
63 99 175
63 99 173
62 99 173
62 99 169
63 99 169
62 99 168
62 98 165
63 100 170
62 98 164
61 98 167
62 99 167
63 99 171
62 98 169
62 98 165
62 99 165
63 99 172
62 98 167
62 99 168
62 98 166
62 98 169
61 97 160
61 97 161
63 99 169
62 98 164
63 99 169
62 98 162
62 98 166
62 98 163
62 98 168
61 98 165
63 99 171
62 98 166
62 98 167
61 98 159
61 97 161
62 98 158
62 97 158
62 98 164
62 99 165
61 97 152
62 98 166
62 98 167
61 97 162
62 98 166
62 98 164
62 97 158
62 99 165
62 98 163
62 98 163
61 96 153
62 98 161
62 97 156
61 96 159
62 97 162
61 97 157
62 97 154
61 96 156
62 97 157
62 97 160
62 98 166
61 96 153
59 94 148
60 93 151
60 93 148
59 92 145
62 92 136
59 82 114
68 77 68
67 68 33
63 67 31
85 85 29
69 71 30
74 77 33
77 78 32
77 79 33
81 81 32
85 87 37
76 79 33
87 90 40
83 85 42
89 92 35
84 85 37
98 99 36
95 97 36
98 99 44
103 103 42
107 107 36
117 116 44
112 110 51
114 113 52
117 116 46
108 108 46
133 129 62
109 109 48
120 119 57
121 119 52
128 126 56
130 126 56
130 127 54
123 120 60
133 130 55
121 120 54
139 135 59
144 140 60
143 140 68
130 128 61
141 138 64
139 136 60
141 137 60
145 142 61
145 140 56
149 143 65
147 143 58
153 147 73
147 142 68
147 143 63
154 149 68
147 142 66
148 144 63
156 150 71
149 144 65
146 141 60
153 148 69
156 150 64
147 142 62
152 147 68
150 146 60
156 151 62
151 146 59
155 149 70
156 151 66
157 151 68
155 149 64
158 152 69
153 147 61
158 152 66
158 151 72
160 154 68
150 144 65
155 150 65
154 148 62
163 156 72
158 152 62
155 149 69
153 148 63
147 142 62
157 151 68
155 149 60
152 145 58
153 147 61
155 149 68
152 146 59
155 149 57
154 149 61
153 147 63
150 144 61
146 140 58
151 145 65
149 143 62
148 142 59
147 141 57
149 143 65
146 140 58
151 145 59
148 142 54
153 146 58
138 133 45
146 142 52
149 144 53
151 145 60
146 139 51
140 134 45
141 134 52
139 133 51
140 133 53
136 130 51
133 130 39
142 136 53
130 127 48
142 141 42
133 133 39
142 144 42
145 147 47
142 147 37
149 156 25
151 158 34
157 170 30
154 168 16
156 168 22
158 177 16
163 180 11
167 186 16
169 189 11
166 185 0
167 186 0
170 190 0
170 191 0
169 189 0
166 185 0
168 186 0
169 189 0
166 187 0
169 190 0
173 196 0
170 193 0
172 195 0
171 195 0
173 197 0
172 196 0
171 195 0
170 193 25
171 194 0
174 197 25
170 193 0
171 195 36
171 195 0
172 195 36
171 194 36
173 196 51
171 193 51
171 194 36
171 194 36
173 197 44
171 194 44
173 195 44
171 193 44
171 194 51
171 194 25
170 193 44
177 199 44
176 198 67
170 193 51
169 193 36
174 197 44
174 197 36
171 195 51
174 197 51
175 198 72
172 195 57
174 196 62
175 198 51
170 193 25
175 198 51
169 192 44
173 195 72
170 194 36
169 193 57
174 197 57
174 196 67
172 194 76
171 195 44
170 193 57
169 191 51
171 194 44
174 196 51
171 194 36
169 193 44
171 194 36
168 192 36
174 197 44
174 196 62
173 195 51
170 193 36
168 191 51
165 188 25
167 191 0
171 194 57
170 193 25
169 192 44
171 194 36
170 194 25
168 191 25
171 194 25
166 189 0
169 192 36
166 189 0
170 193 25
168 191 0
168 191 0
169 193 0
169 193 0
166 190 0
170 193 0
166 190 0
166 189 0
166 188 0
160 184 51
137 160 114
84 116 166
63 99 170
63 99 171
64 100 178
63 100 176
64 100 173
63 99 175
62 99 172
62 99 171
62 99 175
62 99 174
63 100 180
62 99 174
62 99 175
61 98 172
62 98 175
62 99 176
62 98 172
62 99 175
63 99 174
63 100 177
62 99 176
62 98 173
63 99 175
63 99 179
63 99 179
62 99 173
63 99 176
63 99 175
62 99 173
63 99 176
62 98 173
62 99 175
62 99 174
62 99 177
62 99 173
61 98 170
61 98 170
62 99 176
62 99 174
62 99 177
62 99 172
62 99 170
61 98 173
62 99 175
62 98 172
62 99 176
63 99 172
62 99 174
63 99 175
62 99 176
62 99 176
62 98 173
61 98 174
62 99 175
62 99 174
61 98 171
62 99 173
63 99 174
62 98 172
62 99 172
62 98 168
62 98 170
61 98 172
62 99 175
62 98 170
62 99 172
63 100 175
62 98 171
62 99 171
62 99 173
63 99 174
63 99 173
62 99 171
62 99 174
62 98 169
62 99 172
62 99 171
62 98 169
61 98 170
62 99 169
62 98 167
62 99 171
62 99 171
61 98 164
62 98 168
61 98 165
62 98 168
62 99 172
63 99 174
61 98 167
62 99 170
62 99 169
62 98 167
62 99 174
62 99 171
62 98 169
62 98 167
63 99 174
62 99 170
63 100 176
61 98 164
62 99 169
62 99 171
61 98 169
62 99 169
61 98 164
63 99 172
62 98 166
62 98 165
62 98 166
61 97 159
62 99 170
63 99 172
62 99 169
63 99 170
62 98 169
62 99 169
62 99 172
63 99 174
61 98 166
62 98 167
62 98 170
62 98 170
62 99 167
61 97 161
62 99 171
62 98 163
62 98 168
62 98 167
62 98 167
61 98 160
63 99 170
62 98 162
62 99 166
62 98 166
62 99 171
62 98 162
63 99 167
61 97 157
62 98 166
63 99 164
61 98 162
62 98 164
62 98 166
61 97 159
62 98 163
62 99 167
62 98 163
62 98 167
63 99 168
62 98 166
63 99 171
62 98 166
61 97 151
61 97 154
62 98 158
61 96 151
61 97 163
61 97 159
61 96 151
62 98 159
61 96 149
62 98 156
62 97 158
61 97 160
60 95 146
63 98 161
62 97 159
61 96 156
61 96 155
61 96 156
61 96 152
61 96 156
58 91 138
58 91 139
59 93 142
58 87 122
60 83 110
65 77 73
76 78 44
70 71 19
80 82 26
73 75 28
75 76 31
84 84 21
80 81 26
84 84 32
85 85 29
97 97 38
86 89 36
88 90 40
87 88 32
86 89 36
90 90 34
107 106 48
89 92 39
101 102 46
110 109 47
99 99 45
104 105 43
119 118 52
109 108 47
120 119 51
119 117 42
126 123 51
122 120 56
124 121 54
133 130 57
128 125 54
130 126 55
128 127 52
124 122 49
132 129 62
126 123 57
131 127 56
137 134 63
135 132 57
131 127 54
147 142 63
150 145 62
147 142 62
139 135 59
145 140 57
142 138 58
149 145 64
147 142 56
147 142 58
144 139 59
151 146 65
156 150 65
148 142 65
147 142 66
149 144 63
157 151 69
146 142 62
148 144 65
154 149 62
148 143 63
147 142 58
151 146 66
153 147 65
151 145 61
151 146 64
150 145 58
162 156 73
153 148 64
156 150 68
152 146 64
157 150 68
156 149 59
153 148 58
162 155 75
153 147 65
155 148 64
156 150 58
146 140 57
154 147 61
149 143 64
157 150 65
160 153 70
158 151 71
160 154 63
147 142 61
154 147 66
150 145 62
157 151 63
145 140 54
158 152 67
146 139 62
144 139 57
142 138 48
145 139 58
145 141 57
150 143 59
147 141 57
145 139 56
144 139 57
147 142 56
140 135 48
151 146 57
157 150 67
143 138 57
143 138 53
141 134 54
137 132 45
141 136 52
135 129 49
131 126 37
139 133 49
137 134 51
137 135 45
140 140 42
134 137 30
148 153 41
144 150 37
141 148 32
150 161 25
154 165 28
154 167 19
156 169 16
159 174 11
166 184 11
166 184 19
166 186 0
166 187 11
163 182 0
167 187 0
169 189 0
169 190 0
167 186 0
168 188 0
170 192 0
169 191 0
166 186 0
170 193 25
173 197 25
172 196 0
169 193 36
174 198 36
170 192 25
174 197 25
174 197 36
174 197 25
170 194 25
173 197 51
174 197 36
175 197 25
172 195 36
173 195 36
172 195 36
176 198 36
173 197 44
173 196 0
174 196 57
173 196 44
173 196 51
178 200 80
169 192 36
175 198 62
172 195 51
171 193 57
172 196 57
174 196 62
173 196 67
172 195 51
174 197 57
175 198 62
176 199 62
173 196 51
170 193 62
170 193 67
175 197 72
172 195 36
171 194 51
171 194 62
173 196 62
170 193 44
177 199 80
179 200 84
173 195 51
172 196 25
170 192 62
175 197 51
171 193 80
172 195 44
171 193 57
172 195 25
169 193 0
169 193 44
174 196 62
168 191 25
171 193 76
168 190 51
171 194 57
172 195 44
172 195 36
169 192 36
169 192 57
171 194 36
172 194 51
172 194 25
175 198 57
170 193 44
167 190 36
170 192 0
173 195 51
170 193 25
166 188 0
171 194 36
169 192 0
164 188 0
166 189 25
170 193 25
167 192 0
168 191 0
161 185 0
168 191 18
157 181 65
127 153 121
82 113 159
63 99 168
63 100 175
63 99 175
63 99 174
63 99 171
63 100 176
62 99 171
63 99 174
62 99 173
62 98 170
62 99 172
62 99 177
61 98 173
62 99 175
63 99 173
62 99 170
63 99 175
61 98 170
62 98 169
62 98 173
62 99 175
61 98 171
62 99 172
62 99 173
62 98 171
62 99 176
62 98 169
63 99 176
62 99 171
62 99 175
62 99 177
62 98 172
62 98 173
62 99 173
61 98 174
63 100 179
62 99 171
62 99 173
63 99 174
62 98 173
62 99 172
62 99 175
62 99 177
62 99 175
62 99 177
62 99 176
62 99 174
62 99 175
61 98 174
62 99 177
62 99 172
62 99 172
61 98 171
61 98 169
62 98 171
61 98 165
62 99 174
63 100 172
62 98 171
62 99 172
62 98 172
63 100 178
62 99 175
61 98 166
62 99 173
62 98 168
62 99 174
62 98 173
62 99 175
62 99 170
62 99 173
61 98 168
61 98 168
62 99 174
63 99 172
63 99 174
62 99 173
62 99 172
63 99 173
62 99 169
62 99 170
62 99 169
62 99 175
62 98 169
62 99 173
61 97 163
62 98 172
63 99 172
62 98 167
62 99 169
62 98 172
62 99 177
62 98 166
62 98 165
62 99 172
62 99 173
62 98 168
62 99 170
61 98 173
63 99 175
62 98 168
61 98 166
62 98 169
61 98 168
62 98 168
61 97 162
63 99 167
63 99 172
62 99 171
62 98 167
62 98 164
62 99 167
62 99 167
62 98 166
62 99 167
63 100 174
62 98 165
62 98 164
62 98 163
62 98 164
62 99 168
62 99 172
61 97 162
62 99 169
62 98 165
63 99 171
62 98 166
62 99 169
63 99 168
62 99 164
61 98 169
62 98 160
63 99 172
61 97 158
62 98 160
61 97 163
63 99 173
63 99 168
63 99 167
62 98 166
63 99 168
62 98 167
63 99 167
62 98 163
62 98 164
62 98 163
62 97 163
62 98 166
62 98 164
62 98 158
61 97 162
61 97 162
62 98 165
61 98 164
62 98 160
62 97 162
61 97 153
61 97 164
62 98 158
62 98 165
61 96 153
62 97 157
61 96 154
60 96 154
62 98 160
62 98 160
61 97 163
62 97 155
62 98 162
61 96 155
58 92 139
60 94 148
60 94 149
62 97 153
60 95 152
60 95 149
60 88 117
74 92 101
59 75 80
71 76 37
65 69 32
66 67 25
83 84 20
72 75 20
75 76 26
83 85 27
75 79 30
85 86 38
94 93 37
92 93 39
94 94 38
85 86 30
92 90 34
90 91 37
104 104 33
118 116 46
98 99 32
118 116 46
106 107 44
114 113 46
108 108 37
106 106 48
108 107 46
112 112 44
123 121 53
122 120 49
121 118 46
115 114 46
132 129 60
131 128 58
121 119 50
136 131 60
129 127 58
124 121 43
136 133 66
138 134 65
130 127 54
135 131 56
138 134 58
146 142 54
137 132 60
142 137 54
139 136 52
137 133 51
147 142 63
140 135 58
138 134 58
145 139 67
149 144 69
152 147 64
152 146 58
150 143 61
150 145 61
145 139 64
151 145 73
146 142 59
158 153 69
152 146 64
152 146 56
147 142 55
153 148 65
149 143 62
153 148 64
157 151 62
155 149 61
159 153 70
157 152 71
157 152 64
157 151 65
153 148 60
156 150 69
152 147 58
150 142 63
151 145 60
151 146 60
156 149 63
148 143 62
155 149 62
150 145 62
151 146 56
149 143 56
154 147 62
156 150 61
154 148 64
149 143 57
146 141 61
151 145 65
151 145 61
149 144 62
144 139 54
146 140 60
151 144 60
149 143 59
149 143 60
141 136 47
144 140 49
144 139 53
133 129 45
143 136 58
140 134 57
145 140 52
139 134 51
139 134 54
152 145 57
138 133 45
140 135 54
135 130 48
134 128 52
129 127 44
133 132 44
136 140 34
142 143 34
140 144 36
138 142 36
143 153 22
154 165 30
159 171 32
152 165 19
159 175 11
163 178 22
165 181 19
165 183 11
163 183 0
166 185 0
172 192 0
170 189 0
169 190 0
167 187 0
170 192 0
168 188 0
169 188 0
168 189 0
168 185 0
171 190 0
172 196 0
171 195 25
173 195 0
173 196 36
169 193 36
174 197 44
172 195 0
173 195 36
175 198 36
174 197 51
175 198 62
175 198 51
172 195 44
174 197 51
174 196 67
172 195 57
175 198 57
171 194 51
171 194 36
173 196 57
174 196 76
175 198 36
175 199 57
175 198 57
173 196 62
172 196 57
172 196 44
174 197 67
175 198 62
168 191 51
177 199 62
171 194 57
172 194 62
172 194 57
177 199 72
170 193 57
175 198 62
174 197 67
171 194 44
173 197 25
170 194 44
173 195 62
176 199 62
174 197 76
174 196 76
171 194 51
174 197 72
173 195 84
168 190 51
172 195 67
174 196 72
173 195 67
174 197 72
174 197 67
171 194 36
173 197 57
172 195 57
174 196 57
165 188 36
170 193 36
174 196 57
170 193 51
169 192 44
171 194 57
173 196 44
170 193 44
171 193 51
172 195 51
171 194 51
166 189 25
169 192 0
171 194 25
172 195 25
168 191 36
163 187 0
170 193 36
165 187 25
168 191 25
171 194 0
165 188 25
172 195 0
166 190 18
162 186 25
152 177 76
129 154 115
69 104 169
64 100 174
64 100 174
64 100 173
63 100 175
63 99 168
63 99 173
63 100 179
63 100 174
63 100 176
63 99 177
62 99 175
63 99 178
62 99 172
62 99 173
62 99 172
62 99 173
62 98 174
62 99 174
62 99 173
63 99 175
61 98 175
62 98 169
62 99 177
61 98 171
62 99 173
62 99 171
62 99 173
62 98 174
62 99 174
61 98 170
62 99 176
62 99 173
62 99 173
62 99 175
62 99 173
62 99 178
61 98 170
61 98 173
61 98 169
62 99 173
61 98 170
62 98 170
62 99 174
62 99 172
62 99 173
62 98 171
62 99 171
62 98 175
62 99 176
62 99 177
62 98 165
62 99 174
62 98 174
62 98 172
62 99 173
62 98 168
62 99 170
63 99 173
62 99 173
62 99 174
62 99 169
62 98 169
62 98 166
62 98 171
62 98 172
61 98 170
62 98 167
62 98 170
62 99 172
62 98 171
62 99 177
62 99 172
62 98 169
63 99 170
62 99 169
62 99 173
62 99 171
63 99 175
62 99 173
62 98 169
62 99 170
62 99 169
62 99 172
61 98 173
62 99 169
62 98 167
62 98 166
62 98 167
62 98 164
63 99 177
62 99 175
62 99 171
61 98 170
62 99 170
63 99 171
62 99 167
62 98 166
62 98 169
61 98 166
63 99 167
63 99 168
62 98 163
62 99 172
62 99 170
61 98 171
62 98 168
62 98 171
63 99 176
62 98 166
63 99 170
62 99 173
62 99 167
62 98 168
62 98 164
62 99 171
63 99 171
63 99 168
63 99 168
62 98 163
61 97 161
63 99 171
62 98 165
62 98 172
63 99 162
61 98 164
62 98 160
62 98 167
61 97 163
62 98 164
62 98 167
62 98 165
62 98 164
62 98 166
62 98 163
61 97 162
62 99 164
61 98 163
62 98 167
62 98 165
62 99 164
62 98 160
62 98 168
62 99 165
62 98 165
62 98 159
62 98 160
62 98 159
62 98 170
62 98 168
61 97 157
61 98 160
62 98 167
61 97 158
63 99 159
62 98 158
61 96 154
62 98 167
60 95 147
61 96 149
61 97 160
62 97 158
61 96 155
61 97 160
62 98 160
61 96 151
62 97 160
61 97 162
60 95 154
60 95 149
60 94 151
61 96 147
59 94 143
62 96 154
61 96 152
60 94 146
60 94 156
59 91 129
64 88 119
59 73 80
62 68 57
74 76 26
64 65 22
67 68 27
77 78 22
71 74 20
76 77 16
83 84 25
83 84 30
78 80 30
72 75 34
88 90 35
95 94 34
95 96 35
87 87 36
104 104 40
90 92 37
98 98 40
102 102 37
113 111 42
108 108 43
98 98 40
120 117 43
125 122 48
117 116 47
120 118 44
132 128 59
116 116 41
125 122 51
135 131 57
128 125 49
131 129 45
130 127 44
133 130 48
124 122 51
138 134 53
138 133 55
135 131 55
131 127 51
129 126 52
146 141 61
139 135 59
142 137 57
143 139 63
141 136 58
146 142 55
146 141 63
151 145 61
142 138 60
149 144 62
151 146 67
138 135 58
156 150 63
147 142 60
152 146 64
151 146 56
150 146 58
153 148 63
150 145 58
147 143 54
152 146 67
161 155 66
159 153 60
157 151 69
149 143 54
155 149 71
151 145 66
155 150 64
149 144 62
159 152 71
154 149 62
154 148 65
141 137 47
156 149 66
148 142 65
145 141 52
150 145 58
156 150 58
153 147 67
147 142 56
163 156 73
150 144 56
153 147 54
151 145 61
146 140 59
149 143 61
146 139 57
153 147 64
146 140 51
144 138 58
148 142 63
144 139 54
150 145 48
142 136 57
139 135 51
149 142 57
145 139 60
150 145 59
135 131 42
150 144 59
143 137 52
137 132 42
131 126 44
140 135 52
127 121 44
132 127 47
143 138 52
130 126 44
136 134 41
141 139 48
147 145 51
133 138 28
133 138 30
149 155 34
142 152 25
145 155 25
154 166 28
150 161 22
156 170 25
161 177 22
159 174 16
168 187 0
159 174 11
167 186 0
167 185 0
168 188 0
167 187 0
167 185 0
167 187 0
167 187 0
167 186 0
170 190 0
164 183 0
168 189 0
170 191 0
172 196 25
170 194 25
171 194 44
173 196 36
172 196 44
175 198 44
174 197 36
172 195 36
173 197 36
174 196 57
172 195 44
173 196 57
168 191 25
170 194 44
170 193 44
173 196 51
173 196 51
177 199 67
174 197 57
177 200 76
174 197 57
173 196 67
176 199 62
175 197 36
176 198 67
174 197 67
175 197 80
177 199 62
177 198 76
177 198 92
171 194 72
171 195 44
177 199 72
178 201 92
173 196 80
175 198 67
173 196 76
177 200 84
178 200 76
171 194 51
175 197 72
175 197 72
176 198 62
171 193 57
172 196 57
173 196 72
174 196 72
175 197 76
173 196 51
171 194 72
173 195 76
173 195 62
170 194 72
168 190 44
172 195 51
173 195 72
175 196 80
170 194 51
172 195 51
175 197 80
169 192 44
173 196 57
173 196 44
168 191 0
169 192 62
169 192 51
173 195 51
169 192 44
172 195 51
169 192 57
168 190 36
169 191 44
167 190 57
168 192 36
165 189 44
166 190 36
171 195 25
168 191 0
164 187 0
169 192 0
166 188 25
161 184 18
163 187 18
150 175 70
113 139 128
75 108 167
65 101 176
63 100 171
64 100 176
63 99 168
63 99 173
63 99 172
63 100 176
63 99 167
63 99 171
63 99 173
62 99 176
62 99 171
62 99 175
62 99 172
63 99 178
62 98 173
63 100 177
62 99 173
63 99 172
62 99 173
62 98 173
62 99 175
62 98 173
62 99 173
63 100 178
62 99 172
62 99 173
61 97 166
62 99 171
62 99 174
63 99 175
62 99 172
62 98 172
62 99 174
62 99 176
62 98 169
61 98 172
62 99 174
62 99 172
62 99 176
62 99 173
62 99 174
63 99 176
61 97 164
63 100 176
62 98 169
62 98 168
62 99 177
62 99 172
62 99 174
62 99 173
61 98 169
62 98 168
61 98 173
62 99 174
62 98 163
62 99 173
61 98 169
62 98 169
62 98 169
62 99 173
63 99 171
62 98 171
62 98 170
62 99 175
62 99 174
62 98 166
62 99 173
62 99 170
62 99 173
62 99 173
62 99 174
62 99 170
62 99 171
62 98 171
62 99 174
62 98 171
62 99 170
61 98 164
62 98 169
62 99 172
61 98 166
62 99 171
62 99 171
62 98 169
62 99 170
62 99 167
63 99 174
63 100 174
62 99 173
62 98 171
62 99 174
61 97 165
62 98 170
62 98 169
61 98 165
61 98 165
63 99 172
62 99 171
63 99 169
63 99 165
62 99 167
62 98 167
61 98 169
62 99 168
62 98 168
61 98 160
62 98 168
62 99 167
62 99 168
63 99 169
62 99 171
62 98 165
63 99 171
63 99 167
61 98 162
62 98 162
62 98 164
62 98 167
62 98 168
62 98 167
61 98 169
62 99 165
62 98 162
62 98 167
62 98 165
62 99 168
62 99 169
62 98 164
63 99 169
62 98 164
62 99 165
61 98 161
62 98 164
62 98 167
62 98 167
62 98 161
62 98 164
62 98 165
62 98 165
62 98 165
62 98 160
62 98 159
62 98 165
62 98 161
62 98 160
62 97 164
61 97 159
62 98 164
62 98 164
63 98 163
61 97 159
62 98 166
62 98 164
61 96 156
61 97 161
62 98 162
63 99 169
61 97 152
62 98 157
61 96 152
61 97 156
61 96 153
62 98 164
63 98 161
62 98 162
61 96 158
60 95 151
61 96 147
61 96 156
61 95 145
60 95 150
60 94 146
60 94 142
60 94 150
59 92 140
59 92 151
66 89 116
69 81 85
76 81 39
79 80 25
65 68 16
74 75 16
82 81 20
77 77 19
77 76 27
84 84 24
76 80 32
85 84 18
90 89 34
95 94 24
91 91 26
76 79 37
93 94 35
104 105 43
99 99 39
100 100 38
108 107 36
123 121 44
105 104 43
115 114 48
115 113 44
122 120 50
110 108 42
121 119 52
119 117 50
123 121 51
122 119 52
118 116 44
124 122 49
135 132 52
132 128 51
132 128 55
123 121 46
128 125 56
136 133 56
134 131 56
138 134 51
135 131 53
133 130 48
144 141 57
143 138 57
139 135 61
142 137 59
148 144 50
138 134 53
136 132 50
143 139 53
144 140 49
141 137 49
151 145 63
141 135 55
144 139 54
152 146 61
146 142 52
153 146 56
150 145 63
150 144 54
144 139 56
148 143 60
152 147 63
143 138 55
153 147 63
160 154 67
159 153 64
150 144 57
153 146 61
157 151 71
162 155 68
153 147 60
142 137 52
156 150 65
150 144 60
151 146 60
152 146 60
154 148 59
152 146 69
148 143 57
152 147 56
150 143 62
156 149 65
150 144 58
153 147 59
153 148 52
147 141 49
151 145 58
148 144 54
147 141 57
141 135 53
143 137 62
143 138 47
148 143 57
150 144 56
140 134 57
140 135 48
139 133 52
146 140 49
137 131 47
148 142 58
139 133 49
143 136 54
142 136 56
144 139 53
135 131 47
130 126 42
140 136 48
137 133 51
134 132 42
142 140 36
141 140 44
139 143 30
140 144 25
146 154 32
142 152 28
144 155 25
149 158 30
155 169 16
158 172 19
162 178 16
162 178 19
165 182 0
166 184 0
165 182 0
166 187 0
167 187 0
166 185 0
166 185 0
169 190 0
167 187 0
170 191 0
167 187 0
171 190 0
166 186 0
168 188 0
175 198 62
169 193 25
172 196 25
172 196 36
175 198 44
175 197 57
169 193 36
173 196 44
177 200 67
173 196 51
173 196 44
172 194 57
171 194 25
173 196 25
175 198 67
168 191 51
175 198 51
171 194 0
175 198 72
180 202 80
178 201 72
172 194 67
175 198 62
176 198 84
177 199 72
175 198 72
177 199 84
176 199 67
174 196 84
174 196 80
173 194 80
177 199 92
179 202 84
175 197 72
175 198 92
177 199 84
178 200 99
179 201 95
176 200 88
176 198 76
176 199 80
180 201 111
178 199 88
175 196 92
174 196 84
176 198 80
173 196 80
174 196 84
176 197 95
176 198 84
172 194 80
177 198 84
172 194 62
172 194 80
170 192 67
173 195 88
175 197 84
169 192 44
171 194 67
172 194 67
174 197 57
176 198 72
170 193 51
170 192 62
170 193 57
171 194 67
171 193 51
170 192 57
169 192 44
169 192 44
171 194 57
169 192 0
174 197 67
170 192 57
171 194 0
168 191 57
167 190 25
167 189 36
168 190 44
166 188 0
168 190 40
164 188 25
163 187 31
152 176 80
126 152 121
74 108 168
65 100 168
66 101 176
63 100 173
67 102 167
63 100 175
63 99 171
63 99 175
63 99 173
63 99 174
62 99 168
63 99 173
63 99 173
63 99 172
62 99 176
62 98 170
62 99 170
62 99 173
62 99 174
62 99 171
63 99 174
62 99 175
62 99 174
60 96 165
61 98 171
61 98 167
63 99 175
62 98 169
62 99 176
63 99 174
62 99 175
62 99 175
62 99 174
62 98 172
61 98 168
62 98 172
62 99 172
62 99 177
61 98 172
62 98 171
61 98 171
61 98 173
62 99 175
62 99 173
61 98 169
62 99 172
62 98 170
61 97 165
62 99 178
62 99 172
62 98 169
62 99 178
62 99 173
63 99 174
63 99 174
61 98 163
62 99 173
62 98 169
63 99 171
62 98 167
62 99 177
62 98 167
62 99 174
62 99 172
63 99 171
62 99 169
61 98 169
62 99 171
62 99 171
62 99 176
62 99 176
61 98 170
62 98 172
62 99 173
62 98 167
62 99 169
62 98 167
62 98 171
62 99 170
62 99 171
62 98 170
62 98 168
62 99 173
62 99 171
61 98 165
61 97 162
62 99 169
61 98 164
62 99 168
62 98 166
62 99 168
62 98 167
63 99 168
62 98 167
63 99 170
62 99 165
62 99 169
62 99 170
63 100 172
62 99 171
62 99 175
63 99 172
63 99 166
63 99 171
62 99 169
61 97 159
62 99 167
63 99 172
62 99 169
62 98 164
61 98 161
62 98 168
63 99 171
62 99 167
62 98 165
62 98 163
63 99 166
62 99 167
63 99 171
61 97 165
62 98 165
62 98 168
61 98 164
62 99 164
62 98 168
62 99 170
61 97 161
61 98 164
62 98 166
62 98 169
62 98 161
61 98 163
62 99 169
62 98 171
63 100 173
63 99 169
62 98 162
62 98 166
62 99 170
62 98 163
61 98 162
61 98 162
63 99 161
62 98 162
62 98 164
62 98 161
62 98 165
62 98 164
61 97 156
61 98 162
62 98 165
61 97 159
61 97 149
62 97 157
62 97 159
62 98 160
63 99 169
62 98 160
62 98 160
61 97 158
62 98 160
61 96 151
62 98 157
62 98 158
62 97 164
61 97 156
60 96 149
61 96 150
60 95 145
60 95 143
60 94 152
62 97 157
61 96 155
60 93 140
60 95 151
61 96 149
59 92 138
60 94 145
67 91 119
74 86 90
78 83 58
75 75 18
82 82 21
75 76 22
74 76 22
78 78 25
88 89 30
87 89 27
71 74 26
89 90 29
91 93 25
94 95 27
90 90 37
90 90 32
97 97 31
98 96 33
109 108 41
114 112 47
116 114 45
94 94 39
115 114 38
109 108 39
112 110 47
111 110 47
104 104 35
118 117 46
107 107 45
116 113 32
118 116 40
121 118 50
120 119 48
123 121 50
121 119 46
137 132 59
125 122 49
133 130 51
129 124 51
132 129 47
129 126 42
136 131 60
115 112 49
133 130 53
145 140 60
140 135 57
140 134 57
139 135 51
139 135 53
147 142 61
144 139 63
143 138 55
141 137 56
143 139 59
139 134 51
154 149 61
150 144 56
139 135 52
143 139 55
152 145 62
142 138 53
156 149 66
150 145 58
158 152 67
150 144 62
153 147 60
149 144 54
146 140 58
153 148 63
158 152 58
148 143 56
157 151 65
145 140 51
155 149 56
151 145 59
155 149 63
151 146 53
146 140 57
155 149 65
152 146 54
141 137 49
153 147 59
150 145 58
146 140 60
153 146 63
154 148 59
147 142 57
151 145 53
145 140 49
146 140 45
148 142 51
142 136 44
143 138 56
146 139 58
141 136 56
145 139 51
145 139 52
148 142 51
146 140 53
146 140 49
142 136 51
142 136 52
134 129 41
136 132 39
139 133 52
135 130 45
136 130 54
128 124 36
145 140 42
136 134 41
138 136 44
143 142 45
133 136 34
146 149 37
148 153 36
142 146 34
149 160 25
156 164 39
153 164 22
163 177 28
157 173 11
161 176 16
163 181 0
166 183 19
166 186 0
168 188 0
160 175 0
167 186 0
170 188 0
169 188 0
168 188 0
169 188 0
170 191 0
166 185 0
170 191 0
166 184 0
170 191 0
172 194 36
167 190 25
173 196 51
171 194 51
173 196 51
175 198 44
171 194 25
172 196 36
173 195 51
171 194 51
164 188 36
169 193 51
174 197 72
173 195 72
175 198 67
172 195 67
179 201 84
173 196 72
177 198 95
173 195 44
178 200 80
174 197 72
176 198 92
173 196 62
175 198 57
178 200 92
176 198 88
180 201 105
177 200 76
177 199 72
180 201 105
179 200 108
177 199 84
180 201 111
176 198 80
178 200 99
179 201 99
178 200 95
177 199 95
175 196 84
180 202 92
181 202 114
175 197 92
180 201 102
177 198 95
174 196 80
173 195 80
176 199 80
183 203 108
176 199 92
183 204 111
177 199 84
175 197 80
174 196 76
175 197 76
174 196 72
172 194 76
177 199 88
174 196 76
172 194 88
170 193 62
171 194 36
174 196 62
176 198 80
172 194 72
171 193 57
174 197 67
172 196 36
170 192 67
167 191 36
173 196 51
173 194 72
168 191 62
164 187 36
170 193 25
167 190 36
172 195 25
166 189 0
162 185 44
169 192 51
162 185 54
172 195 40
164 187 62
151 174 72
123 149 128
81 113 171
67 102 174
64 100 167
74 108 169
67 102 173
70 104 171
63 99 174
66 102 176
62 99 173
62 99 173
63 99 172
63 99 174
63 100 175
62 98 174
63 99 174
62 99 173
63 99 176
61 98 170
61 98 170
62 99 171
62 99 174
62 99 173
62 98 170
62 99 170
62 99 173
62 98 172
62 98 169
62 99 171
61 98 168
62 99 172
62 99 175
62 99 173
61 97 172
62 98 171
62 99 174
62 99 168
62 98 169
62 99 171
61 98 174
62 98 175
62 99 175
62 99 176
62 98 168
62 98 167
62 99 175
62 99 171
62 98 164
62 99 173
62 98 172
62 99 175
62 99 174
62 98 171
62 99 174
62 99 173
63 99 177
62 99 172
62 98 171
62 98 170
62 98 170
62 99 169
62 98 170
61 97 163
61 98 167
62 99 171
62 98 167
63 99 175
62 99 174
62 99 174
62 98 171
62 99 174
62 99 174
62 99 171
62 98 170
62 98 169
62 99 168
62 99 166
61 98 166
62 99 170
62 99 171
63 99 173
60 97 163
61 98 166
62 99 173
62 98 169
62 99 170
61 98 167
62 98 168
63 100 176
61 98 165
62 98 169
63 99 168
62 99 170
62 98 161
62 99 172
62 99 170
62 98 165
61 97 159
62 98 164
62 98 165
62 98 166
62 99 169
62 98 163
62 98 167
62 98 162
63 99 168
62 99 172
62 98 165
63 99 172
62 98 163
62 98 163
62 99 167
62 98 169
62 98 167
63 99 168
62 98 165
61 98 162
61 98 167
62 98 164
62 98 163
62 98 167
62 98 161
62 98 163
62 99 169
63 99 170
62 98 163
62 99 167
63 99 171
61 97 156
62 98 164
62 98 163
62 98 164
62 98 165
61 97 158
61 97 157
63 99 168
61 98 159
62 97 157
62 98 161
62 98 165
61 97 159
62 98 154
62 98 159
62 99 163
62 98 162
61 97 157
63 99 160
62 98 165
62 97 154
62 98 162
62 98 159
62 98 162
61 97 154
62 98 162
61 97 163
62 97 162
62 98 158
61 97 160
62 98 152
62 98 157
62 98 163
61 97 155
61 97 156
61 97 155
61 97 154
60 95 149
62 97 156
61 96 152
60 95 151
62 97 158
61 95 145
62 97 158
60 94 149
61 96 157
61 96 155
61 95 148
60 94 144
58 92 133
58 91 128
62 86 110
78 89 89
79 82 47
79 80 28
81 81 16
85 85 26
68 72 23
79 78 26
91 91 18
83 84 23
82 82 25
86 87 30
86 85 23
95 94 29
76 77 26
82 84 32
95 93 32
104 103 29
100 100 37
102 101 27
107 108 38
119 115 44
119 116 38
110 108 37
109 109 34
107 106 41
108 107 43
114 113 51
114 113 40
120 118 42
126 123 45
116 113 45
128 125 48
129 126 46
135 132 45
124 122 44
127 124 48
125 123 52
135 131 51
127 124 46
135 132 48
124 121 46
144 139 62
137 133 57
147 141 57
143 139 56
138 134 52
141 136 61
145 140 58
138 135 43
149 144 65
140 135 55
143 138 52
147 142 61
138 134 53
151 146 61
154 147 63
145 139 57
152 147 58
155 149 63
154 148 53
140 136 51
149 144 56
142 138 51
143 139 51
151 144 58
144 139 47
153 148 59
153 148 58
153 148 56
151 145 66
145 140 53
156 149 61
146 139 54
150 144 59
152 146 62
146 140 56
149 143 58
140 135 48
140 135 56
148 143 58
142 137 52
155 148 59
151 145 60
141 136 48
152 145 61
145 139 58
139 134 45
145 138 48
144 137 45
144 138 52
141 136 48
148 143 47
134 128 52
150 143 56
144 137 53
141 135 52
138 133 45
141 135 49
131 126 47
140 135 51
142 136 52
133 128 41
135 130 48
135 129 47
124 119 44
129 123 39
133 131 28
136 134 41
141 142 39
139 139 41
145 150 34
147 153 30
147 152 30
145 152 28
156 166 25
151 161 28
158 169 22
151 163 22
156 169 0
158 172 16
164 180 19
160 179 0
161 179 11
171 191 0
170 189 0
163 183 0
168 186 0
167 184 0
170 189 0
167 185 0
170 188 0
167 187 0
169 189 0
170 191 0
172 193 0
170 193 0
173 196 51
175 197 44
174 196 67
170 193 36
171 194 51
171 194 44
177 200 72
171 194 44
176 197 57
173 196 44
174 197 72
173 195 62
176 199 72
176 198 51
180 202 92
173 196 62
173 195 72
179 201 95
174 197 67
176 199 84
177 199 72
175 196 76
177 200 88
183 204 108
180 201 105
178 200 108
180 201 105
181 202 105
177 200 95
183 204 108
179 200 102
182 204 114
179 200 99
179 200 114
179 201 95
184 205 108
178 200 99
177 199 92
179 200 108
181 202 122
177 198 105
178 200 102
177 199 99
180 202 102
183 204 122
181 203 114
181 202 122
177 198 102
181 202 114
180 201 111
180 202 99
183 204 111
175 197 84
176 198 99
175 197 76
179 201 92
170 192 67
178 198 102
174 197 84
174 196 72
179 201 88
176 198 76
174 196 72
172 195 67
173 196 76
173 195 88
175 197 72
173 196 62
175 197 57
170 193 44
165 189 44
171 193 67
175 198 80
175 197 72
170 193 36
173 195 57
170 192 51
162 185 44
170 193 36
171 194 51
164 188 40
162 185 82
162 185 67
150 174 86
121 148 142
83 114 158
81 113 169
76 109 166
65 101 171
63 99 174
68 102 172
67 102 171
66 101 167
65 101 171
62 99 172
64 100 170
63 99 173
62 99 174
62 99 174
61 97 172
62 99 172
62 99 174
63 99 175
62 98 174
63 99 174
62 98 171
62 99 173
62 99 173
61 98 175
62 99 170
62 98 169
61 98 173
62 98 169
62 98 175
62 99 175
61 98 171
62 99 172
61 98 173
61 98 173
62 99 174
62 99 176
62 98 174
62 99 174
63 99 173
61 98 168
62 99 171
61 98 169
62 99 177
61 98 168
61 98 171
62 99 174
62 99 172
62 98 169
62 98 171
62 98 169
62 98 167
62 99 172
62 98 170
61 98 168
62 99 170
61 98 168
62 98 165
61 98 166
62 99 177
62 99 172
61 98 169
62 99 172
62 99 172
62 98 169
62 98 169
61 98 173
62 99 168
62 98 169
62 98 166
62 99 176
62 98 168
62 99 171
63 99 172
62 98 167
62 99 176
63 99 168
62 98 169
62 99 174
62 98 169
61 98 171
62 98 169
62 98 171
62 99 176
62 98 166
62 99 172
61 97 165
62 98 163
62 99 170
62 98 169
62 98 165
61 97 158
61 97 158
62 99 171
62 98 164
62 98 165
62 99 167
63 99 169
62 98 168
63 99 170
63 99 166
63 99 170
62 99 168
62 98 170
62 99 173
62 98 163
62 99 168
63 99 170
62 98 164
62 98 164
62 98 166
61 98 164
62 98 162
62 99 169
62 98 164
62 98 162
62 98 164
63 100 172
62 99 169
62 98 167
62 98 159
60 96 156
62 98 164
62 98 166
62 98 167
62 98 162
61 97 160
63 99 169
62 99 164
61 97 158
62 98 168
62 98 164
62 98 165
62 98 165
61 97 155
62 98 161
62 99 163
62 98 164
62 98 163
63 99 168
63 99 163
62 98 160
62 98 162
62 98 163
61 97 157
62 98 162
63 99 165
62 98 161
62 98 161
61 97 152
62 98 168
62 97 160
63 99 167
61 97 152
61 97 156
62 98 160
61 97 163
62 98 159
61 97 154
61 97 155
62 97 158
62 97 160
62 98 163
61 97 155
61 96 154
63 98 165
61 96 151
61 97 155
62 97 154
62 97 154
61 97 159
60 95 145
62 97 161
61 96 149
59 92 134
59 93 145
60 94 143
61 96 152
63 96 144
62 88 122
63 77 72
80 86 64
82 81 24
77 78 19
91 90 24
83 82 19
73 76 23
74 76 17
79 81 18
91 91 23
77 77 23
93 93 30
82 83 28
96 95 33
87 88 28
93 94 32
92 93 37
89 90 30
104 102 36
95 95 29
103 103 38
102 100 39
110 109 35
101 102 35
108 107 35
117 116 37
101 100 39
123 121 48
124 121 47
121 118 48
134 130 50
116 115 43
136 131 49
125 122 48
120 118 46
121 116 45
122 120 51
139 135 49
134 130 45
140 136 59
141 136 57
143 139 62
139 135 47
132 128 51
143 138 59
144 140 56
142 137 51
136 132 54
141 137 49
148 143 54
142 137 50
144 139 62
139 135 50
151 146 58
141 136 51
149 144 54
141 136 57
151 145 56
146 140 59
147 141 55
145 141 60
145 139 57
145 138 58
146 139 57
150 144 54
151 146 45
149 144 57
149 144 58
149 144 60
150 145 59
148 141 54
146 142 48
154 148 65
153 146 59
147 143 52
146 140 51
150 144 53
150 145 56
148 142 59
150 144 53
139 134 39
145 141 52
146 141 52
156 149 60
148 142 57
147 141 52
138 134 45
138 133 49
150 144 54
144 138 53
148 141 57
143 137 48
132 127 51
148 144 52
140 135 51
135 130 47
143 136 57
140 134 52
130 125 39
137 132 45
140 135 49
145 139 57
142 136 51
134 129 42
143 137 47
135 131 42
142 139 42
128 125 47
137 135 44
133 137 32
147 151 41
142 147 34
148 155 30
142 153 16
142 153 22
146 154 22
159 171 25
159 174 16
157 171 11
162 181 11
162 177 11
163 181 0
166 186 0
168 189 0
169 188 0
167 185 0
166 186 0
169 187 0
168 188 0
168 186 0
170 187 0
162 180 0
167 185 0
170 189 0
168 188 0
170 190 0
174 198 72
174 198 51
174 197 44
172 195 44
177 199 76
175 198 72
173 196 62
179 201 76
176 198 67
178 200 72
173 196 67
171 195 57
176 199 67
179 201 102
182 203 102
179 200 99
179 201 88
174 196 88
177 199 99
176 198 80
180 201 99
181 202 105
181 202 111
181 202 111
182 204 117
184 205 114
183 204 117
180 202 108
185 206 125
185 205 133
181 202 105
181 202 108
177 198 114
186 206 133
182 203 114
184 205 125
183 204 114
181 202 120
179 201 108
180 201 122
181 202 125
182 203 130
186 207 122
181 203 117
182 203 120
184 205 133
189 209 147
179 201 105
185 205 125
180 202 114
180 201 111
182 203 120
180 201 108
181 202 114
181 203 108
178 199 102
180 201 111
179 201 108
179 200 105
176 197 92
173 195 95
176 197 84
172 194 80
176 197 99
175 197 80
173 195 84
175 199 72
172 194 72
173 195 67
169 191 57
177 199 95
171 193 62
174 195 76
171 193 57
173 195 67
171 194 72
173 195 57
169 192 36
170 193 62
171 193 60
166 188 80
159 182 86
154 178 80
144 167 100
121 147 136
79 110 171
70 104 169
73 106 172
65 101 172
71 105 168
69 104 172
66 101 167
66 101 162
62 98 169
67 102 171
67 103 175
68 104 173
63 100 177
63 99 172
61 97 167
62 98 169
62 98 165
61 97 168
61 98 172
62 98 173
62 99 167
62 98 172
62 98 169
62 98 173
62 98 174
62 99 171
61 98 173
61 98 172
63 99 177
61 98 168
61 98 168
62 98 173
62 98 172
62 99 171
62 98 172
63 99 173
62 99 176
62 99 173
62 98 168
62 99 173
62 98 171
62 99 170
61 98 173
62 98 170
61 97 170
62 99 173
62 98 168
62 99 176
62 99 175
62 98 170
62 99 176
62 98 167
61 98 171
63 99 170
62 99 172
62 99 173
62 98 171
62 99 171
62 98 163
61 98 167
62 99 170
62 99 173
62 99 173
62 98 170
62 98 171
62 98 168
62 99 174
62 99 169
62 99 174
62 98 170
63 99 172
62 98 170
61 98 164
61 98 162
62 99 174
62 99 170
61 98 167
62 98 170
61 98 166
61 97 165
62 98 167
62 98 165
62 99 168
61 98 169
61 98 166
62 99 171
63 99 171
62 99 169
62 99 171
62 99 174
62 98 163
61 97 164
62 98 171
62 98 166
62 99 172
61 97 161
62 98 167
62 98 165
62 98 167
63 99 174
62 98 163
62 99 167
62 98 159
62 98 166
62 99 169
62 98 156
62 98 166
62 99 170
62 99 171
63 99 169
63 99 169
62 98 162
62 98 168
63 99 168
62 99 171
62 98 166
62 99 168
62 99 168
62 99 169
63 99 169
62 98 165
62 98 164
62 99 165
62 98 166
61 98 164
62 99 169
62 98 160
63 99 167
62 98 162
62 98 161
62 98 165
62 98 163
62 98 164
62 98 163
62 98 163
62 98 167
62 98 159
62 98 160
62 97 159
62 98 164
62 98 164
61 97 152
62 98 164
62 98 164
62 98 161
61 97 159
62 97 155
62 97 159
62 98 164
61 97 157
61 98 169
62 98 165
63 98 157
61 97 160
61 97 161
62 98 154
60 96 154
61 97 154
61 97 160
62 97 150
62 98 165
61 96 149
61 96 152
61 97 152
61 97 153
61 97 155
61 97 152
61 97 152
61 96 152
59 93 146
61 96 151
61 95 146
60 94 150
59 94 147
60 95 147
61 95 145
59 93 145
59 92 138
66 92 123
63 76 81
82 89 67
85 86 25
70 70 12
78 77 18
82 83 21
91 91 15
93 90 24
87 86 19
77 79 29
92 93 23
91 92 25
86 87 28
101 100 29
88 89 22
94 95 27
104 103 32
99 99 33
95 94 29
107 105 39
100 101 34
93 95 31
106 104 38
112 111 35
109 109 31
108 107 43
112 110 33
117 115 39
111 109 36
118 116 33
128 124 47
122 120 43
133 129 56
126 123 50
131 128 48
119 117 40
130 126 52
128 125 49
127 123 47
127 124 47
122 119 39
144 139 56
129 125 51
132 128 45
136 133 43
137 133 53
142 139 53
137 133 51
138 133 55
146 142 47
143 137 50
137 131 47
142 137 49
146 141 55
139 134 44
145 141 56
136 131 46
152 146 59
143 138 54
146 142 54
140 135 49
147 141 51
145 140 44
153 148 56
153 147 60
146 141 54
146 140 49
148 143 52
153 146 56
139 134 51
150 145 61
145 140 53
153 148 58
150 144 53
146 140 56
145 139 52
149 143 57
145 140 49
150 144 58
150 144 62
152 146 59
148 143 54
144 139 53
149 142 56
148 142 49
146 142 51
147 141 51
133 129 34
144 138 51
142 137 53
142 137 56
144 137 52
140 135 45
142 137 44
142 135 52
140 135 47
151 144 52
142 137 45
124 120 37
143 137 47
139 132 42
136 130 42
133 128 37
135 132 36
129 126 37
133 130 36
136 135 39
145 148 30
139 141 32
141 144 25
145 147 39
143 149 36
152 159 41
148 155 28
152 164 22
155 166 25
157 173 16
157 173 11
154 169 16
158 170 19
168 185 0
162 180 0
163 180 0
168 186 0
165 183 0
166 184 0
165 185 0
166 186 0
167 186 0
164 183 0
170 190 0
171 190 0
164 185 0
166 185 0
169 188 0
168 186 0
176 198 67
175 198 36
174 197 62
174 197 62
174 196 67
175 198 72
177 199 76
176 198 72
180 201 92
178 200 88
179 200 84
175 198 76
173 196 76
174 196 95
178 200 95
182 203 105
185 205 120
185 206 117
175 197 84
182 203 111
179 200 111
181 202 117
181 203 105
177 198 92
181 202 108
184 205 122
183 204 120
183 203 128
182 203 117
185 205 122
183 204 122
183 204 122
183 204 125
183 203 122
183 204 125
188 208 144
182 202 130
185 206 135
181 202 120
183 203 130
187 207 128
184 205 128
187 208 140
183 205 125
186 205 135
186 206 142
180 201 117
182 204 120
179 201 105
182 203 117
182 203 120
181 202 122
184 205 125
185 206 137
180 202 117
183 204 117
183 204 130
183 205 117
178 200 108
184 205 111
179 201 102
182 203 111
178 199 105
183 203 114
176 198 92
176 197 99
177 198 95
179 201 105
181 201 122
176 197 84
177 199 95
173 196 76
175 198 72
172 195 57
171 192 51
176 198 72
172 194 67
175 197 62
173 195 44
167 190 47
156 179 65
149 173 102
146 169 80
152 174 107
128 153 131
76 109 160
92 121 167
85 115 168
79 111 169
67 102 167
71 105 171
68 102 174
64 100 167
62 98 167
62 98 170
66 101 170
65 101 174
63 99 174
63 99 172
62 99 171
62 98 172
61 98 173
62 99 172
62 99 174
61 98 172
62 98 169
61 97 167
62 99 169
61 98 171
62 98 173
61 98 167
62 98 171
62 99 173
61 97 175
62 99 177
61 98 168
61 98 174
61 98 174
62 99 171
62 98 166
62 98 169
62 98 173
62 98 170
62 98 172
61 98 170
61 98 170
62 98 169
62 99 174
62 99 174
62 99 173
62 99 171
61 97 171
62 98 172
63 99 172
62 99 168
62 98 170
61 98 169
62 98 169
62 98 167
62 99 174
62 99 173
62 98 168
61 98 171
62 98 169
63 100 173
62 98 168
62 98 172
62 98 168
61 98 172
62 99 170
63 99 173
61 98 171
62 99 169
63 99 173
62 98 168
62 99 166
62 99 170
62 98 166
61 98 171
63 99 171
61 97 167
62 99 167
63 100 176
62 98 167
62 99 171
62 98 168
62 99 174
61 98 172
62 98 165
62 99 169
61 97 164
63 100 172
61 98 163
62 99 166
63 99 174
62 98 163
62 99 168
62 99 171
62 99 170
62 99 169
63 99 172
62 99 168
61 97 161
62 98 166
62 98 167
62 99 172
62 98 161
62 99 168
61 97 164
62 99 171
62 98 168
62 98 165
62 98 167
62 98 164
63 99 164
61 97 160
61 97 162
61 97 162
63 99 167
62 98 163
62 99 169
61 98 164
62 98 162
62 98 163
63 99 167
62 98 165
62 98 162
62 99 167
62 98 169
63 99 169
62 98 164
62 98 164
62 98 166
62 98 164
62 99 167
62 98 164
61 97 156
62 97 160
62 98 159
62 98 162
62 98 162
61 97 160
63 99 168
62 98 161
63 98 162
61 97 159
62 98 165
62 98 163
61 97 157
62 98 160
61 97 158
62 98 162
61 97 158
62 99 165
62 97 155
62 98 163
61 97 159
62 97 155
62 98 163
62 98 161
62 98 163
61 97 156
62 98 162
61 96 152
62 98 160
62 97 158
63 98 158
62 98 160
61 97 148
60 95 157
62 97 150
59 94 142
62 97 157
62 96 146
61 96 156
60 95 149
61 96 151
59 93 144
62 97 151
60 95 152
61 96 152
60 94 141
60 93 148
67 89 121
65 82 99
70 76 52
92 90 12
87 87 13
82 81 23
97 97 24
85 86 15
87 88 15
82 82 15
91 90 22
90 91 26
86 86 23
88 88 20
97 96 30
97 98 27
88 87 22
94 93 25
93 93 26
93 94 28
99 100 32
109 107 37
95 95 29
108 106 42
111 107 37
100 100 30
114 113 47
105 104 32
111 110 41
111 108 29
105 104 29
123 121 39
118 116 38
116 115 33
115 113 39
127 123 49
129 126 35
137 131 49
127 123 47
126 124 41
126 123 48
133 130 43
134 129 46
140 136 50
133 130 42
138 134 50
145 141 61
139 134 50
138 135 48
132 129 49
142 136 51
141 137 47
148 141 54
138 134 50
141 137 53
144 139 51
145 140 53
141 137 46
143 137 53
143 139 47
148 143 49
147 142 49
147 141 56
149 143 58
152 146 57
149 145 51
146 140 54
143 138 48
152 147 60
152 146 58
138 134 55
143 138 48
145 140 48
144 138 53
151 146 51
151 145 56
147 142 51
138 133 51
150 144 54
153 147 52
145 139 48
142 136 47
148 141 60
144 138 53
145 138 48
136 130 51
146 140 53
143 138 57
134 129 47
136 131 39
144 138 41
146 141 56
146 139 53
145 140 53
135 129 41
139 132 51
144 138 47
137 133 34
136 131 44
133 129 36
133 128 45
134 130 36
130 125 25
135 130 37
124 122 34
134 132 22
136 134 44
129 127 34
130 133 28
129 132 34
140 143 28
150 154 30
147 155 30
147 153 28
150 159 19
158 169 28
156 168 19
155 168 16
155 169 11
165 182 11
166 182 19
164 181 16
169 186 11
166 183 0
166 183 0
168 186 0
166 183 0
169 189 0
170 191 0
166 184 0
167 187 0
166 183 0
166 185 0
169 189 0
168 189 0
170 189 0
170 190 0
174 197 57
175 198 62
176 198 67
175 197 88
173 196 57
179 201 80
181 202 105
175 197 84
183 204 114
179 200 84
178 200 88
180 202 102
180 201 99
178 200 88
178 201 99
182 203 122
187 207 135
181 203 114
184 205 133
184 205 117
186 206 125
185 205 125
186 206 130
187 207 130
187 208 128
183 204 130
180 201 117
188 209 142
187 207 133
181 202 122
186 206 147
189 209 151
187 207 135
192 211 163
185 205 144
193 212 159
190 210 147
189 209 149
185 205 140
186 206 140
191 211 151
187 207 144
189 209 161
184 204 140
184 203 137
190 210 153
184 205 135
186 208 135
188 209 151
182 203 137
186 207 125
190 209 161
191 210 155
185 205 130
186 207 135
182 203 125
187 206 144
182 203 120
185 206 128
181 202 120
179 200 105
181 203 122
180 201 105
188 208 140
181 202 130
182 202 122
181 202 117
181 202 99
182 203 105
173 195 80
179 200 105
172 193 80
176 198 76
172 195 92
173 195 57
169 193 62
172 194 57
173 195 67
169 192 70
163 186 67
148 171 100
158 181 94
148 172 108
135 159 124
124 150 142
82 113 167
85 116 167
73 106 168
74 107 162
71 104 164
76 108 168
71 105 167
67 102 170
68 103 175
66 101 167
65 100 169
72 106 168
61 97 165
63 99 175
65 101 175
62 98 166
61 98 171
62 98 171
62 99 175
61 98 169
62 98 171
62 99 173
62 98 171
61 97 172
61 97 172
61 97 170
61 98 172
61 98 173
62 99 175
61 98 168
61 98 169
62 98 170
62 99 174
61 98 170
62 99 175
61 97 164
61 98 168
62 99 175
62 99 173
63 99 173
61 98 166
62 98 162
62 99 173
62 98 171
61 98 172
63 100 174
62 99 172
62 98 168
62 99 175
61 98 169
62 98 172
61 98 170
61 98 170
62 98 167
63 99 175
62 98 168
62 98 168
61 97 163
62 99 173
61 98 166
62 98 172
62 98 169
62 98 167
61 98 170
62 98 171
62 98 172
62 98 166
62 98 171
62 99 172
62 98 172
63 99 170
62 99 169
62 98 171
62 99 169
62 98 164
62 98 168
62 99 172
61 98 165
62 98 162
61 98 167
62 98 166
62 98 169
62 99 172
62 98 165
63 99 169
62 99 173
62 98 163
62 98 166
63 99 172
62 98 162
62 98 169
62 99 171
62 99 169
62 98 167
62 98 167
63 99 170
62 98 165
62 99 167
62 99 168
62 98 168
62 99 169
62 98 165
62 99 172
62 99 170
62 98 165
61 98 168
62 98 158
61 98 165
62 98 162
63 99 172
61 97 161
62 99 169
62 98 164
62 98 164
62 98 164
62 98 164
63 100 175
62 98 167
61 97 163
62 99 167
62 98 165
63 99 165
61 97 165
62 98 167
62 99 169
62 97 157
62 99 167
62 98 165
62 98 165
63 99 166
62 98 160
62 99 170
62 99 167
62 98 161
62 98 164
61 97 162
62 98 163
62 98 159
63 99 164
62 98 160
62 98 156
61 98 162
61 97 158
62 98 163
62 98 164
62 98 159
62 98 164
62 98 162
62 98 159
61 97 159
62 98 159
61 98 161
61 96 147
62 98 156
63 99 169
61 97 158
61 97 158
62 97 154
62 98 159
61 96 150
60 96 156
61 96 150
61 97 151
61 97 155
61 96 152
62 97 155
60 95 152
61 96 147
60 96 148
61 97 158
61 96 151
61 97 152
60 95 145
60 94 144
61 96 157
59 94 141
60 95 150
59 91 138
66 92 123
61 80 99
74 80 55
86 86 23
80 80 17
89 88 16
67 69 19
88 87 16
88 85 9
90 89 24
82 82 18
86 85 25
101 100 23
89 89 25
87 88 28
97 97 25
92 91 30
94 94 31
94 94 20
105 104 31
102 102 23
106 104 31
100 99 28
110 109 27
113 111 32
111 108 37
113 111 35
116 115 28
115 114 39
116 113 38
110 108 44
113 111 41
124 121 43
124 121 48
115 114 33
125 122 40
134 130 49
134 131 48
126 124 45
119 116 36
130 126 40
136 131 48
138 133 60
127 123 46
147 142 51
137 132 53
140 136 50
140 136 49
149 143 52
140 136 54
135 130 39
131 127 36
136 131 50
150 145 61
142 137 50
136 131 50
146 141 51
151 146 51
146 140 54
141 136 56
141 136 45
143 139 49
148 143 62
143 139 50
137 133 44
145 139 54
149 144 54
149 143 53
159 152 59
140 137 44
141 136 52
152 145 60
147 141 57
142 136 53
138 134 42
144 139 51
138 133 44
145 141 48
146 140 54
147 142 48
145 139 54
141 135 45
142 137 42
146 141 45
143 138 54
142 136 54
151 146 56
146 140 53
146 139 56
143 138 51
132 128 41
142 136 45
141 135 47
142 137 49
142 135 52
138 133 44
136 132 44
130 126 41
137 130 42
133 127 47
135 130 44
130 124 36
130 126 48
125 121 39
133 129 32
134 130 45
135 136 34
129 128 25
142 149 28
143 146 34
147 150 30
143 150 25
151 157 25
148 158 22
151 161 22
152 165 19
157 172 19
156 171 11
163 177 19
164 181 11
162 178 11
163 181 0
168 188 0
165 185 0
168 187 0
167 187 0
168 187 0
166 186 0
171 191 0
163 181 0
163 183 0
166 185 0
164 183 0
167 185 0
169 189 0
167 188 0
167 185 0
173 195 72
176 198 67
177 198 84
176 198 88
178 200 88
177 200 72
175 198 95
182 203 108
180 202 114
178 200 88
180 201 92
181 203 102
182 204 117
179 201 102
182 203 111
185 205 133
184 204 133
186 207 130
183 205 125
178 200 102
184 205 130
187 207 140
182 203 122
190 210 147
188 208 137
190 210 147
187 208 133
190 210 161
188 209 147
187 207 140
191 210 161
188 209 142
188 208 155
191 210 167
193 213 159
195 214 169
192 212 161
182 202 137
191 210 159
190 210 149
190 209 144
192 212 163
193 212 167
189 209 144
191 210 159
189 208 159
189 209 147
191 210 157
186 207 147
188 208 153
188 208 153
190 209 165
185 206 147
190 210 159
185 206 128
187 207 149
188 208 142
188 208 142
188 208 137
186 206 147
185 204 140
185 206 137
189 209 142
186 207 142
174 196 111
180 201 125
183 204 122
182 202 120
180 202 108
183 204 122
180 202 120
173 195 92
179 201 88
178 199 84
174 196 92
173 195 76
167 189 62
174 196 88
168 191 74
159 182 99
156 178 88
146 170 100
146 170 97
149 172 110
121 147 129
100 128 166
76 110 174
77 109 166
77 109 170
70 104 170
72 106 171
72 106 169
69 104 172
72 106 167
65 101 173
64 100 170
64 100 169
65 101 176
67 102 175
64 100 162
63 99 174
62 99 174
62 98 169
62 99 173
62 99 172
62 98 172
62 98 174
61 98 169
61 98 173
61 97 164
63 99 175
62 99 173
62 99 171
62 98 175
62 98 170
61 97 167
61 98 170
60 97 170
61 97 169
61 97 169
62 98 167
62 99 177
62 99 174
61 98 171
62 98 174
61 98 166
61 98 175
62 99 177
62 99 172
62 99 175
62 98 167
62 98 169
62 98 170
62 98 168
61 98 168
62 98 169
62 98 171
62 99 173
62 99 172
61 98 169
62 99 171
61 98 166
62 99 177
62 98 167
62 99 168
62 99 173
62 99 175
62 99 174
63 99 173
62 99 174
62 99 175
61 98 171
62 98 168
63 99 171
62 98 170
62 98 164
61 98 170
62 98 168
62 98 167
62 99 169
61 97 160
62 98 171
62 99 166
62 98 162
61 97 162
61 98 163
63 99 171
62 98 163
61 98 165
62 98 170
61 98 166
61 98 169
62 99 171
61 98 161
62 98 170
62 98 163
63 99 170
62 98 167
62 98 166
62 98 162
62 98 163
63 99 171
62 98 166
62 98 163
61 97 161
62 98 164
62 99 166
63 99 170
62 98 166
62 98 163
62 98 166
62 98 168
62 98 158
62 98 166
61 97 157
62 98 166
62 98 167
62 98 167
63 99 166
62 99 168
62 98 163
63 99 167
63 99 167
61 97 159
62 98 170
62 98 160
62 99 169
61 98 166
62 98 160
62 98 165
62 98 165
61 98 165
63 99 166
62 98 167
61 97 163
62 98 161
61 98 163
63 99 166
62 98 164
61 97 156
62 98 162
62 98 164
62 98 160
62 98 164
63 99 170
61 97 160
61 97 155
62 98 162
62 98 160
62 98 161
62 98 166
61 97 155
61 97 150
61 97 152
63 99 165
62 98 166
60 96 154
61 97 155
61 97 155
62 97 158
61 97 161
61 96 154
61 97 160
61 96 148
62 98 165
61 97 154
62 97 152
61 97 158
61 96 153
60 95 149
62 97 162
62 97 151
61 97 156
62 97 156
62 97 162
60 95 150
61 96 150
60 94 149
61 96 148
60 94 148
60 94 144
58 91 141
60 91 137
64 89 118
62 81 99
83 87 72
83 84 34
78 77 18
89 89 14
78 77 16
81 81 16
94 94 25
88 88 22
78 78 19
97 94 28
90 88 24
89 89 26
93 93 25
89 87 25
100 98 30
103 101 20
93 93 27
97 97 31
105 104 34
104 102 26
96 96 37
111 109 35
113 110 41
105 104 33
104 103 27
111 111 31
107 106 39
114 110 42
114 113 34
109 107 34
123 119 42
120 116 47
131 126 43
124 121 40
126 123 48
126 124 42
134 129 47
129 126 55
132 128 45
138 133 42
132 129 45
128 124 50
137 132 46
130 127 43
125 122 32
143 138 45
137 133 45
143 138 47
135 131 45
145 140 53
139 136 41
141 137 46
141 136 51
147 142 48
140 136 47
136 131 47
144 139 51
144 139 46
142 137 45
148 142 61
147 141 54
144 139 52
144 138 54
140 136 44
154 148 51
136 133 45
141 135 48
146 141 42
135 131 45
148 142 51
140 134 47
141 136 41
152 146 52
146 141 53
144 137 45
156 149 62
139 134 44
145 140 48
149 143 54
150 144 57
138 133 39
147 140 52
145 139 45
137 132 52
138 133 47
135 129 42
145 140 41
137 133 42
140 136 48
128 124 34
136 130 48
142 137 51
135 130 44
139 133 56
133 128 37
136 132 41
140 134 47
134 128 37
135 128 48
128 123 42
131 126 39
136 132 37
125 123 36
133 131 34
134 135 34
134 135 30
146 151 25
138 143 25
145 153 28
144 150 32
151 161 16
157 170 32
157 168 25
161 175 19
160 176 11
160 174 0
163 179 16
167 185 0
169 187 11
165 184 0
167 184 0
164 182 0
165 185 0
164 182 0
166 184 0
168 186 0
165 184 0
162 180 0
162 180 0
165 183 0
168 188 0
166 185 0
170 188 0
167 186 0
170 189 0
179 200 95
178 200 92
175 198 84
181 202 99
177 200 84
183 204 114
185 206 122
180 202 108
185 207 122
176 198 95
181 203 111
181 203 111
179 202 95
185 206 137
185 206 128
183 204 120
187 208 137
183 204 130
183 205 125
191 211 157
188 207 147
190 210 151
186 206 137
186 206 144
189 210 153
190 210 157
185 205 140
191 209 165
191 211 167
192 212 155
190 210 149
189 209 151
191 210 159
189 208 157
186 207 135
194 213 159
193 213 157
197 216 179
194 214 171
189 209 163
188 208 155
190 211 155
186 207 137
190 210 157
191 211 159
193 213 171
190 209 163
190 209 165
189 209 153
190 209 153
190 210 147
187 208 140
185 205 142
193 211 161
182 203 128
190 209 161
186 206 137
193 213 161
181 202 128
185 205 137
179 200 137
187 207 135
189 209 153
186 207 142
184 205 125
185 205 122
187 207 144
186 206 142
179 200 114
178 199 108
185 206 135
177 199 111
179 200 111
176 198 88
180 200 114
172 193 92
178 198 105
176 198 107
171 192 94
165 187 114
152 176 120
151 174 117
143 167 111
139 163 124
107 134 144
83 114 158
87 117 166
92 121 161
83 114 174
73 107 175
72 106 166
77 110 168
73 106 171
71 104 162
65 101 164
67 102 175
64 99 165
65 100 169
63 99 173
62 99 174
62 99 172
64 100 168
63 99 173
62 98 170
62 98 173
62 98 169
62 98 174
62 99 178
62 99 174
62 98 174
61 98 168
61 98 169
61 98 174
61 98 169
61 98 170
62 99 170
60 96 164
61 98 170
62 99 175
61 98 171
62 99 173
62 99 170
61 98 167
61 98 168
62 99 175
62 99 171
62 99 176
63 99 170
62 99 167
61 98 166
61 98 169
61 98 170
63 99 175
61 97 167
62 98 168
62 98 167
61 98 169
62 98 172
62 98 173
62 98 172
62 99 172
61 98 164
61 98 166
63 99 170
63 99 170
62 98 168
62 98 168
61 98 168
61 98 168
62 99 170
61 98 168
62 99 172
62 98 169
62 99 169
62 98 171
62 99 171
61 98 165
62 98 166
62 98 166
63 99 169
62 98 166
62 99 170
61 98 165
62 98 165
62 99 174
62 98 164
62 98 169
62 98 165
62 98 165
62 98 164
62 99 170
62 98 166
62 98 165
62 98 170
62 98 167
62 98 164
62 98 167
62 99 172
62 98 168
62 98 165
62 98 168
62 98 163
61 98 168
63 99 165
62 98 162
62 98 166
62 98 167
62 98 166
62 98 169
63 99 168
62 98 158
61 97 167
62 98 168
62 99 170
62 98 162
63 99 168
62 98 163
63 99 170
62 98 163
61 97 164
61 97 156
62 98 166
62 98 162
62 98 166
61 97 162
61 97 159
62 98 160
63 99 165
63 99 161
62 98 163
62 99 167
62 98 159
61 97 161
62 99 168
62 98 164
62 99 170
62 98 168
61 97 158
60 96 150
61 97 157
61 98 164
62 98 154
62 98 166
62 98 159
61 97 157
61 98 162
62 99 163
62 98 159
62 98 161
62 98 162
62 98 162
62 98 166
62 98 158
63 99 163
62 98 157
61 96 152
62 98 163
61 96 156
61 97 157
61 97 156
62 97 154
61 96 152
62 98 162
62 98 160
62 97 159
62 98 160
62 98 160
60 96 152
62 97 154
61 98 160
61 96 150
61 97 155
60 96 148
61 96 149
61 96 151
60 95 149
61 95 151
61 96 142
60 94 152
60 95 142
60 95 151
59 92 142
58 91 132
61 86 119
72 88 99
76 82 52
74 74 27
77 79 14
79 78 15
90 88 12
67 69 18
83 82 22
86 84 3
90 90 23
94 94 19
83 82 22
83 84 20
99 98 25
98 97 26
90 89 23
101 98 31
91 90 16
94 94 27
103 102 28
101 100 34
93 91 26
106 105 26
102 101 27
114 112 30
109 108 38
115 113 32
111 108 26
113 111 37
121 117 33
117 116 36
112 111 37
126 123 38
124 120 36
126 122 42
131 128 45
125 122 38
134 130 42
132 127 46
125 121 40
134 130 47
132 127 44
134 130 34
133 128 42
135 131 49
139 133 46
143 137 57
138 134 51
133 130 50
143 139 47
130 127 43
134 130 44
140 136 48
133 129 44
135 131 34
145 140 46
147 142 51
136 131 53
149 143 53
144 139 49
144 138 49
136 131 39
142 137 42
145 141 47
139 134 45
145 140 47
150 145 45
139 136 39
150 145 51
141 136 47
148 142 57
146 142 44
145 139 48
148 141 54
140 136 41
145 141 42
143 137 52
138 134 44
140 135 45
147 141 48
142 137 44
145 139 49
139 134 44
142 138 44
139 134 47
143 137 48
149 143 53
138 134 39
136 132 41
137 132 39
136 130 37
140 135 39
139 133 42
133 128 41
135 131 37
137 131 49
137 132 42
128 123 37
128 124 36
133 128 39
134 128 53
133 128 41
131 126 36
131 131 30
128 129 22
128 131 30
139 140 28
141 144 34
142 145 28
142 149 30
146 156 22
152 160 19
157 169 16
147 157 16
162 174 16
157 172 0
163 178 16
158 174 11
166 184 0
163 181 0
169 189 0
164 182 0
168 187 0
168 187 0
166 184 0
167 185 0
170 189 0
168 189 0
167 186 0
166 183 0
169 188 0
167 187 0
167 184 0
170 189 0
165 185 0
168 188 0
176 199 99
178 200 88
183 204 108
180 201 117
179 200 95
178 200 95
182 203 125
181 202 117
182 203 120
186 207 128
185 206 133
183 205 117
188 208 133
183 204 137
188 208 142
181 202 111
188 209 140
189 209 149
184 204 142
193 212 163
186 206 151
186 206 130
194 213 165
192 211 165
184 205 137
185 206 137
189 209 147
190 211 155
191 210 165
191 211 157
194 213 173
192 212 161
194 214 167
196 215 179
192 212 169
195 213 186
198 217 188
194 214 165
192 211 163
199 217 188
192 211 165
190 211 157
191 211 169
193 212 165
193 213 167
196 215 182
190 210 157
196 215 181
189 210 161
192 211 167
194 213 177
190 210 155
190 210 163
192 211 159
190 210 155
192 212 163
192 211 167
187 208 157
187 207 159
189 209 163
192 212 157
188 208 153
187 208 144
185 206 135
185 206 135
183 204 133
192 212 155
184 204 125
181 202 114
178 200 108
182 202 128
183 204 130
186 207 135
188 208 135
179 200 102
181 202 128
177 199 99
177 198 113
167 187 121
157 180 114
143 167 120
148 171 117
136 160 140
139 162 128
116 142 147
83 114 162
99 127 169
82 114 172
78 110 179
85 116 170
85 115 166
71 105 170
75 108 173
66 102 172
66 101 168
75 108 169
66 102 171
70 104 169
64 100 173
64 101 175
66 101 170
63 99 171
61 98 170
64 100 168
60 96 165
61 97 172
61 98 170
61 98 173
61 98 172
62 98 172
61 98 168
61 98 167
60 97 164
61 97 168
61 97 172
61 97 167
62 98 170
61 98 174
61 98 174
62 99 172
62 99 174
61 98 169
61 98 165
61 98 171
62 98 171
62 98 171
62 99 170
62 99 169
62 99 175
61 98 174
62 99 170
61 98 174
61 98 171
61 98 168
62 98 164
61 98 169
62 99 171
62 98 166
62 98 171
63 100 175
62 98 168
62 99 170
62 98 172
62 98 170
63 99 173
62 99 170
62 98 166
62 98 168
62 98 166
62 99 170
61 97 163
61 98 168
62 98 168
62 98 167
62 99 173
62 98 168
62 98 164
62 99 170
62 98 166
62 98 165
63 99 173
62 99 170
62 99 167
62 99 168
62 99 170
62 99 166
63 99 171
61 98 167
62 98 169
62 98 167
62 98 166
62 98 168
62 98 166
62 98 166
61 97 155
61 97 165
62 98 167
62 98 162
61 98 160
61 98 165
62 98 164
61 97 157
63 99 166
62 98 167
62 98 161
62 98 162
62 99 168
61 98 162
61 97 157
63 99 172
62 98 166
62 98 160
62 98 164
61 98 164
62 98 167
62 98 161
62 98 161
62 98 161
62 98 160
62 98 167
61 97 157
61 97 158
61 98 165
63 99 171
62 98 162
62 98 159
62 98 165
63 99 171
63 99 170
61 97 157
62 98 160
62 98 165
61 97 162
62 98 161
63 99 171
63 99 168
63 99 164
61 97 153
63 99 166
62 98 163
62 98 157
62 98 168
62 98 162
61 97 156
62 98 160
62 98 165
62 97 157
61 97 159
62 98 161
61 97 157
62 98 160
63 99 163
61 97 157
62 98 157
62 98 160
61 97 153
62 98 157
62 98 158
63 99 163
61 97 158
62 98 155
62 98 159
61 97 159
62 97 156
61 96 149
62 97 151
62 97 157
61 96 147
60 96 147
60 94 147
61 96 148
62 96 152
61 96 148
61 96 156
61 97 149
60 95 145
61 96 149
60 95 148
61 95 151
61 95 142
60 94 148
59 92 140
60 94 143
64 89 119
69 81 74
83 85 54
87 86 28
70 70 11
85 83 16
77 77 19
78 77 16
82 81 15
89 87 14
94 91 17
79 79 23
94 94 19
78 81 18
92 91 18
101 101 24
99 97 17
105 103 26
103 100 18
99 98 18
96 95 20
106 103 25
110 109 26
106 104 25
109 107 25
103 102 32
118 115 30
111 110 33
111 109 37
116 114 33
105 105 32
112 109 36
118 116 39
117 114 32
113 110 42
122 120 38
118 114 30
120 118 36
125 121 34
124 120 38
129 126 33
132 129 42
127 122 42
130 125 37
134 131 43
123 120 38
137 133 51
132 128 51
135 130 41
137 133 53
132 128 47
139 134 45
134 131 42
136 131 43
140 135 48
139 136 36
140 136 49
142 137 48
139 135 45
146 141 49
142 138 44
137 133 40
143 139 48
141 136 42
141 136 39
140 135 48
137 131 37
137 132 37
146 141 52
137 131 34
142 135 52
135 131 44
139 134 47
142 137 51
143 137 49
140 137 41
135 130 37
141 136 44
146 141 45
139 134 49
143 137 47
143 136 52
146 140 44
140 136 41
143 137 37
137 131 42
135 130 37
129 124 30
133 128 45
133 129 42
135 129 41
130 127 39
135 129 47
129 124 37
138 132 48
133 128 47
136 130 51
136 130 48
130 124 42
138 133 47
141 135 48
132 127 42
133 133 32
129 129 36
138 136 44
144 148 32
143 145 39
144 148 32
139 144 30
132 137 25
140 151 16
145 152 25
154 164 11
149 158 19
160 173 11
166 180 0
162 178 0
161 176 11
160 178 11
164 181 0
165 184 0
162 179 0
162 177 0
166 184 0
166 185 0
169 187 0
164 183 0
165 183 0
165 186 0
166 184 0
163 180 0
168 187 0
168 188 0
166 185 0
167 184 0
168 186 0
166 185 0
187 208 122
178 201 88
182 203 117
180 201 99
183 205 114
184 204 120
184 205 133
187 207 151
187 207 133
183 204 130
187 208 142
183 204 128
180 202 122
183 204 130
188 208 137
189 209 155
193 213 165
190 210 149
190 210 159
190 210 153
189 209 147
192 212 155
193 213 167
197 216 179
197 216 177
194 214 169
188 208 144
192 211 167
192 211 177
194 213 173
195 214 173
193 214 171
197 216 193
193 212 175
189 209 157
194 214 175
191 211 167
198 217 191
195 214 179
193 213 173
194 214 179
195 214 173
195 214 177
189 209 167
196 215 177
198 217 186
197 216 186
196 215 179
195 214 179
192 211 167
196 215 171
194 214 173
194 213 175
193 212 173
190 210 157
193 212 173
190 210 155
195 214 184
192 212 159
193 212 161
190 210 159
191 210 161
193 212 163
190 210 149
193 212 159
192 211 167
188 208 153
185 205 142
188 208 133
187 207 147
189 209 149
183 204 128
186 207 142
183 204 125
185 205 151
184 204 133
182 203 117
177 198 130
164 186 130
157 179 126
161 182 151
125 149 144
137 160 131
135 159 140
113 139 144
91 120 170
89 119 167
88 118 169
90 120 168
76 109 166
82 113 170
84 114 169
71 105 167
73 106 167
71 105 171
62 98 169
73 107 172
66 101 164
63 99 175
67 102 174
62 99 173
63 99 168
60 96 166
65 100 168
64 100 168
63 99 172
62 98 168
61 97 169
61 98 164
61 97 168
62 99 176
61 98 169
62 98 168
61 98 168
62 98 174
61 98 173
61 98 172
61 98 171
60 97 170
61 98 174
62 99 175
62 98 171
61 98 168
62 99 173
61 98 168
61 98 168
61 98 170
62 98 169
61 98 167
62 98 166
62 98 170
62 98 165
62 98 169
62 98 167
61 97 168
62 98 171
62 98 167
62 98 170
62 98 167
62 98 174
62 98 165
62 98 170
61 97 164
62 99 174
62 99 171
61 98 168
62 98 170
62 99 169
61 97 164
63 100 177
62 99 164
62 98 165
62 99 169
61 98 168
62 99 168
62 99 173
62 99 169
62 99 169
62 98 169
62 99 168
62 99 172
61 97 165
63 99 170
62 98 168
62 98 165
62 98 166
62 98 166
62 98 165
62 98 168
62 98 162
61 97 162
62 98 165
62 98 165
62 98 160
61 98 163
62 98 166
62 98 168
62 98 164
62 98 164
62 99 172
62 98 164
62 98 164
62 98 167
62 98 167
63 100 171
61 98 167
62 98 161
62 98 165
62 99 167
63 99 166
62 98 166
63 99 164
62 98 158
62 98 164
61 97 159
62 98 162
61 96 159
61 98 163
62 98 165
61 97 160
62 98 160
62 98 161
62 98 166
62 97 157
62 98 166
61 98 160
62 98 162
62 98 168
63 99 166
62 98 158
61 98 162
63 99 167
62 98 160
63 99 168
62 98 163
62 98 164
62 98 162
62 98 158
62 98 158
62 98 164
62 98 164
62 98 164
62 99 165
61 97 160
61 97 161
61 97 155
61 97 156
63 98 160
63 99 168
60 95 150
62 97 157
62 97 157
62 98 161
62 99 165
61 97 150
61 98 160
62 97 156
62 98 157
60 95 147
63 98 155
62 97 156
62 98 158
62 98 158
60 96 150
61 97 155
61 97 152
62 97 155
61 95 146
63 98 161
61 96 153
61 96 153
61 95 149
61 97 152
60 95 146
60 95 147
62 97 155
61 96 149
60 94 145
61 95 150
61 95 141
59 94 135
61 96 146
59 92 138
67 88 112
70 82 83
76 80 51
90 89 30
93 91 18
86 86 14
76 75 12
75 75 14
83 83 22
93 93 26
94 92 14
86 86 28
88 88 14
87 86 16
90 88 8
100 97 20
90 89 27
95 95 19
101 98 23
90 90 20
103 102 23
109 108 29
91 91 28
114 111 31
94 96 29
111 110 33
111 110 33
110 108 35
107 104 34
104 103 32
110 107 31
114 112 35
127 122 41
121 118 35
114 112 37
119 117 33
116 113 36
123 120 36
116 113 35
121 119 33
136 133 49
135 130 45
131 127 46
136 132 36
125 122 33
127 124 45
118 114 33
128 124 41
134 131 47
133 129 42
132 129 37
137 132 46
131 126 42
133 129 43
144 138 51
134 129 37
142 137 51
139 134 41
131 127 47
140 136 41
138 133 47
140 135 51
137 132 48
144 138 45
147 142 39
146 140 53
136 131 36
136 131 44
141 136 44
141 136 44
142 137 51
140 135 47
139 134 41
142 137 46
144 139 42
142 137 42
140 135 47
136 132 41
141 136 44
134 129 47
139 134 44
135 131 36
131 127 36
138 132 41
138 133 37
139 133 45
135 130 41
138 132 42
137 132 42
134 130 41
136 131 34
131 125 41
133 128 41
141 136 41
131 126 36
143 137 49
124 118 36
131 125 39
132 126 41
128 123 41
131 129 34
136 133 36
140 141 32
141 144 28
132 134 34
140 145 19
132 139 19
147 151 28
150 158 25
142 150 19
146 155 19
148 159 19
153 164 11
159 170 25
160 175 16
158 172 11
161 176 0
164 180 0
167 182 0
166 184 0
168 186 0
168 186 0
163 180 0
167 185 0
168 187 0
166 182 0
170 188 0
168 186 0
166 183 0
166 185 0
170 190 0
167 187 0
169 189 0
163 183 0
171 192 0
167 185 0
166 184 0
183 203 122
186 207 133
182 203 117
184 206 122
186 207 140
185 206 122
188 208 140
189 209 144
187 207 147
184 205 128
192 212 159
187 206 140
194 213 165
185 205 144
188 208 147
190 210 169
191 211 157
192 212 163
191 211 163
191 211 157
197 216 186
193 213 167
194 214 171
195 214 184
192 212 159
196 214 182
191 211 169
194 214 171
190 210 167
197 216 191
197 216 182
197 216 179
195 214 182
200 218 191
197 216 188
198 217 188
198 217 193
201 220 198
196 215 182
201 220 199
195 214 177
199 218 191
193 213 181
194 214 171
193 213 177
197 216 193
197 216 184
196 215 188
191 211 165
195 214 175
198 217 193
193 213 165
195 214 186
196 215 182
191 211 169
194 214 171
195 215 173
197 216 182
194 213 177
194 214 173
196 215 173
198 217 184
193 212 167
193 212 159
189 209 151
189 209 155
189 208 155
190 210 153
189 209 153
186 206 142
185 205 135
191 210 157
182 203 137
180 202 125
189 209 144
179 199 125
179 200 126
170 190 124
166 186 143
148 170 149
148 170 151
152 174 137
139 163 137
134 158 141
122 147 145
90 120 168
90 120 171
93 122 161
81 113 173
85 115 173
90 119 170
79 110 165
75 108 170
71 105 175
67 101 167
73 106 171
69 103 170
73 107 172
66 101 165
63 99 167
65 100 169
67 102 171
62 98 172
63 99 169
62 99 176
61 97 170
60 97 165
60 97 167
61 98 170
61 98 170
60 96 170
62 98 170
61 98 171
61 98 172
61 98 169
61 97 167
60 97 168
61 98 172
61 98 172
62 99 174
61 97 168
61 98 167
61 98 165
62 99 174
62 98 170
62 98 171
61 98 168
62 99 172
62 97 165
61 98 166
61 98 168
62 98 170
62 99 169
61 97 164
62 98 173
61 98 169
62 99 175
62 98 165
62 98 170
61 98 168
61 98 161
61 97 164
62 99 170
62 99 171
61 98 165
62 98 169
62 98 166
61 98 166
61 98 170
62 98 165
62 98 168
62 98 172
61 98 168
62 99 171
61 97 161
61 98 166
61 98 166
62 98 168
62 98 165
62 98 169
61 97 167
63 99 173
63 99 174
62 98 163
61 98 167
61 97 166
63 99 171
61 98 161
63 99 169
62 98 158
62 98 164
61 98 165
62 98 168
62 98 165
61 98 167
62 98 165
62 99 169
62 98 165
62 98 167
62 98 161
60 96 154
62 98 164
62 98 162
61 97 161
62 98 161
61 97 156
62 99 169
62 99 169
62 98 163
62 98 168
62 98 163
61 98 162
61 97 156
63 98 162
62 98 162
62 98 161
62 98 160
61 97 156
62 98 162
62 98 160
62 98 166
61 97 161
63 98 161
61 97 157
61 97 159
62 98 162
61 98 164
62 97 156
62 98 162
62 98 162
62 98 164
62 99 164
62 98 164
62 98 169
62 98 164
62 98 164
62 98 164
62 98 158
62 98 153
63 99 164
62 97 160
62 98 166
63 99 169
63 98 163
62 98 162
63 98 162
62 98 161
61 97 158
62 98 159
62 98 159
61 97 155
63 98 159
61 97 158
62 97 156
62 98 158
61 97 155
61 97 155
62 98 162
63 99 168
61 97 157
60 95 150
62 98 158
61 96 151
62 98 164
61 96 150
61 97 153
61 97 159
62 97 151
62 97 151
61 96 152
62 97 153
61 95 141
62 97 147
61 96 147
60 94 147
61 96 154
60 95 148
61 95 145
60 94 142
60 95 139
59 92 137
60 94 144
59 93 143
67 88 107
76 86 73
77 82 67
77 75 12
81 80 5
84 82 21
80 79 11
86 83 16
81 80 8
83 81 12
91 90 12
84 84 15
80 80 18
94 92 9
88 87 8
90 90 14
101 98 22
97 97 11
96 94 14
98 97 24
101 99 25
98 97 24
99 98 34
93 92 20
109 107 24
111 109 28
103 102 28
111 109 28
117 113 29
116 114 27
114 111 42
111 109 28
113 110 34
120 118 30
119 116 36
127 123 36
122 119 30
130 126 34
126 124 39
129 125 45
125 122 47
128 124 37
131 126 42
129 125 42
142 137 48
128 125 37
133 128 48
133 129 42
134 130 42
128 126 36
132 127 45
130 126 39
139 133 41
132 127 49
135 131 49
133 129 37
137 132 47
131 127 44
137 133 30
131 127 44
141 136 44
135 130 44
135 131 38
135 132 37
137 134 41
139 135 44
135 132 45
148 143 52
133 130 32
142 138 42
138 132 41
137 132 49
128 124 41
143 138 47
132 127 39
134 129 37
138 132 42
145 140 47
132 126 37
137 131 41
146 140 48
140 133 47
144 138 51
135 129 45
143 138 47
132 127 44
139 134 42
136 130 44
132 127 32
135 130 48
134 129 30
132 126 48
137 132 37
139 134 36
130 124 32
129 124 41
137 132 47
129 124 37
122 118 32
137 134 39
123 121 28
145 144 36
134 134 30
132 135 25
141 143 28
137 144 19
143 150 34
149 157 30
142 151 19
148 154 30
153 163 22
154 166 25
157 168 19
162 175 22
160 175 11
159 175 0
165 182 0
168 185 11
167 183 0
166 182 0
170 192 0
160 176 0
166 186 0
166 184 0
166 185 0
167 185 0
160 177 0
163 182 0
166 184 0
163 182 0
166 183 0
163 181 0
166 185 0
166 187 0
169 188 0
166 184 0
167 186 0
185 206 130
182 204 120
181 202 122
185 207 122
188 209 144
183 204 135
192 212 163
192 212 163
188 208 147
191 211 159
190 210 157
193 213 163
189 209 161
198 216 184
192 211 153
198 217 181
194 213 173
193 213 165
190 210 163
193 213 169
193 213 171
193 214 173
195 215 182
198 218 191
197 216 184
199 218 193
199 218 191
200 219 199
195 215 177
199 219 198
201 220 199
196 215 189
196 216 182
200 219 198
197 216 189
199 218 198
193 213 171
195 215 184
202 220 204
197 216 198
200 219 194
197 216 182
199 218 194
200 219 199
197 217 184
196 215 186
197 216 189
197 216 188
194 214 184
200 219 196
202 220 206
197 216 199
193 214 173
198 217 189
205 223 209
195 214 184
197 216 188
195 214 177
199 218 189
196 215 181
196 215 181
198 216 182
194 213 179
195 215 179
196 215 173
193 212 179
192 211 169
187 208 151
189 209 153
184 204 137
193 212 165
190 210 151
189 208 149
190 209 147
193 212 167
185 205 144
183 203 142
176 197 137
158 179 157
152 174 147
153 174 157
139 162 158
135 158 155
132 156 149
123 147 143
102 130 168
91 120 168
86 117 175
80 112 171
90 119 169
80 111 174
85 116 175
77 109 166
68 103 163
69 103 168
79 111 171
66 101 163
69 103 168
62 98 170
62 98 167
65 101 170
67 102 168
65 101 167
64 99 170
65 101 167
64 100 166
61 98 169
61 98 169
62 98 173
61 98 172
61 98 173
61 98 171
62 98 173
61 98 169
61 97 168
61 98 171
61 98 170
61 97 169
62 98 171
62 98 173
61 98 172
61 98 170
62 99 174
61 98 167
61 98 165
62 99 176
62 98 170
61 98 171
62 99 171
62 99 173
62 98 171
62 99 170
62 99 176
61 98 164
62 98 166
62 98 170
62 98 167
61 97 164
62 98 169
61 98 167
62 99 171
61 98 162
62 99 170
62 98 168
61 97 164
62 99 169
62 99 171
61 97 163
62 99 166
62 99 172
62 99 170
61 98 168
60 97 163
62 98 160
62 98 170
61 98 166
62 98 166
62 99 170
61 98 166
62 99 169
62 98 164
62 99 173
62 98 166
62 98 169
62 99 170
62 99 168
62 98 166
62 98 163
62 99 170
62 99 171
62 98 164
62 98 163
62 98 164
62 98 167
61 97 158
62 98 169
62 99 165
63 99 170
61 97 162
62 99 168
63 99 171
61 98 163
62 98 160
62 99 165
62 98 168
62 98 162
62 98 162
62 98 167
61 97 155
62 98 165
62 98 168
62 98 166
62 98 161
61 97 161
61 97 159
62 98 164
63 99 166
61 97 157
61 98 160
62 98 165
62 98 165
62 98 164
62 98 163
62 98 162
62 98 164
61 98 160
61 98 162
62 98 164
62 98 166
62 99 170
62 98 159
62 99 164
62 98 161
63 99 165
62 98 159
62 98 157
62 99 168
61 97 161
62 98 161
62 98 159
62 98 165
61 97 155
62 98 160
61 96 155
62 98 162
61 97 155
61 96 149
62 98 156
62 98 158
62 99 164
62 98 158
61 97 155
62 98 158
61 97 153
62 97 155
62 98 161
61 97 158
61 97 156
63 98 157
61 97 149
63 99 160
62 98 160
62 98 159
61 97 154
61 97 158
62 98 158
62 98 158
61 96 151
61 97 148
61 97 152
61 96 155
60 95 142
62 98 156
61 97 153
61 96 147
61 96 153
61 96 156
61 96 146
62 97 156
60 94 142
61 96 147
60 94 139
56 87 119
64 86 114
68 82 85
77 79 39
94 91 0
80 80 14
86 85 14
88 86 22
90 88 16
86 86 8
86 84 9
79 78 14
84 82 16
91 91 14
92 90 16
97 96 18
90 88 19
100 97 24
99 99 21
108 107 20
96 94 24
93 91 14
98 97 14
102 99 28
108 106 25
100 98 24
101 100 28
111 109 27
102 101 16
116 113 38
116 112 33
125 122 32
113 110 30
116 113 33
118 114 33
109 107 21
117 113 36
112 111 30
121 118 38
122 118 35
121 118 31
124 121 38
117 114 31
135 131 44
141 136 41
123 120 43
119 116 31
121 117 45
121 117 37
122 119 42
134 128 45
129 124 32
128 123 34
133 129 45
136 131 38
138 132 40
132 127 37
139 134 44
141 137 42
134 128 42
144 139 48
138 134 39
139 134 45
139 133 47
140 135 42
134 130 32
143 139 42
143 139 39
144 138 53
142 136 51
141 137 44
138 132 32
131 128 34
147 140 51
149 143 49
132 127 37
139 133 45
144 138 47
140 134 45
138 133 37
134 129 39
126 122 32
139 134 41
138 133 37
126 121 22
132 126 41
137 132 48
135 131 39
133 129 36
129 124 36
139 132 41
133 129 44
134 130 39
127 122 47
134 128 37
125 119 34
130 125 36
126 122 37
135 133 36
135 132 32
130 127 41
129 129 28
137 136 30
130 132 25
139 141 22
135 141 19
143 151 19
141 144 32
150 154 30
154 165 22
148 158 16
148 158 11
155 168 11
153 165 19
159 173 11
159 174 0
165 181 0
163 181 0
161 178 0
169 187 0
165 182 0
162 178 0
164 182 0
164 182 0
168 188 0
166 183 0
166 184 0
168 186 0
169 187 0
165 182 0
165 184 0
166 184 0
169 189 0
165 182 0
169 188 0
168 188 0
170 189 0
168 187 0
186 207 135
185 205 128
186 207 137
187 207 137
188 208 147
188 208 155
190 209 153
190 209 151
192 211 167
190 210 161
191 211 161
193 212 163
190 210 161
193 213 165
193 212 169
195 214 182
197 215 175
194 214 182
195 214 182
194 214 179
196 215 179
196 215 181
200 219 198
196 215 181
199 217 198
198 217 193
200 219 199
198 217 186
201 220 206
200 218 198
202 220 206
197 217 189
204 222 209
199 219 196
200 219 204
203 222 217
202 220 199
203 222 211
200 219 199
200 219 201
198 217 193
198 217 194
200 219 199
201 220 203
202 220 206
198 217 194
199 219 199
201 220 203
195 215 182
203 221 211
197 217 191
199 218 196
194 213 177
205 223 211
198 217 193
197 217 193
201 219 203
203 221 206
199 218 196
202 220 199
198 217 186
201 219 198
195 214 179
197 216 193
193 212 173
195 214 181
196 215 179
199 217 189
194 213 165
191 210 169
191 210 169
193 213 165
196 215 175
189 209 157
186 207 135
193 211 169
178 198 148
170 190 170
158 179 167
158 180 168
161 180 173
142 164 176
136 159 162
132 156 137
112 137 170
94 123 172
100 128 172
90 119 179
91 120 166
81 112 172
75 108 166
84 114 163
71 105 177
74 108 169
75 108 169
68 103 170
70 103 165
72 105 164
65 100 173
72 106 169
66 101 168
64 100 174
64 100 163
61 97 173
63 99 168
63 99 168
61 98 169
62 98 171
61 97 168
62 98 174
60 97 163
61 97 168
61 97 164
61 98 171
60 97 164
60 97 169
60 97 163
62 98 173
62 99 172
62 98 173
60 97 165
60 96 163
62 98 175
61 97 168
61 98 170
61 98 169
61 98 168
62 98 168
61 98 170
62 98 171
61 98 168
62 98 171
61 98 163
61 97 170
62 99 173
62 98 170
62 98 171
62 98 168
63 99 171
61 98 165
62 98 168
62 98 170
62 98 169
62 99 171
62 98 163
62 99 168
63 99 172
61 98 166
62 98 168
62 98 165
62 99 169
63 99 173
62 98 169
62 98 168
62 98 167
62 98 168
61 98 165
62 98 168
61 98 170
63 99 169
62 99 170
61 98 162
62 98 165
61 97 159
62 98 167
63 99 171
63 99 169
62 98 167
62 99 169
62 98 160
62 99 169
61 97 157
62 98 162
61 97 165
63 99 169
62 99 167
62 99 168
63 99 168
61 97 162
62 98 168
62 98 164
61 98 165
61 98 164
61 97 158
61 98 166
63 99 168
62 99 164
62 97 158
62 99 168
62 99 170
63 99 164
62 98 165
61 98 166
61 97 162
62 98 162
61 97 154
62 98 163
63 99 170
61 97 159
62 98 164
62 99 164
62 98 159
61 97 159
62 98 160
62 98 159
61 97 161
63 99 166
62 98 158
62 98 160
63 99 165
63 99 166
62 98 159
61 97 156
61 96 157
62 98 164
63 99 164
61 97 153
62 98 161
62 98 170
62 98 162
62 98 160
62 98 160
62 98 158
62 98 158
62 98 163
62 98 162
62 98 160
62 98 161
62 99 163
62 98 157
62 98 164
62 98 162
62 98 164
61 97 155
62 97 158
60 96 148
62 98 158
61 96 149
62 97 158
62 98 163
61 96 151
61 96 152
61 97 148
62 98 162
62 98 160
61 96 150
61 96 151
60 95 147
60 96 151
61 96 147
61 95 147
62 97 151
62 97 150
62 97 152
61 97 149
60 95 148
60 95 145
62 96 154
61 96 147
60 94 143
60 94 139
59 94 143
61 93 133
78 96 101
76 81 65
86 88 21
95 93 16
89 87 8
87 86 18
70 70 14
87 86 8
85 84 19
88 86 22
91 90 9
89 88 21
92 91 5
90 88 9
90 90 16
98 97 18
91 90 21
95 93 24
102 100 22
82 84 24
99 99 27
98 96 18
104 103 18
103 100 28
99 98 20
101 100 24
107 106 26
104 102 18
103 102 27
119 116 33
111 110 22
111 109 29
113 111 29
117 114 29
115 111 34
110 107 29
116 112 42
124 120 36
122 117 37
124 121 40
118 114 38
117 114 32
122 119 39
124 120 30
131 127 44
130 126 41
132 128 32
126 121 38
127 123 30
129 124 39
135 131 43
139 134 39
136 132 39
130 126 38
131 126 43
133 129 47
132 126 34
141 136 39
132 129 42
138 133 39
140 135 51
138 133 38
137 132 42
136 133 32
138 133 41
137 133 42
132 126 28
132 127 34
134 130 41
132 128 36
136 131 34
136 132 44
139 135 39
146 141 49
147 142 42
140 136 37
136 131 39
134 128 36
140 133 39
133 128 41
138 132 47
129 122 34
142 136 45
125 121 34
133 129 36
134 130 36
139 134 42
133 129 36
128 122 25
128 124 37
126 121 30
126 122 34
133 127 42
138 133 34
124 119 34
130 126 42
123 119 28
128 125 36
130 129 16
135 137 30
136 135 32
138 139 34
142 146 19
134 137 22
143 147 30
145 151 28
150 158 16
142 152 16
147 155 11
154 170 0
147 157 22
161 175 0
159 174 0
156 166 0
168 182 11
165 183 11
165 180 0
161 176 0
165 183 0
159 174 0
164 180 0
166 182 0
165 183 0
165 182 0
163 180 0
164 181 0
166 186 0
167 184 0
168 187 0
169 186 0
167 186 0
169 186 0
166 185 0
166 185 0
167 186 0
169 188 0
168 187 0
186 206 140
187 208 142
186 207 140
188 209 144
186 207 135
186 207 149
188 209 140
191 211 157
195 214 173
190 210 159
196 215 179
197 217 184
195 215 182
198 218 189
199 218 191
197 216 186
199 218 193
201 220 204
198 217 191
195 215 179
199 218 194
198 217 194
204 222 212
200 219 204
197 216 194
204 222 214
198 217 188
203 222 209
204 222 207
198 218 194
203 221 212
202 221 209
198 217 194
203 221 211
206 224 218
205 223 212
204 222 215
203 222 215
201 219 198
203 222 209
203 222 211
202 221 206
203 222 207
200 219 204
204 223 217
202 220 204
205 224 221
203 221 209
203 222 211
202 220 204
201 220 203
203 221 211
203 222 209
200 219 201
203 221 206
203 221 204
195 215 182
206 223 215
201 220 211
202 221 206
203 221 206
199 218 191
199 219 198
199 217 193
198 218 189
201 219 194
190 210 163
194 214 177
198 216 184
198 216 188
192 211 165
192 212 173
195 213 181
190 210 163
192 211 166
191 210 169
183 203 170
169 189 169
161 182 171
152 173 173
143 166 174
138 160 172
121 145 174
125 149 166
124 148 172
108 134 168
99 126 175
105 131 177
91 121 175
88 118 168
82 113 162
81 112 170
76 109 176
78 110 166
78 110 177
82 113 172
70 104 174
67 102 168
68 102 166
71 105 159
66 101 175
62 98 174
66 101 165
63 98 162
61 97 165
62 98 168
62 98 172
68 103 167
64 100 168
62 98 168
60 97 168
62 98 170
61 98 168
61 97 164
60 97 162
61 97 165
62 99 173
61 98 172
61 97 166
61 97 165
60 97 168
62 99 173
61 98 171
62 99 171
61 97 168
61 98 174
61 98 174
61 98 170
62 98 166
62 98 172
62 98 170
61 97 166
62 98 167
61 97 163
62 98 172
62 99 174
62 99 168
62 98 165
61 98 172
62 98 165
62 98 169
61 98 165
62 98 170
62 99 171
62 98 163
61 97 167
62 99 172
62 98 165
61 97 167
63 99 166
62 98 165
62 98 171
61 98 160
61 98 166
62 98 166
62 98 167
61 98 164
61 97 162
63 99 169
62 98 165
62 98 161
62 98 169
63 99 168
61 98 163
62 99 167
62 98 166
62 98 165
62 98 163
62 98 164
62 99 173
62 98 168
62 98 163
63 99 172
61 96 160
62 98 168
62 99 170
62 98 163
62 99 171
62 99 169
62 98 169
62 98 163
61 97 158
61 98 161
62 98 165
62 99 165
62 98 159
61 98 167
62 98 165
62 98 162
62 98 167
62 98 167
62 98 164
62 98 166
62 98 163
62 98 165
62 98 164
62 99 169
62 98 160
62 98 164
62 98 159
62 99 168
62 98 165
61 98 169
61 97 160
62 99 167
62 98 159
62 98 165
62 99 164
62 98 164
62 98 161
62 98 162
61 97 158
62 97 156
62 98 158
61 97 160
62 98 157
61 97 155
63 99 165
62 98 156
62 98 159
62 98 160
61 96 151
62 98 160
61 96 152
62 98 158
62 98 158
61 97 154
62 97 156
61 97 152
62 98 159
61 97 155
62 97 155
62 97 158
61 97 152
62 97 151
62 97 154
63 99 165
61 97 151
61 97 151
62 97 159
61 97 152
61 97 153
62 97 151
61 97 151
61 96 146
61 96 143
61 97 157
61 97 149
60 96 145
62 98 161
61 96 154
60 95 146
62 97 156
61 96 149
60 95 149
61 95 151
60 94 136
62 96 152
59 93 130
59 92 137
58 91 133
61 96 148
60 92 137
66 86 117
87 95 66
89 91 52
99 99 24
87 86 19
87 86 12
92 91 14
80 79 16
89 86 18
88 88 14
94 92 14
89 86 12
95 93 14
101 98 23
91 87 8
103 100 12
100 98 20
94 95 23
89 87 25
99 97 14
104 103 19
103 101 28
104 102 19
108 105 19
110 108 36
106 103 27
98 97 31
112 109 20
103 101 33
114 112 25
112 110 30
115 112 31
116 113 26
113 110 24
114 112 21
120 117 21
119 115 34
117 114 29
114 112 29
120 117 36
116 112 29
125 122 36
125 123 31
122 119 24
125 122 33
138 132 43
133 128 44
128 125 30
125 122 29
131 127 37
128 124 40
129 124 37
128 122 39
135 129 42
132 127 37
132 128 37
130 124 35
133 129 31
131 126 37
128 124 37
136 132 44
129 124 30
135 129 41
134 130 38
136 131 37
131 127 34
139 134 45
139 134 45
139 134 42
125 122 34
140 135 44
136 132 42
131 127 34
133 129 37
141 135 28
138 133 41
134 128 39
140 133 44
139 134 36
136 130 39
140 133 37
142 135 45
131 126 34
138 132 37
122 119 19
135 128 37
136 130 32
129 126 25
126 120 30
126 121 22
129 124 37
130 124 41
123 117 32
126 122 32
123 117 25
135 132 36
126 123 34
132 130 32
137 138 34
131 132 19
138 138 32
137 139 32
150 154 30
139 140 19
146 153 25
146 154 19
147 155 25
159 169 22
156 165 11
152 166 0
150 160 0
154 165 11
153 167 0
158 173 0
162 176 0
159 174 0
162 179 0
161 175 0
165 180 0
166 185 0
162 179 0
164 178 0
166 184 0
165 183 0
165 182 0
166 184 0
165 181 0
169 188 0
167 184 0
164 181 0
165 183 0
166 184 0
166 182 0
170 190 0
169 188 0
164 182 0
167 186 0
190 210 147
189 210 153
189 209 155
194 213 165
187 207 153
187 207 147
192 211 153
191 211 161
194 213 169
193 213 169
196 216 188
200 218 194
195 215 179
197 216 186
198 217 196
201 220 201
198 218 191
200 219 198
198 218 194
201 219 201
198 217 193
204 222 209
198 218 199
200 219 198
203 221 209
200 219 204
204 223 218
203 222 212
201 220 207
202 221 207
200 219 203
203 222 212
207 225 224
205 223 217
201 219 209
203 221 214
202 221 215
204 222 217
204 222 212
202 221 212
207 225 221
205 224 223
202 220 206
207 225 224
200 220 206
202 221 209
203 221 209
202 221 212
199 217 201
203 222 211
203 221 211
202 221 207
204 222 211
201 220 204
202 221 204
202 221 206
202 221 204
204 222 215
201 220 198
199 218 196
201 219 206
202 220 203
200 219 199
197 216 189
202 220 201
199 217 188
200 218 194
202 221 206
200 219 194
193 213 169
199 217 191
192 212 171
188 209 157
192 212 165
186 206 158
186 206 168
179 198 172
176 195 189
154 175 179
159 179 193
142 163 188
153 174 179
134 157 188
135 158 175
132 156 170
99 126 171
110 136 166
97 125 180
86 117 163
75 107 169
87 117 170
79 111 174
81 112 167
79 111 166
71 104 164
69 103 168
83 113 165
74 107 168
69 104 167
64 99 171
72 105 162
69 104 172
61 98 169
65 100 166
65 100 162
66 101 166
64 99 169
65 101 167
65 100 166
61 97 165
61 97 166
61 97 165
61 98 165
61 97 168
62 98 168
61 97 165
61 97 166
60 97 169
62 98 167
60 97 168
60 96 166
61 97 168
61 97 167
61 97 168
62 98 168
61 97 167
61 98 167
62 98 165
61 97 167
61 98 174
62 99 173
61 97 163
62 99 167
62 98 166
63 99 172
62 99 170
61 97 166
62 99 175
61 98 168
61 97 166
62 99 173
61 96 158
62 98 171
61 98 166
60 97 163
61 98 169
62 99 171
61 98 166
62 99 165
61 97 161
62 98 167
62 98 166
62 98 170
62 98 168
62 98 164
62 98 168
62 98 169
62 98 167
61 97 159
62 99 171
62 98 166
62 99 170
62 99 167
62 98 164
62 98 167
62 98 167
62 98 169
61 98 158
63 99 173
62 98 161
63 99 170
62 99 167
63 99 169
62 98 160
62 97 158
62 98 167
62 99 167
63 99 174
62 99 169
62 98 163
62 98 161
62 98 167
63 99 170
62 98 169
62 98 161
62 98 161
62 99 167
62 98 163
61 97 156
61 97 157
62 98 163
62 98 155
62 98 164
62 98 162
62 98 162
62 98 158
62 98 161
62 98 167
62 98 166
62 98 159
62 98 164
62 98 165
62 98 160
61 97 157
62 98 163
61 97 162
60 96 154
62 98 164
61 97 153
62 98 162
61 97 151
62 98 161
62 98 161
62 98 158
62 98 160
62 99 166
62 98 161
60 96 150
62 98 162
62 98 157
62 97 156
61 96 152
62 98 160
61 97 155
62 98 159
61 97 154
60 95 141
62 98 160
62 98 159
62 97 155
59 95 147
61 97 153
61 97 155
61 97 152
61 96 144
62 98 160
62 97 160
62 98 154
62 97 156
62 98 162
61 97 151
62 97 154
62 97 155
61 96 148
61 97 160
61 96 147
61 97 152
61 96 144
61 96 149
62 96 152
60 95 152
60 95 147
60 95 154
60 95 139
60 95 146
60 94 148
61 96 151
60 95 147
60 93 141
60 95 139
59 93 143
61 95 147
63 90 118
67 88 110
83 92 83
84 87 57
97 94 22
84 83 1
85 86 12
79 77 18
78 77 14
87 84 16
72 71 8
82 79 16
92 89 3
86 84 12
92 90 11
92 90 11
92 90 5
80 80 20
100 97 3
92 89 14
100 96 22
99 97 18
104 101 25
104 101 27
99 98 16
105 104 23
98 97 18
111 109 22
114 113 26
112 109 16
113 111 24
115 111 34
115 112 24
113 111 36
118 116 29
106 104 21
127 123 30
108 104 26
118 115 24
116 112 28
121 117 24
117 114 22
117 113 28
129 124 36
120 118 18
127 123 33
135 130 38
115 112 20
125 122 26
128 123 35
126 121 36
124 120 30
127 124 31
131 126 45
136 133 37
131 127 34
128 124 38
130 124 42
133 129 37
134 129 37
132 129 38
133 129 32
133 129 44
123 120 33
146 139 48
139 134 40
130 127 25
132 128 39
134 129 39
133 129 37
141 135 39
135 130 33
138 132 47
131 126 32
129 126 30
131 127 28
138 132 37
136 131 39
137 131 44
135 130 36
139 132 32
134 129 32
132 127 34
131 125 39
135 129 41
122 117 39
131 128 28
126 121 36
130 125 28
127 121 28
133 127 34
124 120 34
133 129 39
123 119 30
131 127 37
131 128 30
137 135 34
140 139 30
131 130 22
136 135 36
140 138 30
136 141 22
141 145 28
136 140 16
142 149 22
146 156 11
150 156 25
149 160 16
151 162 11
154 165 16
160 175 0
162 175 0
155 169 11
161 174 11
155 169 0
161 177 0
163 178 0
166 183 0
163 180 0
162 177 0
164 181 0
163 179 0
164 181 0
166 185 0
163 179 0
162 181 0
167 185 0
161 180 0
172 191 0
168 187 0
169 189 0
168 187 0
169 186 0
168 188 0
162 182 0
168 185 0
170 189 0
165 185 0
197 216 179
194 213 163
196 215 175
194 214 171
194 213 169
197 216 179
192 212 159
196 215 177
197 216 189
197 216 186
197 216 186
196 216 188
195 215 186
197 217 189
199 218 188
201 220 199
202 221 211
200 219 204
202 220 199
203 221 211
202 220 207
200 219 203
201 220 203
206 223 217
203 221 211
204 222 218
200 220 206
202 221 204
201 220 206
206 224 223
204 222 215
202 222 214
204 223 220
205 223 218
206 224 220
203 222 215
203 222 212
204 223 217
205 223 220
207 225 231
206 224 218
207 225 227
204 222 212
205 223 218
205 224 220
207 225 224
209 226 233
205 223 217
204 222 215
207 225 223
203 222 211
205 223 217
201 220 211
203 221 207
198 218 194
203 222 217
205 224 220
201 220 206
205 223 218
205 224 221
202 220 198
203 221 209
203 221 209
200 219 201
199 218 193
198 217 191
197 217 188
195 214 181
199 218 193
196 216 188
202 220 203
196 215 184
196 216 182
197 215 189
198 216 188
195 213 194
185 203 188
163 183 189
162 182 199
151 172 186
156 177 196
150 170 187
125 149 186
128 151 176
112 138 174
104 131 175
103 130 171
110 136 169
99 126 170
89 119 175
89 119 165
84 114 165
84 115 173
66 101 168
84 115 171
75 108 173
77 109 170
78 110 162
81 113 167
70 104 165
70 104 169
72 105 169
64 100 175
65 101 168
64 100 170
67 102 169
61 97 164
61 98 173
63 99 170
64 99 161
60 96 161
61 97 163
61 97 164
61 98 165
61 97 168
61 98 172
60 96 165
62 98 171
61 97 172
61 97 168
61 97 166
61 98 173
61 98 171
61 97 163
60 97 168
61 98 167
62 99 173
62 99 167
62 98 168
62 98 170
60 96 164
62 98 170
61 98 172
60 97 158
62 98 167
62 98 171
62 98 167
62 98 167
61 98 167
61 97 161
62 99 172
62 98 165
62 99 171
62 99 172
61 98 165
62 98 164
61 98 163
61 98 169
61 97 162
61 98 163
62 98 169
62 98 167
62 98 162
62 98 170
62 98 171
62 98 168
62 98 170
63 99 171
62 99 170
62 98 166
62 98 163
62 98 168
62 99 169
62 99 169
62 98 166
62 98 161
61 97 163
63 99 168
62 98 168
62 98 168
62 98 164
62 98 162
62 98 166
62 98 162
62 99 166
62 99 166
62 98 163
62 99 171
61 97 156
61 97 157
61 97 154
61 98 165
61 97 159
62 98 163
62 98 163
62 98 161
63 99 164
61 97 160
61 97 155
62 98 160
62 99 168
61 97 156
61 97 159
63 99 168
62 99 163
62 98 158
62 98 159
63 99 167
61 97 157
62 98 160
63 99 166
62 98 163
62 98 158
62 98 159
61 98 162
62 98 165
62 98 160
62 98 160
62 98 157
62 98 159
63 99 165
62 98 164
61 97 161
61 97 157
62 98 167
61 97 158
62 98 163
62 98 160
61 97 153
62 98 165
61 97 163
62 97 157
61 97 154
62 98 160
62 98 164
63 98 158
62 98 157
62 98 152
61 96 153
61 97 158
61 97 155
61 97 152
62 98 157
61 97 150
61 97 154
61 96 148
60 96 148
62 97 153
61 97 152
61 96 152
61 96 155
61 96 149
62 98 161
63 99 161
60 96 141
62 97 145
61 96 148
60 95 138
61 97 150
61 96 148
61 96 143
61 96 149
61 96 149
61 96 144
60 94 140
62 98 154
60 94 140
59 93 123
60 93 142
60 94 142
60 94 140
58 91 137
67 94 129
67 83 94
71 81 69
94 95 37
88 89 0
99 97 11
85 84 0
92 93 14
91 90 11
88 88 14
89 86 14
78 75 14
87 85 8
86 84 8
82 78 16
90 89 14
91 89 5
93 92 16
89 87 18
101 98 16
89 89 18
90 88 14
96 94 8
110 107 21
105 103 17
96 94 20
102 99 26
112 110 16
98 95 19
108 106 11
107 103 18
111 109 33
109 107 26
117 112 21
114 113 24
118 115 32
119 115 28
105 104 27
107 105 21
110 107 29
119 115 30
111 107 28
122 118 22
115 112 25
122 118 30
121 117 35
126 121 37
130 124 32
132 128 39
123 119 29
131 128 25
136 129 38
131 126 34
122 119 29
132 129 32
129 123 36
133 128 28
126 122 35
128 125 36
127 124 35
132 129 33
138 132 37
132 127 37
136 130 28
134 130 41
133 127 47
128 124 30
133 128 34
136 130 41
137 131 36
119 115 30
135 130 32
130 126 37
133 128 37
134 128 39
138 133 36
132 127 22
133 127 36
125 119 34
136 129 37
135 129 34
132 128 28
139 131 48
126 121 34
133 127 28
136 130 44
123 119 25
122 117 32
131 126 34
129 124 25
131 124 37
129 122 28
120 118 22
139 134 42
132 128 32
137 134 37
132 131 28
124 125 22
134 135 16
136 136 19
144 148 28
136 140 11
150 158 19
146 153 19
144 151 19
151 157 32
143 152 16
148 159 16
152 161 0
155 164 22
155 169 0
154 166 16
159 171 0
161 174 11
161 177 0
162 177 0
162 178 0
166 184 0
165 180 0
163 180 0
167 183 0
161 177 0
168 184 0
168 185 0
165 181 0
162 179 0
167 185 0
164 183 0
167 183 0
166 181 0
160 177 0
171 190 0
164 180 0
168 186 0
165 186 0
168 186 0
166 185 0
168 187 0
193 213 167
194 213 169
194 214 165
198 217 189
195 214 181
198 217 193
192 212 167
191 211 161
199 218 194
201 220 199
197 216 184
196 215 191
197 217 188
197 217 198
200 219 201
199 218 204
205 223 212
204 222 212
204 223 218
204 222 211
203 221 209
204 223 224
202 220 214
202 221 211
204 222 218
204 223 224
201 220 204
203 222 209
207 225 228
202 221 207
204 223 214
208 226 227
203 222 214
208 226 233
210 227 236
207 225 226
206 224 228
205 222 218
205 223 218
206 224 226
204 223 217
209 226 230
205 224 223
205 223 221
205 223 214
206 224 223
208 225 230
201 220 204
206 225 224
205 224 220
204 222 214
203 222 215
207 225 226
205 223 217
205 223 215
205 223 215
205 223 218
210 227 233
206 224 221
203 221 209
206 223 220
200 219 199
201 220 203
206 224 218
201 219 201
209 226 226
206 224 218
204 222 214
201 219 199
203 221 207
198 217 191
200 218 198
202 220 198
201 219 201
193 212 186
193 211 197
190 209 201
177 196 202
166 185 208
149 170 197
145 166 193
142 163 191
130 153 188
123 147 182
125 149 186
118 143 181
110 136 177
109 135 182
87 117 174
85 115 173
81 113 169
92 122 179
90 120 174
72 105 171
90 120 169
80 112 165
82 112 163
79 111 169
68 102 165
79 111 169
67 102 166
66 101 167
69 103 167
67 102 169
61 97 167
65 100 166
62 98 167
64 99 168
61 98 172
61 98 172
63 98 161
60 96 165
63 99 163
61 98 174
61 97 164
60 96 167
60 96 164
61 98 171
61 98 173
60 97 164
61 98 171
61 97 168
62 98 166
61 97 162
61 98 165
61 98 168
61 97 167
62 98 171
60 96 165
61 98 168
61 97 166
61 97 164
62 98 167
61 98 165
62 98 167
62 98 170
62 98 167
60 96 163
61 97 165
62 98 172
62 98 166
62 98 170
62 98 161
61 98 169
62 99 169
62 98 170
62 99 171
62 99 171
62 98 170
62 99 167
61 98 168
62 99 166
61 97 164
62 98 166
61 98 169
61 97 165
61 98 167
61 97 164
63 99 169
61 97 161
62 98 167
63 99 169
62 98 163
60 96 155
62 99 165
61 98 164
62 98 160
62 98 171
62 98 163
62 98 169
62 98 159
63 99 168
62 99 169
61 97 161
61 98 162
61 97 158
63 99 166
62 99 167
62 98 166
62 98 160
62 98 161
62 98 161
61 97 157
62 98 168
62 99 170
63 99 169
63 99 169
61 98 161
62 98 166
62 98 161
61 97 155
62 98 164
63 99 166
62 98 164
61 98 161
61 97 155
61 97 153
61 97 157
62 98 158
62 98 164
62 98 164
61 97 158
61 97 152
61 97 152
62 98 159
62 98 160
63 99 160
63 98 162
61 97 160
62 98 156
61 97 155
62 98 164
62 98 162
61 97 150
62 98 158
62 98 161
62 98 165
62 98 157
63 99 164
62 97 153
62 98 154
62 98 156
62 98 156
62 99 164
62 98 160
62 98 159
62 98 162
61 97 155
61 96 149
62 98 158
61 97 158
61 96 151
61 97 161
62 98 155
61 97 149
61 96 148
61 97 154
62 98 159
61 96 153
61 97 148
62 98 154
61 97 149
60 96 152
62 98 153
62 97 156
60 95 149
61 97 151
62 97 154
61 97 150
61 96 143
62 97 152
62 97 149
61 97 159
60 95 147
61 96 150
60 94 142
61 95 142
60 94 140
59 94 139
60 93 138
60 93 139
58 92 138
65 90 107
72 86 95
88 97 71
94 96 43
96 94 14
91 88 16
97 97 12
97 96 8
97 91 16
86 81 11
87 85 11
85 83 3
85 82 3
96 94 14
107 103 14
100 97 1
111 106 3
88 87 0
98 94 16
96 92 11
97 95 11
102 100 16
88 87 18
106 103 23
102 100 12
109 106 14
95 93 19
100 98 23
101 98 20
112 108 20
109 106 16
110 106 3
107 103 16
108 104 26
113 110 21
105 102 22
113 112 23
109 106 21
109 106 21
118 115 19
119 115 32
116 112 18
122 118 25
121 119 30
120 116 31
122 118 22
124 122 12
121 118 24
132 127 36
127 122 39
129 126 35
118 115 29
133 129 35
129 124 22
126 122 25
127 122 26
133 129 32
118 113 25
123 120 19
116 113 30
131 126 30
132 127 34
136 131 34
136 131 33
126 122 25
133 127 36
137 131 39
137 132 41
129 122 34
141 136 45
128 123 32
138 133 44
136 131 39
138 132 44
130 125 37
133 128 34
132 126 30
124 120 30
135 129 42
130 124 36
128 122 32
127 121 34
134 129 36
139 133 42
125 121 36
128 123 34
120 115 32
116 111 32
126 122 22
126 121 25
141 135 47
132 129 32
124 121 28
120 117 19
130 127 30
128 129 22
132 135 22
128 129 16
137 139 25
133 135 30
139 147 19
141 147 11
142 150 25
137 145 25
143 151 19
148 155 25
150 161 22
159 167 25
157 168 16
147 157 11
160 173 11
162 176 16
158 170 0
167 181 0
161 176 0
164 180 0
163 177 0
163 177 0
165 182 0
164 180 0
164 180 0
166 183 0
166 183 0
166 184 0
166 183 0
166 182 0
165 182 0
166 186 0
162 180 0
162 179 0
167 183 0
161 179 0
165 182 0
167 186 0
163 182 0
163 182 0
167 185 0
169 189 0
193 212 169
196 216 181
190 210 167
194 214 177
198 217 184
199 218 198
197 217 198
201 220 203
199 219 204
195 215 182
200 219 203
202 221 209
198 218 194
204 223 214
202 220 203
203 222 211
200 218 196
202 221 203
205 223 218
206 224 223
203 221 215
206 224 221
207 225 221
206 224 221
202 221 209
205 223 221
205 223 221
203 222 218
206 225 228
206 225 227
209 226 228
208 226 233
206 224 224
207 225 223
208 226 233
207 225 228
209 227 236
209 227 233
205 223 221
206 225 228
203 222 217
207 225 227
210 227 231
209 227 234
207 225 224
206 224 227
209 227 233
208 225 227
207 225 228
204 223 223
206 224 221
210 227 234
205 223 220
206 224 221
204 223 215
205 224 218
208 226 224
204 222 215
207 225 227
209 227 230
203 221 211
206 224 218
204 223 217
202 220 211
205 223 218
205 223 214
205 224 217
204 222 217
202 221 209
201 219 194
205 223 215
199 218 193
202 220 201
198 216 209
194 213 199
189 207 201
181 199 209
169 188 204
160 180 210
154 174 208
156 176 207
155 175 205
137 159 195
117 142 180
124 147 196
123 147 191
107 133 185
103 130 179
101 128 181
98 126 186
77 109 171
78 110 173
85 116 164
78 110 171
78 110 170
69 103 172
77 109 172
79 111 173
70 104 167
70 104 168
78 110 169
67 102 173
62 98 174
70 104 170
66 101 167
64 99 168
68 103 165
61 97 171
61 97 168
63 99 164
61 97 168
62 98 172
61 97 171
62 97 160
61 98 169
61 98 165
61 97 164
60 97 167
60 96 162
62 98 169
60 97 169
61 98 167
61 98 166
59 96 159
60 97 164
60 97 166
61 98 169
61 97 160
61 98 172
61 97 169
61 98 163
60 97 166
61 98 165
62 99 168
62 98 166
62 98 169
61 98 170
61 97 157
61 98 165
62 98 166
61 97 165
62 99 168
62 99 167
62 99 166
62 98 164
61 98 163
62 98 164
62 99 167
62 99 169
62 98 165
62 98 163
62 98 164
62 98 165
61 98 164
61 98 164
61 98 162
62 98 164
62 98 165
61 97 159
61 97 155
62 99 168
62 98 159
62 98 161
62 98 162
61 98 162
61 98 164
61 97 160
61 97 160
62 98 161
62 98 161
62 98 160
62 98 162
62 98 164
63 99 169
62 98 163
62 98 163
61 97 157
62 98 162
62 98 168
62 98 166
61 97 157
62 99 168
62 98 166
61 97 159
62 98 164
61 97 160
63 99 169
62 98 163
61 97 156
62 98 164
62 98 162
61 96 151
62 98 163
62 98 167
62 98 163
61 97 154
62 97 156
61 98 159
62 98 165
62 99 166
62 98 162
62 98 166
61 98 162
62 98 164
62 98 158
62 98 167
60 96 155
62 98 156
61 97 157
62 98 162
61 97 157
62 98 157
62 97 150
62 98 154
61 96 156
62 98 164
62 98 160
62 98 162
61 97 157
61 97 155
62 98 162
61 96 149
62 97 157
62 98 152
62 97 151
63 99 162
62 98 162
62 98 158
62 98 156
62 98 158
62 97 151
62 98 154
61 97 152
61 97 152
61 97 150
61 97 152
62 98 154
61 97 154
61 96 152
61 97 150
62 97 159
62 97 157
62 97 153
61 97 151
63 98 160
62 97 150
61 97 151
62 98 156
61 96 154
62 97 151
61 97 150
60 95 147
61 96 144
59 94 137
62 97 152
61 96 143
61 96 148
59 93 134
60 94 132
58 91 128
60 93 138
58 91 126
64 88 108
80 94 89
99 105 70
106 108 31
93 92 8
96 97 20
102 101 0
102 102 8
92 91 12
80 80 19
91 89 18
89 88 11
82 80 8
86 81 11
84 81 12
91 89 8
96 92 14
83 80 3
93 90 0
100 97 9
91 90 16
90 89 0
99 96 0
111 107 11
95 93 11
104 101 14
104 100 21
100 97 14
98 95 16
109 105 21
104 102 22
111 109 12
116 112 23
110 106 16
104 102 21
118 114 22
111 108 24
122 119 28
119 115 28
119 115 24
122 118 24
128 125 22
113 111 29
123 119 29
118 115 22
118 116 26
126 122 35
121 117 22
128 124 38
126 122 31
125 121 25
126 122 30
118 114 22
129 125 25
130 127 28
128 123 16
128 124 22
128 125 32
131 127 28
140 135 32
126 122 19
121 117 19
126 121 25
120 116 25
124 120 19
129 125 34
121 117 29
137 133 25
126 122 32
127 123 30
126 121 28
136 131 37
133 129 36
135 129 32
127 123 28
126 120 22
131 126 32
133 128 37
121 117 25
126 121 25
127 122 30
129 124 39
133 128 32
121 117 22
135 129 41
124 118 34
126 120 32
121 116 22
124 119 28
128 123 28
118 116 22
127 125 28
130 129 22
135 134 22
131 130 28
131 131 22
127 126 19
141 143 11
138 142 22
140 145 16
142 148 16
143 146 28
136 139 16
146 154 19
150 159 19
150 160 16
151 165 0
156 170 0
145 156 19
154 164 0
160 175 0
157 171 0
157 172 0
164 182 0
162 176 0
163 178 0
170 186 0
164 180 0
163 177 0
159 176 0
163 179 0
164 179 0
163 180 0
163 180 0
166 183 0
167 184 0
165 181 0
168 185 0
167 185 0
161 178 0
165 181 0
169 187 0
163 182 0
168 187 0
168 187 0
165 184 0
162 182 0
164 183 0
198 217 186
203 221 201
197 216 186
196 215 188
196 216 191
199 218 188
197 216 186
197 217 193
199 218 193
200 219 207
201 220 206
202 220 204
201 220 203
203 222 211
203 221 201
202 221 209
204 222 223
206 224 226
205 223 221
206 224 224
206 224 223
202 221 212
204 222 212
205 224 221
205 223 218
207 225 224
208 226 228
207 225 226
207 225 226
206 224 227
205 224 227
209 227 230
208 226 231
207 225 226
208 226 230
207 225 230
206 224 221
209 227 236
209 226 233
209 226 228
209 226 230
207 226 230
210 226 236
208 226 227
208 226 230
206 224 224
210 227 236
209 226 231
209 227 234
208 225 230
208 226 227
209 226 231
207 225 230
209 226 228
207 225 226
208 226 231
206 224 223
208 226 226
207 225 223
203 221 214
205 223 220
206 225 223
206 223 218
206 224 217
203 222 214
206 224 218
209 226 223
202 221 207
205 224 221
205 223 214
197 216 186
207 225 223
205 223 215
203 222 214
194 212 213
188 206 212
185 203 221
166 187 204
167 186 217
153 173 203
148 169 205
143 164 207
150 171 205
119 143 185
122 146 180
121 144 189
119 144 181
123 146 179
108 134 176
104 130 176
96 124 176
94 122 179
80 112 177
92 121 175
83 114 176
81 113 173
87 117 173
78 109 175
69 104 170
68 103 175
69 104 168
66 101 169
67 102 169
62 98 166
68 102 165
65 99 164
64 100 168
62 98 166
63 99 165
63 99 169
62 98 166
64 100 168
63 98 164
64 100 173
64 100 171
65 100 170
60 97 161
61 98 167
61 98 165
62 98 168
61 97 170
61 98 165
61 97 166
60 97 163
61 97 166
61 98 170
61 97 167
60 96 166
61 98 167
61 98 165
60 96 161
61 97 163
60 97 168
60 97 163
61 98 166
60 96 161
61 97 164
61 98 165
62 99 172
62 99 171
62 98 171
61 98 165
62 98 167
62 98 164
62 98 170
62 98 167
62 98 167
62 98 161
62 98 169
62 98 166
61 98 166
62 98 165
62 98 169
62 98 163
61 97 159
61 97 159
62 98 164
62 98 159
61 97 163
61 97 158
62 99 174
62 98 166
62 98 164
62 98 162
61 97 160
62 98 163
62 98 163
62 98 163
62 98 165
62 99 165
62 98 162
61 98 163
62 99 164
62 98 163
62 98 161
60 96 150
61 97 161
61 98 163
61 97 158
61 98 164
62 98 163
61 97 160
62 98 163
61 97 161
63 99 167
61 97 157
62 98 165
62 98 161
62 98 166
62 98 160
61 98 162
62 99 163
62 98 160
62 98 161
62 98 161
61 98 167
61 97 158
62 98 164
62 99 165
62 98 161
62 98 163
62 98 158
62 98 159
63 99 166
62 98 161
62 97 157
61 97 159
62 98 163
62 98 161
61 97 160
62 98 161
61 96 150
62 98 156
62 98 162
61 97 154
63 99 166
62 98 160
61 97 155
62 98 157
62 98 160
62 97 154
62 97 156
62 98 163
62 98 159
62 98 154
62 98 160
61 96 151
61 97 156
61 96 152
61 97 156
61 97 157
61 97 157
61 97 154
63 98 159
62 97 153
61 97 152
62 97 153
62 97 158
62 97 156
62 97 153
63 98 156
62 97 155
62 98 155
63 98 154
61 96 144
61 96 142
61 96 148
61 97 153
61 96 145
61 95 146
62 97 154
62 97 150
60 95 144
60 95 139
60 95 144
60 94 141
60 95 144
60 94 140
60 94 148
58 91 130
60 94 141
58 91 127
69 91 100
80 93 76
92 99 61
99 103 22
96 98 21
108 108 21
100 100 0
90 86 0
97 99 0
87 87 0
98 95 11
88 86 0
64 65 8
93 93 16
86 83 8
91 88 8
89 87 0
89 85 14
89 85 14
92 91 0
88 85 8
97 94 16
108 106 18
97 95 18
102 100 16
100 97 11
98 95 24
112 109 11
117 114 18
116 112 19
105 101 16
100 98 22
96 95 16
112 108 16
112 109 21
116 112 21
115 112 21
117 114 21
112 108 14
108 107 8
126 122 29
113 107 25
109 108 21
127 122 24
125 121 18
117 112 28
119 116 21
128 124 29
118 115 25
118 115 22
124 120 19
129 125 19
130 124 19
125 121 30
128 124 34
121 117 28
120 116 25
125 120 22
129 124 34
125 122 28
133 128 22
130 126 30
125 121 28
122 116 30
126 123 19
127 122 28
132 126 30
127 123 19
128 122 31
131 127 32
124 118 36
125 121 0
128 122 41
137 132 36
128 123 25
135 130 36
123 120 16
130 125 36
128 122 22
123 118 28
121 118 19
125 119 32
124 119 34
117 113 16
125 121 22
128 123 30
131 126 30
135 131 32
134 127 42
134 131 25
131 127 32
132 130 28
133 133 25
125 126 16
133 134 11
130 130 19
140 140 30
135 137 22
141 146 22
141 144 25
137 141 25
149 154 22
147 154 16
148 154 22
149 157 0
150 162 16
153 165 16
154 166 16
155 169 11
164 178 0
163 176 11
160 173 0
162 175 0
163 178 0
163 179 0
162 175 0
163 179 0
165 181 0
161 176 0
161 176 0
164 183 0
161 176 0
163 178 0
160 178 0
164 180 0
164 182 0
163 180 0
169 187 0
165 181 0
168 188 0
162 179 0
166 183 0
166 182 0
164 183 0
163 181 0
166 185 0
163 181 0
167 186 0
199 218 193
199 218 191
197 216 191
199 218 196
198 217 196
204 223 212
201 220 204
201 220 203
202 220 207
205 224 220
201 219 204
201 220 201
205 223 218
205 223 214
207 226 230
205 223 217
205 224 221
205 223 218
207 225 226
205 224 220
204 223 218
205 224 221
207 225 226
205 223 226
207 225 231
210 228 237
209 226 228
207 225 223
206 225 230
210 227 234
207 225 224
207 225 227
210 228 238
206 224 221
211 228 234
212 229 236
210 227 238
207 225 223
207 225 227
204 222 212
212 228 242
212 229 238
213 230 241
209 226 233
209 227 233
207 225 231
207 225 227
206 223 228
208 225 234
211 228 238
209 226 230
210 227 233
208 225 226
205 223 221
206 223 218
209 227 234
206 224 226
209 226 234
210 227 228
209 227 231
209 226 230
206 225 226
206 224 221
209 226 227
210 227 231
211 228 237
206 224 221
207 224 221
204 222 215
207 225 223
204 222 214
204 222 211
203 221 207
199 218 217
193 210 207
178 197 205
186 204 220
156 176 208
167 186 215
159 179 216
152 172 211
155 175 215
147 168 210
135 157 203
133 156 196
124 148 199
122 146 191
129 152 194
104 131 183
109 135 184
99 126 178
91 121 171
82 113 173
72 106 172
93 121 168
85 115 174
79 110 170
70 105 177
69 104 166
70 104 163
69 103 172
66 100 164
63 99 172
71 105 168
62 98 168
64 100 170
65 101 169
63 99 166
63 99 166
68 102 161
60 96 163
60 96 164
60 96 161
62 98 171
63 99 166
61 97 168
60 97 168
61 98 168
61 98 165
61 97 162
61 97 164
61 98 166
61 97 165
61 98 171
60 96 162
61 98 165
61 98 167
60 96 163
61 98 172
61 98 170
60 97 165
61 97 161
60 97 161
62 98 171
61 97 166
61 98 167
62 98 164
61 98 164
61 98 165
62 99 168
61 97 162
62 98 166
62 98 167
61 98 165
63 99 169
62 99 168
61 98 170
63 99 170
62 98 165
61 98 170
62 99 168
62 99 168
62 98 158
62 98 164
62 98 162
62 98 167
62 99 169
62 98 162
61 97 156
62 98 165
62 98 166
62 98 160
61 98 162
63 99 166
61 97 163
63 99 167
62 98 162
63 99 168
63 99 166
63 99 165
62 98 159
61 98 162
62 97 152
62 98 162
62 98 161
61 98 163
62 98 166
62 98 166
62 98 164
62 98 163
61 97 158
62 98 164
61 97 156
63 99 166
61 97 157
62 97 152
62 98 161
61 97 155
62 98 159
61 97 163
61 97 155
61 97 154
62 98 166
63 98 161
61 97 156
62 98 156
62 98 161
61 97 151
62 98 163
62 98 157
61 98 160
61 97 161
61 97 155
62 98 157
61 97 162
61 97 158
62 99 164
62 98 160
62 98 162
61 97 153
63 99 162
61 97 160
61 97 155
62 98 156
62 98 154
62 98 159
61 97 161
61 98 161
61 97 158
62 98 162
62 97 152
61 97 155
62 98 157
62 98 160
62 98 159
61 97 151
62 98 162
61 97 153
61 97 151
61 97 149
62 97 151
61 97 151
62 97 153
61 97 155
61 97 151
61 96 152
61 96 148
62 98 153
60 96 150
62 97 153
61 96 146
61 97 152
62 97 151
61 96 148
60 96 146
60 95 143
60 95 148
61 96 146
61 96 154
61 96 150
61 96 144
61 96 140
61 97 150
59 93 145
59 93 128
59 94 136
60 94 145
61 95 144
60 94 141
58 92 137
61 95 139
64 96 138
72 92 108
80 89 70
95 101 66
103 103 0
104 105 11
95 94 11
101 99 0
97 97 8
99 98 11
85 84 11
102 101 11
93 91 0
87 84 1
100 98 0
88 85 8
103 102 16
95 90 16
85 84 5
91 88 11
98 95 14
94 91 11
92 88 16
85 85 1
94 91 8
103 99 5
96 93 8
110 107 12
110 106 16
101 96 18
103 100 11
90 88 11
111 108 11
117 114 24
115 112 8
104 101 14
102 99 21
115 111 18
114 110 19
117 113 29
118 115 22
115 110 24
117 113 14
120 117 22
118 115 20
114 111 19
118 115 18
117 113 25
134 130 26
121 117 24
111 108 14
124 120 25
125 120 24
134 128 28
123 119 25
120 117 16
123 118 25
128 124 29
130 125 37
123 120 24
124 120 22
128 125 28
132 127 37
124 120 25
125 121 30
137 132 32
130 125 33
125 122 25
117 112 22
133 129 22
128 125 34
124 119 22
123 119 22
126 122 30
123 119 32
121 117 22
134 128 28
121 116 28
127 120 28
132 128 28
123 119 36
124 119 11
130 124 32
115 109 30
121 118 16
122 117 30
117 112 28
124 120 32
131 127 30
128 125 30
121 119 25
125 123 22
127 128 16
123 122 25
135 135 25
136 140 16
132 133 19
129 130 22
143 147 22
147 150 25
138 140 22
147 153 22
142 151 16
144 154 16
147 156 0
151 162 11
156 167 0
151 161 16
155 164 16
159 170 0
157 168 0
159 172 0
155 167 0
162 177 0
162 177 0
161 176 0
161 175 0
157 172 0
163 179 0
163 178 0
164 182 0
164 181 0
161 177 0
163 181 0
159 174 0
159 177 0
164 183 0
166 182 0
165 182 0
167 186 0
167 186 0
167 184 0
164 181 0
163 182 0
169 186 0
167 185 0
165 184 0
169 188 0
166 185 0
200 219 194
197 217 188
202 221 207
204 222 214
202 221 204
198 217 191
205 223 217
202 221 211
208 226 230
205 223 214
204 223 221
207 226 228
205 224 221
208 226 228
207 224 226
206 224 220
206 224 227
205 224 223
208 226 230
208 226 228
207 225 228
210 227 231
210 228 236
208 226 231
206 225 226
205 223 221
209 226 230
209 227 236
211 228 237
211 228 237
209 226 228
211 228 236
209 227 230
207 225 226
211 229 240
212 229 241
209 226 230
209 226 226
209 226 231
210 228 234
211 228 237
207 225 230
209 226 231
209 227 234
210 227 231
208 225 234
209 227 228
211 228 233
210 227 233
205 223 221
206 224 226
210 227 233
208 226 227
211 228 231
211 228 237
207 225 230
209 227 230
208 226 234
209 227 231
207 224 230
210 227 233
208 225 227
211 228 234
210 227 234
204 223 217
207 224 220
205 223 224
204 222 220
209 227 231
205 223 217
204 222 214
205 223 214
204 222 216
206 223 228
194 211 219
179 198 221
174 193 222
170 189 221
167 186 223
169 188 225
162 181 217
147 168 211
137 160 205
134 156 205
133 156 205
134 157 206
120 144 193
124 147 199
96 124 187
106 133 185
99 126 185
102 129 185
91 120 180
81 112 174
71 105 164
82 113 175
77 109 175
83 113 168
75 107 166
72 105 169
73 106 170
65 100 166
71 105 163
70 104 163
69 103 170
66 102 171
64 100 168
65 101 170
64 99 164
66 101 160
62 98 169
63 98 165
61 97 170
61 97 165
62 98 170
63 99 164
61 97 165
61 97 168
62 99 173
61 97 164
62 98 168
60 97 162
62 98 167
62 98 166
61 98 170
61 98 164
61 97 163
61 98 166
60 96 161
60 96 160
61 98 167
62 98 164
60 96 159
61 97 166
62 98 168
61 97 165
60 97 164
60 97 170
61 97 165
61 97 163
61 97 167
61 97 159
61 98 163
62 99 166
62 98 165
62 98 160
62 98 165
61 98 165
62 99 169
62 98 165
63 99 169
62 98 170
62 98 161
62 98 165
61 96 159
62 98 167
62 98 166
61 97 165
61 98 159
62 98 165
62 99 165
63 99 168
62 98 163
61 98 161
62 98 166
63 99 174
61 97 165
63 99 171
63 99 163
62 98 163
62 98 164
61 97 160
62 98 165
62 99 166
61 97 158
61 97 158
62 98 160
62 99 170
61 96 159
61 96 154
62 98 159
62 97 159
62 98 163
62 98 165
61 97 156
63 99 167
62 98 161
62 98 168
61 97 156
63 99 168
62 97 158
62 98 161
61 97 153
62 97 152
62 97 156
62 98 162
62 98 162
61 97 156
61 97 159
62 98 163
63 99 164
62 98 154
62 98 162
61 97 158
61 97 161
62 98 163
61 97 161
62 98 159
62 97 158
62 98 160
62 98 162
62 97 152
62 98 162
60 96 158
62 97 156
61 97 158
62 98 162
61 96 157
61 97 152
62 98 154
61 97 150
60 95 141
62 98 160
61 97 156
61 97 151
62 98 157
61 97 160
61 96 156
62 98 161
61 96 143
62 97 153
62 98 160
60 96 147
61 96 151
61 97 151
62 98 159
61 96 150
61 97 150
61 97 153
62 98 150
61 96 145
62 98 153
61 96 150
62 98 163
61 96 150
62 98 155
60 95 143
61 97 152
62 97 154
62 97 151
61 96 149
60 95 143
61 96 148
60 95 141
60 93 130
61 96 149
60 95 135
60 94 139
58 92 129
59 92 130
60 95 140
59 91 123
69 93 126
97 102 60
96 98 45
113 113 18
94 96 0
94 93 8
96 95 14
94 94 8
93 93 11
93 93 0
91 88 0
93 90 4
98 95 8
95 92 14
93 91 0
87 85 8
86 83 14
86 85 16
90 86 0
99 97 8
103 99 8
97 92 16
103 99 8
105 102 14
92 89 11
103 100 18
105 102 11
109 104 14
101 97 8
104 100 3
103 100 14
109 104 16
92 90 11
103 100 18
110 108 8
108 104 16
111 108 25
109 104 16
114 110 18
106 102 24
115 112 19
111 107 0
114 109 19
121 117 26
117 114 24
113 109 11
108 105 19
120 117 20
121 118 19
119 115 25
117 113 29
122 118 18
128 123 22
124 119 19
126 120 22
117 112 16
111 107 16
114 110 22
124 120 24
126 120 25
130 126 28
121 117 34
128 124 34
119 114 22
124 120 16
118 112 22
127 122 25
125 120 19
129 124 30
132 128 25
118 114 22
125 120 19
129 124 30
118 114 16
123 117 25
128 125 22
119 113 30
120 115 25
130 125 25
126 120 16
120 115 28
122 115 22
125 121 34
117 113 22
130 124 37
116 113 22
121 117 22
133 132 16
129 126 25
121 119 22
132 132 22
123 120 25
116 116 22
135 135 19
136 137 11
135 138 0
129 132 16
136 140 25
148 155 19
143 150 11
141 148 16
143 154 0
145 153 19
152 162 16
149 157 11
150 163 16
161 174 0
159 174 0
156 168 0
157 170 0
158 171 0
156 171 0
162 178 0
160 173 0
159 175 0
164 180 0
163 176 0
164 178 0
160 175 0
161 177 0
162 176 0
164 180 0
164 182 0
161 177 0
163 180 0
164 180 0
163 177 0
165 181 0
167 184 0
167 185 0
162 178 0
167 185 0
163 181 0
166 183 0
165 182 0
163 180 0
167 187 0
167 185 0
200 219 191
204 223 215
202 221 207
203 222 215
200 219 201
202 220 206
204 222 211
205 224 217
203 222 214
207 225 227
205 224 220
205 224 221
208 225 228
205 223 217
205 224 226
206 224 221
206 224 231
207 225 230
208 226 233
205 223 226
207 225 224
211 228 234
209 226 230
208 226 228
206 224 224
208 226 231
209 226 230
211 228 237
209 227 230
208 226 230
211 228 234
207 225 228
208 226 231
205 223 224
208 225 227
206 224 227
206 224 223
210 227 236
207 225 228
205 223 220
205 223 221
204 222 215
208 225 228
208 225 223
211 228 234
207 224 224
208 225 226
208 226 227
205 223 226
211 228 237
202 220 212
208 225 223
208 225 230
206 224 226
210 227 231
210 228 237
209 226 231
206 224 220
208 226 233
207 225 226
207 224 224
208 226 224
206 224 223
209 226 234
212 229 236
209 226 228
204 222 211
207 225 224
210 227 231
207 225 221
210 227 233
209 226 227
205 222 215
205 222 221
190 208 228
191 209 231
180 199 223
171 190 222
162 182 221
169 188 221
157 177 219
155 176 215
146 167 209
154 174 215
138 160 207
136 159 208
119 143 197
130 153 200
109 134 191
114 139 191
98 126 188
87 117 177
95 124 181
88 118 179
76 108 177
72 106 171
79 111 175
76 109 175
81 112 173
74 107 179
84 114 172
78 110 166
69 104 170
76 108 166
75 108 172
66 101 165
69 103 174
63 99 162
65 100 167
66 100 166
63 99 165
66 101 167
61 96 161
62 98 164
63 99 168
62 98 166
62 97 160
60 96 161
62 98 166
64 99 166
62 98 167
61 98 166
61 97 167
61 98 168
62 98 162
62 99 169
61 98 171
62 98 164
60 96 164
61 98 168
61 98 171
61 97 167
62 98 168
62 98 168
61 98 162
60 97 161
62 98 169
61 97 164
61 97 167
62 98 168
61 97 167
62 98 163
62 98 170
61 97 159
60 96 158
62 98 169
61 97 161
62 98 167
61 98 165
62 98 165
62 99 166
61 97 153
62 98 166
62 98 164
62 98 162
62 98 166
62 99 169
62 98 165
62 98 160
61 96 151
61 97 161
62 98 161
62 98 161
62 98 166
62 98 160
62 98 161
61 97 159
60 96 152
61 97 159
62 98 164
62 98 164
62 98 166
64 100 167
61 97 159
61 97 163
62 98 164
62 97 156
61 97 157
62 99 163
62 98 160
61 97 159
62 98 163
63 99 168
62 98 161
62 98 158
62 98 163
61 96 154
62 98 156
62 98 158
62 98 162
62 98 168
62 98 161
62 98 163
62 98 162
62 98 158
62 98 161
62 98 158
61 97 154
63 99 164
62 97 158
62 98 159
62 98 158
61 97 155
62 98 157
62 98 156
62 98 162
62 98 161
61 96 148
61 96 153
62 98 156
62 98 159
60 96 144
62 97 158
62 98 156
62 98 161
62 98 153
62 97 152
62 98 163
62 98 159
62 98 161
61 96 149
62 98 158
63 98 159
61 96 143
61 97 156
62 98 154
61 97 154
63 98 158
62 97 151
61 96 152
62 97 157
60 96 147
61 97 159
62 97 153
62 97 154
61 96 149
62 97 154
61 97 154
61 97 152
61 97 148
61 97 154
62 98 151
61 96 148
62 97 151
61 96 158
61 96 145
61 96 142
61 96 148
62 97 150
61 96 146
61 96 147
61 96 145
61 96 150
59 93 129
60 94 138
59 94 143
61 95 146
60 95 147
60 94 141
57 91 127
59 92 128
62 93 130
78 99 107
80 87 72
107 112 29
106 109 11
108 113 0
101 103 0
110 109 0
99 101 11
95 92 11
97 97 11
102 100 11
103 101 8
91 89 0
86 83 8
96 93 0
88 85 0
89 89 14
93 89 0
91 90 0
90 86 0
88 86 8
103 99 8
93 91 0
96 94 8
90 88 0
106 103 11
103 99 8
101 99 0
97 93 14
106 102 11
98 96 8
110 107 0
107 103 19
116 112 18
109 105 11
106 101 18
117 113 14
115 112 19
104 101 16
115 110 11
120 117 22
117 113 16
107 104 21
127 123 21
120 116 22
119 115 19
115 111 16
116 114 16
130 126 19
117 114 11
108 103 16
120 116 16
116 113 24
118 113 22
119 114 25
119 114 21
120 114 19
118 114 16
122 118 16
121 116 28
117 111 22
125 119 25
124 120 25
119 115 19
123 117 30
114 108 18
128 122 22
124 120 16
119 115 16
133 126 39
119 115 22
123 119 25
119 113 19
122 118 22
119 114 19
123 117 32
118 115 16
118 111 25
121 116 30
125 120 30
118 113 22
118 113 22
119 115 22
129 125 22
120 117 19
121 117 25
130 126 19
124 123 22
119 118 11
129 130 19
125 126 19
139 140 30
130 134 11
131 132 22
137 140 0
130 135 19
142 146 11
142 146 25
140 146 16
147 154 11
138 144 0
151 165 0
150 158 11
161 172 0
157 168 0
149 161 11
161 175 0
158 169 0
157 171 0
156 170 0
158 170 0
157 170 0
158 172 0
161 177 0
158 172 0
165 177 0
162 178 0
161 177 0
163 178 0
169 185 0
161 178 0
164 180 0
164 180 0
164 181 0
163 179 0
167 184 0
163 178 0
163 180 0
161 178 0
166 182 0
167 185 0
163 182 0
168 186 0
168 186 0
164 181 0
170 191 0
169 188 0
168 186 0
202 220 206
204 222 209
204 222 217
207 225 224
202 220 214
207 225 224
204 223 212
205 223 221
202 221 212
205 224 218
207 225 228
200 219 204
205 223 220
210 228 238
208 226 233
207 224 224
211 228 236
208 226 227
206 224 223
211 228 237
206 224 226
208 226 228
207 225 231
209 227 230
206 224 224
211 228 238
205 223 223
208 226 233
208 225 230
209 227 228
209 227 233
206 224 221
207 224 224
206 224 220
208 225 226
206 224 228
207 225 226
210 227 234
205 223 221
205 223 224
201 219 209
204 222 224
202 220 215
205 223 223
205 223 221
205 223 218
206 224 223
204 222 217
206 224 223
208 226 227
202 220 206
206 224 223
202 220 215
212 229 237
205 223 220
210 227 228
207 224 221
204 222 215
208 226 228
210 227 228
207 224 224
208 225 230
211 227 230
208 225 221
208 225 228
210 227 230
210 228 236
210 227 236
210 227 230
212 229 238
206 224 221
212 228 234
203 221 223
197 214 223
194 212 231
188 206 228
183 202 228
181 199 226
158 178 217
173 192 225
147 168 211
150 171 214
147 169 211
146 167 212
122 146 198
142 164 209
133 156 202
115 140 199
126 149 202
103 130 192
94 122 187
111 136 194
98 125 178
101 128 187
100 128 177
83 114 167
83 114 174
75 108 173
70 104 174
76 108 171
72 106 168
79 111 172
72 106 175
74 107 171
67 101 166
68 102 164
68 102 169
65 100 162
61 97 168
61 97 161
61 98 169
65 101 165
63 98 162
65 99 155
63 99 164
61 97 169
66 101 167
62 98 165
61 98 166
61 97 168
61 97 168
62 98 165
61 97 162
60 96 161
61 97 167
62 98 171
60 97 165
61 97 162
61 97 166
61 98 172
62 98 169
61 98 167
61 97 169
61 97 161
62 99 165
61 97 166
62 98 161
61 98 162
62 98 164
62 98 166
61 97 163
61 97 163
61 97 163
61 97 163
62 98 165
61 98 163
62 98 164
62 98 162
62 98 169
62 99 169
63 99 170
62 98 157
61 97 155
62 98 169
62 98 169
61 98 162
62 98 162
62 98 165
63 99 165
61 97 156
61 97 165
63 99 168
61 97 158
62 98 162
62 98 162
62 98 159
62 98 162
61 97 157
61 97 163
62 98 163
62 97 159
62 98 161
61 98 161
62 98 164
62 98 166
62 98 156
60 96 157
62 98 160
61 97 154
61 97 155
62 98 161
62 98 159
62 98 165
62 98 164
61 97 157
61 97 157
62 98 156
61 97 159
62 98 156
61 97 155
61 97 159
62 99 165
62 98 163
62 98 159
61 97 153
62 98 156
62 98 163
62 98 162
63 98 159
61 97 158
60 96 152
61 97 153
62 98 159
62 98 159
61 97 157
62 98 160
62 98 159
61 97 157
62 98 160
62 98 152
61 96 151
62 98 161
61 96 150
62 98 156
61 97 158
62 98 155
62 98 157
62 98 164
63 99 165
62 98 160
61 97 158
62 98 156
62 99 165
62 98 155
62 98 157
61 96 145
62 97 158
61 97 157
61 96 142
61 97 154
61 97 148
60 96 149
61 97 157
61 97 155
62 98 160
60 95 147
62 97 151
61 97 153
61 96 148
63 99 158
60 95 140
62 97 154
61 96 149
60 95 139
60 94 140
61 96 139
61 96 143
62 97 153
61 97 151
62 97 150
60 94 140
60 95 136
60 95 141
60 95 137
60 94 141
60 95 147
60 94 151
60 94 139
60 94 137
60 93 135
60 94 140
68 95 129
83 98 95
91 98 61
100 103 35
100 103 0
98 100 0
108 109 0
101 104 0
116 114 16
107 107 11
91 90 0
92 90 0
96 93 0
101 99 11
91 87 8
101 100 3
91 92 0
95 94 14
89 86 8
99 96 16
81 75 0
93 90 0
91 87 0
97 95 0
95 92 14
104 99 11
104 101 8
101 97 11
102 99 11
105 99 14
106 103 11
102 100 11
88 85 16
99 95 14
110 106 12
91 90 3
106 102 11
97 94 8
110 106 0
108 104 11
111 108 14
112 109 11
107 104 16
109 106 21
98 96 8
114 109 24
112 109 14
113 110 19
115 111 21
114 110 19
114 109 16
114 109 19
117 114 19
122 118 30
123 118 16
113 109 21
120 117 18
112 108 16
117 112 16
120 116 30
119 115 22
133 128 22
111 106 16
124 118 28
120 117 19
119 115 19
112 107 16
123 120 22
127 122 28
121 116 0
120 116 28
123 118 28
128 123 28
117 111 19
110 104 19
123 118 19
117 111 25
121 116 28
131 126 28
125 120 22
116 113 11
114 111 19
122 117 28
121 117 28
120 117 19
127 124 25
131 130 28
128 128 16
121 119 32
128 127 22
132 133 28
129 132 16
130 132 0
135 140 25
137 140 16
140 146 19
141 145 11
144 148 19
132 139 0
147 154 0
145 151 16
148 158 0
153 162 11
151 159 11
151 159 0
159 171 11
150 160 0
154 167 0
157 169 0
156 171 0
160 173 0
158 170 0
163 178 0
157 170 0
156 167 0
162 176 0
160 173 0
164 180 0
165 182 0
162 177 0
163 179 0
160 174 0
167 184 0
166 181 0
162 179 0
164 180 0
166 183 0
164 182 0
166 183 0
164 180 0
159 175 0
167 183 0
162 181 0
166 188 0
165 181 0
168 186 0
164 182 0
166 185 0
167 183 0
204 222 209
204 222 209
206 224 217
202 221 203
207 225 223
203 221 212
205 224 228
205 223 217
206 224 227
202 221 215
207 225 227
208 226 228
205 223 221
206 224 226
207 225 230
205 224 223
206 224 224
204 222 217
207 225 228
209 227 236
209 226 230
210 227 234
206 224 220
205 223 227
206 224 223
206 224 221
208 226 230
206 224 220
207 225 224
201 220 206
203 222 218
203 222 214
208 226 226
204 222 211
199 219 214
203 221 207
202 220 209
207 225 224
204 222 212
201 220 211
204 222 218
201 220 214
201 219 204
205 223 223
204 222 209
199 218 199
202 220 215
202 221 212
202 220 212
208 226 228
202 221 215
204 222 215
199 217 199
202 221 207
200 219 207
206 223 223
200 219 209
201 220 211
207 224 220
207 224 224
205 223 220
206 224 221
205 223 221
204 222 218
205 223 221
209 227 230
208 225 224
206 224 226
213 230 238
208 225 221
206 223 224
204 222 224
204 222 222
199 216 228
189 207 226
182 200 220
185 203 227
175 194 226
171 190 227
159 179 214
156 177 214
146 167 209
150 171 211
155 176 217
133 156 205
139 161 211
119 143 199
132 155 204
118 143 200
113 138 195
110 135 191
91 120 185
84 114 181
96 124 187
84 115 178
80 111 172
82 114 179
80 112 178
75 108 173
81 112 165
74 107 166
78 110 173
72 105 172
70 104 175
73 106 168
68 102 163
70 103 163
69 103 166
61 98 170
61 98 172
70 104 168
65 100 160
62 98 165
60 96 161
60 96 165
60 96 162
61 97 166
62 98 163
60 96 157
60 96 164
61 98 170
61 98 169
61 98 166
62 98 164
61 97 161
62 98 163
62 98 172
61 98 165
62 98 169
62 98 168
61 97 165
61 97 163
62 98 170
60 97 164
61 97 159
61 97 167
60 97 165
61 97 167
61 98 169
60 97 165
62 98 166
62 98 164
62 98 163
62 98 167
61 98 162
62 98 161
61 97 164
62 98 163
61 97 161
62 98 169
61 98 161
61 97 156
62 98 164
62 98 164
61 97 161
62 98 166
61 98 164
62 98 166
61 97 158
62 98 161
62 98 159
62 98 167
62 98 160
61 97 156
62 98 164
63 99 169
62 98 162
61 97 159
61 97 156
61 97 163
62 98 165
61 97 151
62 98 166
61 97 159
61 96 156
62 98 165
63 99 168
61 97 153
62 98 161
62 98 164
62 99 164
62 98 165
62 98 162
61 97 158
61 96 157
60 96 154
61 98 161
63 99 165
62 97 160
63 99 165
62 97 159
62 98 156
61 97 159
62 98 164
62 98 158
61 97 157
62 98 163
61 97 159
61 97 153
62 98 161
63 99 165
61 97 153
61 97 156
62 98 162
62 99 167
62 98 160
61 97 155
62 98 163
60 96 155
61 97 157
61 97 156
62 98 158
62 98 158
61 97 151
62 97 153
61 97 152
61 96 148
63 99 161
62 98 158
62 97 156
61 97 150
62 98 161
62 98 155
62 98 158
61 97 150
61 97 153
61 97 149
62 98 157
62 98 155
61 96 143
61 97 150
61 97 149
62 98 157
61 97 152
62 98 159
62 98 157
61 97 147
62 97 151
62 97 158
62 96 148
62 97 152
60 96 141
60 95 144
61 96 149
61 96 148
61 96 143
62 97 151
61 96 146
60 95 148
62 97 155
59 93 142
61 96 145
60 94 142
60 95 137
60 94 138
60 94 135
59 94 134
60 94 146
58 91 129
59 93 135
59 93 134
61 88 113
94 109 95
93 103 78
108 115 46
117 117 0
103 105 0
108 110 22
101 106 11
98 100 8
102 101 11
89 89 0
86 84 0
98 98 8
88 85 0
108 107 0
77 78 0
96 93 0
88 84 0
95 93 0
103 101 8
101 98 0
89 87 11
99 97 0
85 81 8
104 98 8
86 84 0
96 90 0
96 93 8
91 89 14
88 82 8
93 91 14
89 86 0
105 101 3
99 94 14
109 103 11
112 106 14
105 101 11
95 92 16
108 104 14
106 102 0
114 110 11
108 102 16
103 99 0
116 112 19
116 112 14
112 107 0
107 103 14
110 105 22
106 102 21
113 108 11
110 104 18
106 102 16
118 115 16
108 105 0
124 119 19
123 118 16
111 105 11
109 105 16
105 100 0
123 118 19
122 118 25
115 110 19
118 114 22
121 116 16
123 119 25
124 120 19
114 109 16
117 113 22
118 115 22
118 114 11
117 112 11
123 118 16
119 113 16
122 116 25
126 121 25
120 115 25
122 116 22
118 113 25
125 120 32
108 103 16
124 120 22
122 120 16
125 120 30
126 124 22
133 131 19
123 119 22
129 124 28
132 133 28
132 131 16
133 131 19
133 133 25
131 132 22
137 138 25
137 141 11
147 153 16
135 139 0
139 144 0
138 146 0
147 156 0
148 158 19
146 154 19
155 165 0
149 158 0
152 164 0
157 168 11
153 162 0
160 174 0
152 162 0
157 170 0
153 164 0
159 172 0
158 168 0
166 181 0
157 170 0
158 169 0
162 176 0
162 177 0
160 172 0
160 173 0
166 181 0
162 178 0
167 184 0
161 177 0
159 173 0
161 176 0
164 182 0
165 182 0
164 180 0
163 179 0
162 179 0
162 179 0
163 181 0
158 174 0
166 182 0
165 182 0
169 187 0
165 182 0
168 186 0
169 188 0
205 223 215
199 218 196
202 221 211
205 223 218
205 223 223
206 224 223
205 224 220
207 224 221
207 225 230
210 227 231
210 227 230
208 226 230
207 225 226
211 228 237
208 225 228
210 228 236
206 224 223
205 223 228
207 225 228
205 223 217
210 227 234
208 225 227
203 222 211
202 221 214
204 223 221
204 223 215
206 224 218
201 219 206
202 220 206
199 217 203
202 221 212
201 219 207
201 220 212
199 219 209
202 220 203
203 221 204
199 217 191
205 223 214
197 216 193
194 214 175
200 219 198
199 217 193
196 215 189
200 219 201
196 215 191
199 218 198
198 217 191
203 221 212
192 212 184
200 219 199
199 218 207
202 221 207
198 218 198
203 221 215
197 216 191
201 220 204
200 219 201
200 219 207
205 222 215
203 221 211
201 219 204
205 223 218
205 222 212
201 220 201
204 222 214
205 223 220
204 222 211
206 224 221
207 224 224
205 224 218
208 226 226
206 224 226
199 217 228
199 216 222
190 208 224
182 201 228
175 194 221
167 186 221
162 182 216
149 170 204
162 182 216
161 181 215
146 167 211
150 171 217
146 168 215
147 168 211
137 160 207
118 142 194
123 146 197
109 134 194
119 143 195
110 136 192
101 128 187
102 129 191
94 122 185
82 113 183
68 103 177
81 113 181
71 105 174
75 108 175
74 107 169
78 109 175
71 105 176
85 115 172
75 108 174
75 108 171
69 104 170
66 102 170
63 99 166
68 102 168
63 99 167
70 104 164
61 97 165
67 101 167
62 98 166
63 98 163
61 97 168
62 98 170
64 99 167
61 98 165
62 98 158
61 97 163
61 97 163
61 97 160
61 98 166
62 98 170
61 97 164
62 98 165
60 96 166
62 98 165
61 98 168
61 97 165
61 97 166
60 97 159
61 97 163
61 97 167
62 98 167
61 97 161
61 97 161
62 98 167
62 98 170
61 98 171
62 98 168
61 96 157
61 97 166
61 97 159
62 99 166
62 98 166
62 98 164
61 97 158
61 98 162
62 99 166
62 98 160
61 97 159
62 98 159
62 99 166
62 99 167
62 98 165
62 98 162
62 97 160
61 97 164
62 99 168
61 97 166
62 98 165
62 98 165
62 98 158
62 97 159
61 97 158
62 98 163
62 98 160
63 99 169
61 97 165
62 98 163
61 98 159
60 96 149
61 97 153
61 97 157
61 97 156
62 97 160
62 98 160
62 98 163
63 99 162
62 99 163
61 97 159
62 98 158
62 98 162
62 97 156
61 97 153
61 97 153
62 98 161
63 99 163
62 98 164
62 98 159
62 97 154
62 98 159
61 97 154
61 97 155
62 98 158
62 98 161
61 97 157
61 97 153
62 98 158
61 97 156
61 97 154
62 98 159
62 98 160
62 98 160
62 97 151
61 97 154
63 99 159
61 97 145
61 97 154
63 99 161
61 96 155
62 98 160
62 98 159
62 98 158
62 98 162
61 97 155
63 98 156
61 97 156
62 98 158
63 98 157
62 98 161
61 97 156
61 97 154
60 95 143
62 97 157
62 98 154
61 97 154
62 98 153
62 98 156
61 96 144
61 97 155
61 97 149
62 97 153
61 97 155
61 96 144
62 97 151
60 96 146
60 96 148
61 96 146
61 96 145
60 95 137
63 99 159
61 96 154
60 95 144
61 96 154
61 96 143
62 97 149
60 95 144
61 96 146
60 94 139
60 95 141
59 93 133
60 95 139
60 95 135
59 93 137
61 96 142
59 93 134
57 90 124
80 99 109
82 98 94
96 103 45
109 113 21
104 104 0
102 104 0
106 107 0
102 102 11
102 99 11
104 107 11
102 103 11
93 93 11
114 114 16
95 93 16
110 110 0
91 89 11
84 84 0
98 95 0
87 84 0
91 89 11
96 93 11
96 94 0
93 92 0
94 91 8
96 92 3
92 89 0
98 94 8
107 102 8
90 86 0
110 104 0
91 88 8
96 93 18
103 98 11
108 104 0
105 100 14
107 103 3
105 101 0
103 99 16
104 101 0
116 112 16
115 110 8
101 96 11
105 101 16
108 104 11
114 110 0
111 105 0
115 111 0
107 104 0
104 99 19
115 111 19
119 114 18
105 101 14
120 113 16
112 108 25
112 107 16
121 116 16
117 114 11
112 107 19
118 114 11
118 111 22
118 113 19
118 113 0
122 117 16
122 117 11
122 116 16
116 111 11
117 112 19
124 118 25
124 119 25
118 113 19
111 107 11
121 116 25
108 104 11
110 105 19
119 115 0
111 107 16
113 109 16
109 105 11
123 118 11
121 118 19
120 120 22
124 124 0
130 127 22
122 122 11
129 126 32
126 126 11
126 124 34
129 129 11
139 140 19
125 127 19
142 143 22
140 145 19
137 140 19
144 149 11
142 146 0
133 134 19
143 151 19
147 155 0
141 145 11
150 158 16
147 157 16
150 159 11
157 167 0
154 163 16
155 167 0
161 175 0
155 168 0
158 171 0
155 164 0
160 174 0
165 180 0
159 171 0
156 167 0
154 168 0
162 175 0
157 172 0
161 178 0
163 177 0
162 177 0
159 176 0
161 177 0
164 178 0
164 180 0
161 177 0
169 187 0
161 176 0
162 176 0
169 186 0
165 183 0
165 183 0
170 187 0
167 185 0
166 183 0
166 183 0
168 186 0
167 185 0
166 185 0
166 184 0
163 181 0
204 222 220
207 225 223
208 225 226
205 223 217
206 224 224
206 224 221
203 222 218
207 225 221
209 226 228
213 229 240
210 228 238
204 222 221
209 226 234
202 221 223
206 224 221
203 221 218
204 222 218
206 224 220
208 226 230
210 227 233
206 224 223
205 224 221
201 219 207
203 222 214
202 220 199
201 219 201
199 219 204
198 217 209
194 213 188
195 215 188
201 220 203
201 220 209
202 221 206
196 216 182
195 215 184
194 214 182
195 215 181
196 216 193
194 214 186
198 217 198
193 213 173
195 214 184
195 215 184
198 217 188
191 212 175
196 216 182
196 215 182
196 216 191
198 218 188
195 215 188
195 214 177
195 216 189
199 218 194
196 216 189
198 217 198
198 217 189
199 218 193
199 218 191
200 218 198
202 220 207
205 223 215
197 216 194
204 222 212
202 220 207
196 216 196
197 216 189
202 220 207
205 223 218
203 221 209
207 224 218
205 223 220
202 219 222
198 216 226
179 198 203
174 193 220
176 195 222
181 199 227
177 196 227
165 185 218
162 182 218
155 176 213
144 166 207
146 168 203
144 166 205
139 161 210
140 162 209
136 159 203
130 154 201
132 155 205
117 142 197
116 141 198
102 129 193
94 122 183
92 121 188
109 135 194
94 122 187
103 130 187
78 110 177
77 109 175
71 105 174
81 112 169
75 108 173
74 107 175
74 107 172
72 105 170
75 108 166
68 102 165
65 100 161
68 102 168
63 99 162
66 102 176
65 100 173
71 105 167
63 98 164
60 96 162
63 99 164
61 97 165
61 98 162
67 102 159
61 97 160
62 97 162
61 97 164
61 98 165
62 98 171
63 99 161
62 98 170
62 99 169
60 96 157
61 97 165
61 97 165
62 98 169
61 97 156
61 97 165
61 97 165
61 97 161
62 98 169
61 98 166
61 97 164
61 97 157
60 96 157
62 99 171
62 98 163
61 97 166
62 98 164
61 98 162
61 97 167
62 98 164
62 98 164
62 98 168
62 98 160
61 97 162
62 98 164
62 98 162
62 98 163
62 98 161
60 96 159
61 97 158
61 97 154
62 98 157
62 98 162
62 98 159
62 98 167
62 98 162
62 98 161
62 98 166
63 99 168
61 97 158
63 99 165
61 97 153
62 98 162
61 98 160
61 97 160
61 98 159
62 98 159
61 97 160
62 98 158
62 98 161
60 96 149
61 97 157
62 98 161
62 98 159
60 96 153
61 97 151
63 99 162
62 98 163
61 97 162
62 98 159
62 98 158
60 96 152
61 97 157
62 99 166
62 98 160
61 97 158
61 97 152
63 99 160
61 97 161
62 98 160
62 98 161
61 97 156
61 96 152
62 98 156
61 96 152
61 97 154
61 97 155
62 98 157
62 98 160
61 96 155
62 98 161
62 98 156
61 96 154
62 98 158
63 99 165
60 96 154
62 98 158
61 97 153
61 96 149
62 98 161
61 97 148
61 97 150
61 97 150
61 97 152
62 97 158
61 96 145
61 96 149
61 97 150
61 96 147
61 97 153
62 98 159
62 97 150
61 96 147
61 97 150
61 97 152
62 97 154
61 96 150
62 97 144
61 97 145
60 96 144
60 96 153
60 95 141
59 94 134
62 97 150
62 97 155
62 97 155
61 96 143
61 97 153
63 98 154
61 97 151
60 95 148
62 97 152
61 95 141
62 97 152
60 95 143
60 95 140
60 94 139
60 94 136
59 93 130
60 94 142
61 95 141
58 92 128
59 92 130
61 93 127
55 82 110
87 99 75
122 128 36
95 99 0
97 99 0
104 107 0
106 110 0
117 120 0
103 104 0
104 106 0
99 100 0
96 94 0
102 102 8
100 98 11
96 95 0
97 98 0
107 105 3
93 91 0
94 92 0
98 94 11
93 90 8
92 87 0
96 94 0
102 100 0
100 99 0
96 91 8
97 92 8
87 82 11
84 82 0
96 93 0
91 87 0
103 99 8
94 91 14
93 88 8
105 100 3
100 96 11
104 99 11
92 89 0
102 96 14
96 94 11
114 109 0
111 106 0
107 102 0
117 112 0
102 98 16
105 101 11
110 106 0
115 110 11
119 114 0
108 103 0
109 103 16
123 119 16
108 105 19
108 106 0
111 107 11
111 106 19
108 105 8
122 118 16
122 116 11
115 110 16
119 115 21
112 107 16
115 110 25
119 113 22
120 115 0
125 120 19
116 111 19
118 112 19
116 111 19
108 104 19
112 109 19
127 122 16
125 119 19
116 113 16
115 111 16
123 119 11
114 110 16
125 123 11
129 127 11
110 105 22
122 121 16
114 111 11
119 119 0
130 127 19
124 123 11
136 138 16
130 128 11
130 131 0
133 132 11
130 132 19
142 147 11
135 137 11
139 141 16
142 149 0
142 146 11
144 150 0
149 159 0
149 158 0
148 154 11
154 164 0
148 156 11
152 163 0
157 166 0
161 175 0
165 178 0
157 167 0
157 171 0
153 164 0
160 173 0
158 169 0
160 175 0
156 168 0
162 175 0
162 176 0
162 177 0
160 175 0
161 176 0
160 175 0
158 171 0
165 180 0
161 175 0
164 180 0
163 178 0
160 176 0
165 182 0
163 179 0
162 178 0
164 182 0
164 180 0
165 181 0
163 178 0
164 182 0
163 181 0
166 184 0
162 178 0
162 180 0
159 176 0
165 182 0
166 184 0
205 223 217
205 223 215
206 224 223
208 226 231
207 225 223
208 226 227
204 222 218
205 223 215
210 227 226
205 223 212
206 224 223
209 227 231
209 227 233
208 225 221
207 225 224
203 222 215
203 221 214
201 220 211
200 218 207
204 222 218
204 223 214
201 219 204
203 221 212
196 216 188
201 220 209
197 216 193
200 219 204
198 217 198
200 219 194
196 215 188
195 214 184
198 217 193
194 214 181
195 215 179
193 213 169
194 214 179
192 212 171
194 214 173
191 212 165
192 213 171
189 210 159
193 214 182
193 214 175
192 211 177
191 211 171
191 211 167
189 210 169
191 211 167
193 213 181
190 210 165
192 213 169
193 214 171
190 211 163
193 213 181
196 216 182
188 208 159
193 213 177
189 210 159
194 214 182
200 218 191
194 214 184
198 217 196
196 215 188
198 216 199
199 217 194
201 220 199
198 217 203
200 219 206
204 222 209
199 218 205
201 219 214
198 216 214
196 214 226
187 205 219
180 198 222
172 191 216
168 188 219
157 177 212
158 178 214
152 173 211
146 167 203
157 178 211
142 163 203
138 161 209
130 153 201
136 159 207
112 138 191
133 156 206
119 143 200
137 159 207
108 134 192
122 146 199
124 148 199
103 130 190
114 140 195
90 120 183
74 107 177
78 110 174
79 111 181
83 114 178
67 102 172
74 107 170
69 103 170
75 107 172
72 105 169
70 104 170
70 103 167
72 105 165
66 100 163
68 102 168
72 105 165
70 103 167
63 99 167
68 102 162
63 99 161
65 100 164
61 98 170
65 101 166
64 100 167
65 99 156
61 98 164
60 96 163
60 96 156
60 96 160
61 97 163
62 99 169
60 97 160
60 96 162
61 98 166
60 97 164
61 98 165
61 98 166
61 97 163
61 98 169
60 96 155
61 98 168
61 97 162
61 98 163
60 96 156
61 97 157
62 98 169
61 98 164
61 97 167
62 98 162
61 97 156
61 97 160
61 97 156
62 99 170
62 98 160
61 98 165
61 97 155
62 99 169
62 97 160
61 97 160
61 97 160
62 98 162
62 98 158
61 97 158
62 99 169
62 98 167
62 98 165
61 97 156
61 98 163
61 97 158
63 99 165
62 98 164
61 97 156
62 98 163
62 98 161
62 98 159
61 97 159
61 98 164
61 97 161
62 98 160
61 97 160
63 99 166
62 98 160
62 98 161
63 99 163
62 98 161
62 98 162
62 97 154
63 99 171
62 97 153
61 97 158
62 98 163
62 97 158
61 97 154
60 96 148
62 98 157
63 99 166
61 97 157
62 97 153
62 98 161
62 98 160
61 97 159
61 97 150
62 98 156
61 97 153
62 98 158
62 98 160
62 98 159
61 97 153
62 98 161
63 98 160
62 98 161
62 98 160
61 96 151
61 97 153
61 96 152
62 98 157
63 98 161
62 98 154
62 97 155
61 97 152
62 97 154
61 97 156
62 98 160
62 98 153
61 97 147
61 97 155
62 98 157
62 98 155
61 96 147
61 97 143
62 97 153
61 96 151
62 97 151
62 98 156
61 97 151
62 97 153
61 96 141
60 95 142
61 96 148
61 97 154
61 96 147
61 97 148
60 95 144
62 97 154
61 96 147
62 98 159
60 96 147
61 96 145
61 97 143
61 96 144
61 97 150
61 96 140
60 95 139
61 96 145
61 96 139
61 96 145
60 95 141
61 96 142
60 95 143
59 93 140
61 96 142
60 95 141
60 94 139
60 93 136
58 92 128
65 95 118
75 96 103
83 97 71
105 109 37
113 118 0
113 116 0
114 117 0
112 112 16
96 95 0
110 112 0
106 110 0
104 103 11
98 97 0
100 101 0
94 94 0
99 98 11
95 94 0
99 98 11
93 92 8
93 92 0
106 102 0
100 100 0
102 100 11
90 89 0
102 98 0
94 92 0
82 79 2
98 95 0
96 92 0
104 101 0
99 96 8
94 89 11
89 85 0
104 99 0
104 100 0
92 85 14
100 97 0
102 99 0
106 101 8
102 98 0
99 93 0
107 102 11
102 97 11
105 100 8
101 97 0
102 97 0
104 102 8
114 109 11
116 110 11
114 110 0
108 104 11
100 97 11
118 113 11
117 112 11
117 110 11
104 99 11
110 106 0
111 105 16
114 112 16
116 110 16
114 109 16
108 102 11
116 112 11
115 109 22
110 106 0
117 111 0
118 113 0
118 112 16
115 112 16
107 101 0
115 110 19
109 102 0
124 119 19
114 107 28
128 125 11
116 112 16
124 120 11
116 110 19
122 120 11
126 123 16
132 130 0
115 115 16
122 120 11
127 125 19
135 134 32
127 126 19
125 126 11
134 135 11
133 134 16
132 134 11
121 118 11
129 130 11
138 144 0
139 142 11
149 158 11
146 153 0
142 147 0
154 164 0
151 160 11
152 160 0
143 151 11
156 166 11
155 166 0
152 162 0
151 161 0
160 174 0
157 166 0
160 171 0
157 167 0
161 175 0
154 166 0
158 170 0
160 172 0
160 172 0
158 172 0
163 179 0
164 179 0
157 169 0
159 175 0
159 172 0
161 178 0
162 176 0
162 178 0
161 178 0
162 177 0
165 181 0
167 184 0
162 179 0
163 182 0
167 184 0
163 178 0
161 176 0
167 184 0
164 180 0
166 182 0
163 180 0
167 188 0
165 186 0
165 182 0
165 183 0
207 225 223
207 224 218
207 224 220
204 222 214
206 224 224
206 224 226
209 227 237
204 223 217
208 226 228
207 224 227
205 223 223
204 222 217
208 226 226
202 221 209
202 220 201
201 219 206
205 223 223
198 217 199
202 221 209
202 220 206
199 218 194
199 218 196
197 217 189
198 218 199
197 216 193
197 217 189
190 210 161
193 213 169
195 215 184
197 217 191
187 208 169
187 208 153
187 208 159
191 211 167
190 210 157
188 209 159
186 208 151
194 214 169
187 208 159
190 210 167
185 207 135
191 211 161
189 210 155
189 210 159
192 212 163
189 210 157
193 213 169
186 207 137
190 210 161
190 210 159
186 207 151
187 208 140
186 208 169
192 213 161
188 208 153
196 215 182
194 214 173
185 206 144
185 206 157
196 216 188
198 217 191
189 210 165
193 214 171
199 218 193
192 212 184
195 215 181
198 217 186
201 220 198
193 213 181
194 213 192
198 217 198
196 214 210
190 208 205
189 207 223
175 194 222
161 181 214
155 176 206
167 186 214
156 176 207
164 183 219
161 181 211
150 171 203
145 167 206
140 162 203
139 161 207
135 157 204
118 143 196
136 158 203
113 138 194
120 144 194
110 136 191
111 137 197
116 141 199
104 131 194
114 139 192
104 131 192
92 121 188
87 117 180
83 114 176
75 108 173
71 104 175
82 113 180
72 106 174
70 103 166
68 103 173
67 101 167
70 104 170
72 106 169
70 104 166
65 100 170
68 102 161
61 97 169
64 100 168
66 100 164
61 97 165
64 100 171
61 97 163
61 98 161
61 97 160
61 97 162
61 96 164
61 97 165
65 100 163
63 99 163
61 98 163
62 98 167
63 98 158
61 97 165
61 97 163
61 96 162
62 98 166
61 98 168
61 97 165
60 97 163
61 97 163
61 97 166
61 97 161
60 96 156
61 97 161
62 98 168
62 98 166
61 98 163
60 97 159
62 97 159
62 98 165
61 97 158
61 97 158
62 98 165
61 97 162
62 98 164
61 97 160
61 97 159
62 98 163
62 98 162
61 97 158
62 98 166
62 98 163
62 98 163
61 97 156
62 98 161
61 97 162
62 98 158
62 98 161
61 98 164
61 97 162
61 97 154
62 98 160
61 97 157
62 98 161
63 99 166
62 98 160
61 97 155
61 97 152
60 96 153
61 97 161
61 97 154
63 99 164
62 97 156
62 98 164
62 98 160
62 97 154
63 99 167
60 95 147
62 98 161
62 98 161
61 97 155
61 97 155
61 97 155
62 98 162
62 97 156
61 97 158
61 97 157
62 97 153
62 98 159
62 98 160
62 98 158
63 98 158
61 97 151
62 98 160
61 97 151
61 97 158
62 98 156
61 97 154
62 98 158
63 98 160
62 97 152
62 97 158
62 97 151
62 97 155
61 96 148
61 97 151
61 96 150
61 97 155
62 97 157
61 97 158
61 96 149
63 98 160
61 97 153
62 97 159
62 97 152
62 98 154
62 98 157
61 96 150
61 97 150
60 95 147
61 96 144
61 97 149
61 97 151
62 97 161
61 97 151
61 97 150
61 97 152
61 97 148
60 94 134
61 97 152
61 96 148
62 98 155
61 97 149
62 97 152
61 97 151
59 94 134
60 96 148
61 96 152
61 97 150
61 95 150
60 95 144
61 96 145
61 96 147
60 95 135
61 95 147
60 95 137
61 96 142
60 95 143
60 95 139
61 96 144
59 94 130
60 94 142
61 97 147
59 93 134
60 93 134
70 97 119
80 96 87
95 104 68
114 118 26
109 114 0
113 118 0
120 127 0
120 122 11
118 119 0
111 116 0
107 108 8
105 106 11
110 111 0
111 112 11
101 101 0
108 107 0
96 94 0
97 95 0
112 110 0
96 96 0
88 88 0
84 80 0
93 91 0
92 89 0
92 90 0
92 92 8
90 86 0
90 89 0
101 98 11
87 84 8
97 92 0
101 96 0
100 96 0
101 97 11
101 97 11
90 87 0
100 96 0
106 102 11
96 92 0
104 101 0
100 95 0
106 101 0
102 98 0
105 100 0
106 101 11
81 80 8
102 98 0
104 98 11
106 100 0
101 97 0
105 100 11
117 111 0
107 102 21
117 110 11
108 101 0
112 107 16
107 100 16
112 106 0
117 113 19
109 103 16
109 106 14
111 106 0
120 114 19
118 114 19
119 113 0
123 117 11
117 113 11
122 118 0
109 104 0
101 99 16
123 117 11
128 123 22
123 118 11
126 122 11
114 112 16
119 116 19
125 121 19
107 105 0
119 114 11
123 120 0
124 119 22
115 111 11
123 121 22
127 127 16
126 125 22
131 131 16
139 141 19
138 139 19
139 143 11
140 141 16
138 142 0
142 148 0
147 153 11
146 150 16
151 160 11
151 157 19
149 156 11
153 162 11
149 158 0
151 160 11
153 164 0
154 165 0
157 166 0
158 167 0
152 164 0
152 162 0
157 170 0
161 170 0
159 172 0
155 168 0
157 172 0
159 173 0
160 175 0
161 174 0
162 177 0
160 173 0
160 175 0
161 173 0
159 172 0
159 172 0
164 179 0
164 181 0
163 178 0
162 179 0
161 178 0
162 177 0
161 176 0
163 178 0
166 183 0
165 182 0
166 182 0
164 181 0
165 183 0
159 176 0
166 184 0
166 184 0
164 181 0
164 180 0
163 183 0
165 182 0
211 228 233
208 225 224
207 225 223
210 227 231
207 224 221
207 225 227
206 224 224
205 223 215
206 224 221
206 224 220
204 222 218
203 221 214
205 223 215
204 222 214
197 216 196
201 220 204
205 223 214
198 217 198
199 218 204
197 216 188
193 213 188
196 216 186
196 215 191
197 217 186
192 211 188
190 211 167
186 207 153
195 214 181
192 213 173
193 212 171
189 209 163
190 211 161
186 208 144
188 209 151
187 208 147
188 209 149
191 211 165
190 210 157
187 209 149
188 209 149
188 209 153
187 208 137
182 204 133
189 210 149
189 210 151
190 211 163
184 206 137
184 205 151
189 210 155
185 205 137
187 208 151
187 208 155
187 209 147
192 213 169
186 207 149
190 210 163
190 211 163
189 210 165
187 208 159
184 205 149
183 205 149
189 209 167
188 209 151
192 211 181
191 211 181
190 211 171
194 214 186
192 212 175
193 212 175
191 210 189
186 206 192
180 200 191
179 199 207
176 195 208
173 192 217
176 196 226
157 178 201
156 177 211
160 181 215
162 183 211
153 173 208
149 171 214
133 157 203
139 162 207
116 141 190
126 150 198
128 151 203
117 142 193
130 154 206
103 130 191
113 138 192
120 144 198
118 143 194
113 139 193
109 135 192
102 129 190
104 130 190
101 129 190
88 118 181
95 123 187
79 110 173
75 108 175
73 106 171
68 103 175
73 106 172
74 106 167
71 104 175
64 100 171
67 101 166
76 108 169
72 106 168
66 100 156
67 102 170
70 103 164
65 100 170
65 100 168
63 97 165
62 97 160
66 101 165
61 97 166
60 96 162
61 98 164
64 99 165
62 98 167
62 98 168
67 102 161
61 98 165
61 97 161
61 97 161
61 97 163
61 97 163
61 97 158
61 98 164
61 97 167
61 97 162
61 98 163
61 97 161
60 96 154
61 97 163
62 98 168
61 97 167
61 97 168
62 98 164
62 98 166
62 98 167
62 99 169
62 98 165
61 97 165
61 97 160
62 98 162
62 98 163
63 99 168
62 98 165
61 97 160
61 97 159
62 98 160
63 99 166
61 97 159
63 99 163
62 99 166
61 97 156
61 97 157
62 98 160
61 96 149
61 96 153
62 98 164
62 98 168
62 98 162
62 98 162
62 98 160
62 98 162
61 97 157
62 98 160
62 97 155
62 98 165
62 98 161
62 98 160
62 98 160
62 97 156
62 98 159
62 98 156
62 98 157
61 97 151
62 98 160
61 97 153
63 99 167
61 97 161
62 99 165
62 98 158
62 98 164
61 97 155
61 97 152
61 97 156
61 97 154
62 97 155
62 98 157
62 97 155
62 98 156
62 97 152
62 98 153
62 98 157
61 96 151
61 97 151
62 98 155
61 97 157
61 97 154
61 97 152
61 96 147
61 97 153
61 97 155
61 97 149
61 98 161
62 98 156
61 96 151
62 97 153
60 96 145
61 97 154
61 96 150
61 97 156
61 97 155
61 96 147
63 99 162
61 97 147
60 96 149
62 97 154
62 97 154
62 97 154
61 96 147
61 97 153
62 98 157
61 96 154
61 97 149
62 97 140
62 98 157
62 97 153
62 97 151
60 95 140
60 96 142
61 96 143
61 96 148
61 96 142
60 95 142
61 95 149
61 96 141
62 97 149
61 96 137
62 97 149
61 96 146
60 95 142
61 96 147
61 95 138
60 95 140
60 94 143
60 93 139
58 93 120
59 92 134
59 93 133
60 94 134
59 93 134
57 90 126
65 90 104
85 101 92
107 115 47
105 110 28
108 112 0
108 113 0
121 124 0
108 111 0
109 115 0
106 107 0
113 117 0
108 110 0
106 108 0
93 92 0
99 101 0
94 93 0
100 104 0
104 103 0
97 96 0
85 85 0
89 88 0
97 97 0
107 106 14
93 92 0
103 99 0
91 90 0
92 87 0
91 89 0
101 98 0
94 91 0
93 88 0
96 92 0
84 80 0
100 98 0
100 97 0
93 89 0
97 95 0
103 100 0
106 100 0
94 88 0
101 96 0
95 92 0
104 100 0
105 101 0
105 102 11
106 102 0
98 95 0
98 93 0
122 115 21
107 101 0
110 103 0
97 91 14
106 102 11
111 105 11
103 101 0
111 106 11
105 97 0
115 110 16
115 110 0
96 91 11
115 110 16
111 105 16
111 105 11
118 114 0
112 107 16
118 115 16
117 111 25
110 107 0
116 112 11
114 109 11
114 111 0
114 108 16
115 111 19
115 109 19
119 116 22
120 119 11
122 117 22
116 113 11
120 118 0
129 128 19
128 124 11
125 124 0
129 127 16
133 135 22
133 137 0
123 126 11
135 137 0
138 141 0
137 140 16
139 140 16
136 141 11
136 143 0
150 158 11
145 151 16
146 152 11
134 140 0
150 160 0
149 155 11
154 163 0
147 155 0
154 165 0
153 163 0
146 158 0
158 171 0
154 166 0
150 163 0
160 174 0
157 168 0
158 170 0
166 183 0
157 171 0
159 173 0
163 177 0
162 176 0
161 173 0
159 173 0
162 178 0
163 179 0
155 169 0
161 177 0
165 181 0
167 180 0
162 176 0
163 178 0
163 178 0
159 175 0
167 182 0
164 182 0
164 181 0
167 183 0
164 181 0
165 183 0
165 181 0
168 186 0
165 184 0
160 176 0
166 185 0
163 179 0
165 182 0
169 187 0
206 224 220
206 224 220
206 224 221
207 224 224
208 226 226
206 223 221
208 225 227
209 226 228
202 220 209
204 222 212
201 220 211
203 221 214
202 221 211
200 218 203
200 218 201
198 217 191
196 216 191
199 218 189
195 215 181
196 216 188
189 209 163
198 217 188
190 211 167
192 213 177
190 211 161
186 207 147
189 210 161
190 211 157
188 210 151
191 211 167
183 205 128
185 207 137
185 207 137
188 210 151
184 206 140
185 206 128
183 205 114
183 205 133
184 206 122
178 201 117
182 204 117
183 205 122
182 203 128
179 202 105
185 206 120
185 207 135
184 206 140
182 204 122
185 207 137
189 210 151
183 205 133
184 205 140
182 203 137
183 205 128
182 204 125
179 202 95
183 205 128
186 208 142
185 206 137
183 205 133
186 207 149
184 205 133
189 210 155
187 207 151
189 210 149
191 212 165
193 213 175
189 209 159
191 210 180
186 205 181
184 204 194
167 188 188
168 188 207
163 184 201
149 170 194
162 182 210
155 176 208
153 174 204
159 180 212
140 162 199
142 164 204
141 163 194
150 171 204
140 163 197
145 167 199
128 151 196
124 148 194
130 153 200
124 148 201
112 138 191
115 140 195
122 146 199
122 146 193
99 127 184
113 139 194
112 137 194
99 126 189
97 125 183
86 116 182
84 115 180
87 116 181
74 107 177
74 107 178
73 106 171
68 102 167
73 106 172
77 109 173
72 105 168
67 101 160
66 101 161
78 109 173
70 103 152
66 101 165
67 102 169
72 105 166
67 101 166
66 101 166
61 96 158
60 95 151
62 98 167
62 98 168
61 97 155
63 98 161
60 96 161
61 98 167
62 97 155
61 98 164
61 97 166
60 96 156
60 96 154
62 98 166
61 97 165
61 98 164
63 99 168
61 97 161
61 97 162
62 98 163
61 97 162
62 98 167
61 97 163
61 97 161
61 97 162
61 97 158
61 97 158
62 98 162
62 98 163
62 98 158
61 98 164
62 98 160
62 98 163
62 99 167
63 99 165
62 99 166
62 98 163
62 97 158
60 96 152
62 98 159
62 98 165
61 97 161
62 98 161
62 98 161
61 97 158
62 98 159
62 98 161
63 99 167
62 98 159
62 98 161
62 98 162
61 97 158
63 99 163
61 97 157
62 98 165
62 98 159
62 98 162
62 98 157
62 98 165
62 98 161
62 98 163
61 97 156
62 98 155
62 98 162
62 98 164
62 98 159
62 97 157
61 97 157
61 97 153
62 98 159
62 98 161
62 98 159
60 96 149
61 97 156
62 98 160
61 96 148
61 96 155
61 97 155
62 98 155
61 97 154
62 98 156
62 98 156
62 98 164
62 98 161
61 96 150
62 98 154
61 97 155
60 95 141
61 97 157
61 96 143
62 98 157
62 98 160
62 98 161
61 97 150
62 97 153
62 98 159
62 98 156
60 95 143
61 97 154
61 97 153
61 97 152
62 98 161
62 97 148
61 97 155
61 97 154
61 97 156
63 98 159
62 97 153
62 97 153
61 97 149
62 98 157
62 97 152
61 96 147
61 97 145
60 95 145
61 96 149
61 96 155
61 96 148
62 98 155
61 96 151
61 96 145
60 96 144
61 97 147
62 97 156
61 96 154
60 95 143
62 97 152
61 97 147
60 95 140
60 95 147
60 96 147
61 95 140
61 96 140
60 95 139
61 95 137
61 96 140
62 96 140
59 93 135
60 94 129
60 95 136
60 95 138
59 93 136
59 91 127
76 98 103
97 110 86
106 113 57
115 119 18
121 128 0
113 117 0
110 115 0
103 109 11
97 99 0
111 115 0
111 113 0
111 115 0
98 100 0
104 106 0
113 113 0
102 105 0
100 100 11
107 104 0
93 93 11
99 99 0
96 95 11
97 94 0
104 103 0
105 104 0
96 94 0
95 93 0
98 97 11
100 96 0
100 95 0
91 87 0
86 84 0
88 86 8
101 98 0
88 86 0
97 93 0
101 96 0
91 87 0
95 93 8
98 95 0
98 98 0
98 95 11
107 105 0
93 89 0
101 98 0
92 87 0
106 102 0
109 104 0
118 111 0
110 108 11
108 105 0
113 109 0
104 98 11
107 103 0
108 104 11
109 102 11
109 103 11
111 107 16
122 117 11
115 111 11
107 104 0
109 107 11
123 118 0
110 105 11
111 107 0
112 108 16
116 112 11
110 105 0
110 105 11
121 116 16
116 113 19
106 102 0
104 101 0
116 111 22
126 122 19
115 110 16
120 119 0
118 115 0
127 126 0
123 121 11
125 125 0
129 127 19
127 128 0
127 126 11
131 132 11
126 126 11
124 128 0
141 145 11
127 128 0
138 142 0
143 148 11
137 140 11
134 138 0
142 148 19
147 154 11
146 153 0
144 151 0
144 148 0
153 162 0
154 164 0
156 165 0
152 161 0
155 168 0
161 172 0
146 156 0
155 166 0
160 172 0
160 173 0
153 165 0
156 170 0
153 163 0
159 170 0
158 171 0
162 178 0
161 172 0
163 176 0
163 177 0
164 180 0
158 171 0
160 172 0
160 175 0
160 174 0
156 169 0
166 181 0
161 176 0
160 175 0
164 181 0
162 179 0
168 186 0
158 174 0
168 185 0
162 177 0
167 186 0
163 180 0
166 184 0
162 179 0
165 182 0
165 183 0
166 184 0
167 184 0
166 184 0
203 222 212
208 225 227
201 220 209
205 223 217
206 224 220
206 224 220
204 222 215
201 219 206
202 221 206
200 219 204
198 217 194
200 218 201
198 217 191
198 217 191
195 215 184
200 219 204
196 216 184
190 210 157
190 211 159
194 214 177
192 212 177
189 210 153
191 211 165
188 209 149
187 208 153
187 208 157
185 206 130
187 208 153
178 200 120
185 207 140
183 204 130
185 206 130
184 206 125
184 205 130
179 201 114
185 207 128
184 206 122
179 201 125
179 201 120
177 201 92
176 200 88
177 200 108
181 203 111
176 198 95
179 201 108
177 200 99
173 195 95
180 202 108
178 201 111
179 202 111
182 204 122
178 201 102
184 206 137
182 204 125
185 207 142
185 206 130
178 201 95
183 206 128
179 202 105
182 204 117
181 203 133
182 204 114
181 203 120
186 207 151
185 207 135
183 204 137
181 202 130
186 207 142
184 206 152
182 203 169
173 194 164
165 187 175
162 183 187
158 179 200
159 179 207
163 183 202
155 176 207
130 154 186
153 174 199
140 162 206
123 148 192
149 171 199
128 152 198
136 159 197
119 143 187
126 150 195
132 155 200
117 142 189
127 150 199
122 146 193
108 135 191
118 142 194
115 141 193
104 131 187
99 126 179
100 127 188
107 133 192
106 132 189
93 122 181
87 117 181
96 123 185
76 108 175
79 111 176
74 106 173
67 102 171
72 104 169
74 107 174
65 100 173
76 108 173
65 100 165
62 98 170
64 100 166
68 101 165
68 102 164
75 107 160
69 103 166
69 103 161
63 98 159
60 96 160
63 98 159
67 102 164
62 98 167
64 99 165
65 100 161
60 96 160
63 98 164
60 96 161
62 98 166
60 96 159
61 97 161
64 99 162
63 98 162
62 98 162
61 98 163
62 98 162
62 98 163
61 97 158
62 98 164
62 98 163
60 96 154
61 97 166
61 97 159
62 98 161
62 98 161
61 98 167
62 98 169
61 97 161
62 98 163
62 98 165
60 96 156
62 98 162
61 97 158
61 97 156
61 97 160
61 97 157
61 97 158
61 98 159
63 99 169
62 98 164
62 98 163
62 98 161
62 98 161
62 98 164
61 97 154
62 98 162
62 98 160
61 98 159
62 98 162
61 97 155
63 99 162
61 97 153
63 99 165
62 98 160
62 98 163
61 97 153
62 98 159
61 97 153
61 97 152
61 97 157
62 97 153
62 98 157
62 98 162
62 98 163
63 99 164
61 97 153
62 98 154
61 97 152
62 98 159
61 97 161
61 97 159
61 97 151
63 99 161
61 97 154
61 97 159
61 96 145
60 96 148
62 98 156
62 98 157
61 97 157
61 97 153
62 98 155
62 97 153
60 96 148
62 98 157
62 98 157
61 97 157
61 97 148
62 98 153
62 98 157
61 96 148
62 97 156
60 95 144
61 97 158
61 96 149
62 97 154
61 97 156
62 98 159
61 96 154
62 97 152
62 98 155
61 96 151
62 98 157
61 96 144
62 98 153
61 96 152
61 96 151
60 95 141
61 97 152
61 96 144
59 94 139
61 96 141
61 97 147
61 97 148
61 96 141
61 97 145
61 97 148
62 98 155
61 96 148
61 96 153
60 95 140
61 96 141
61 96 149
60 95 141
60 95 141
62 97 151
61 96 143
60 96 142
62 97 148
61 96 154
60 94 130
59 94 133
60 95 131
61 96 148
57 91 122
58 92 130
60 95 141
59 93 129
58 91 123
58 90 124
63 92 124
84 105 102
96 107 60
116 125 44
108 115 0
107 114 0
101 106 0
125 130 11
115 119 0
111 116 0
114 119 0
94 96 0
108 109 0
99 101 0
105 106 0
108 112 0
110 110 0
114 116 0
96 95 0
105 106 0
98 99 0
100 98 0
103 102 0
106 105 0
88 89 0
90 88 0
97 94 0
104 102 0
95 94 0
105 101 0
106 106 0
97 93 0
91 87 8
104 98 0
105 101 0
90 86 0
112 111 0
109 104 0
102 97 0
107 105 11
109 105 0
107 102 0
102 100 0
99 97 0
99 95 0
106 102 11
105 101 0
108 105 0
106 100 0
103 98 0
100 94 0
113 109 0
99 95 0
114 109 11
111 107 14
106 98 0
109 103 0
105 99 0
100 95 16
101 97 0
115 110 0
110 104 0
101 98 0
117 114 19
116 111 11
110 105 11
114 111 11
123 118 0
121 117 0
116 110 19
125 122 11
126 122 19
126 125 16
119 118 0
127 125 0
122 120 16
124 120 0
128 129 0
129 128 11
124 124 0
124 122 11
122 123 11
131 133 0
130 135 0
129 132 0
135 136 16
140 141 11
144 148 0
139 146 0
144 149 11
145 149 19
149 156 0
143 151 0
146 150 11
144 153 0
149 158 0
149 154 0
146 154 0
155 162 0
151 159 0
151 163 0
155 166 0
156 168 0
158 169 0
151 162 0
151 161 0
156 168 0
156 169 0
162 178 0
156 170 0
155 166 0
157 169 0
160 173 0
160 171 0
158 172 0
156 169 0
155 168 0
160 172 0
154 168 0
162 174 0
161 178 0
164 180 0
160 175 0
160 175 0
158 173 0
163 179 0
166 183 0
165 182 0
166 182 0
165 182 0
167 184 0
165 183 0
170 187 0
162 179 0
161 176 0
166 181 0
165 182 0
164 182 0
162 181 0
164 181 0
164 184 0
205 222 220
204 222 218
204 222 212
198 217 206
203 221 211
204 222 218
201 220 204
201 219 201
198 217 191
200 219 199
198 217 193
193 213 175
193 214 184
195 215 179
193 213 173
187 208 159
192 212 171
186 207 151
189 210 161
191 211 163
187 209 149
188 209 147
184 206 140
188 209 151
184 205 125
184 206 142
187 208 155
185 206 135
180 203 125
180 202 122
180 203 114
182 204 122
183 206 130
183 205 122
177 200 92
180 202 105
179 201 102
177 200 99
175 199 95
181 203 114
174 197 88
178 202 95
175 198 88
177 200 92
179 202 114
182 203 92
174 196 88
177 199 80
179 202 105
178 200 105
179 202 92
180 202 102
177 200 102
171 195 76
180 201 111
174 197 76
177 200 111
174 197 105
183 205 120
176 199 99
179 202 108
178 201 92
179 201 122
178 200 120
186 207 137
181 203 117
185 207 140
182 204 134
180 202 140
177 199 137
171 192 168
166 188 173
147 169 182
143 166 180
140 163 187
141 164 200
146 167 196
143 166 201
137 160 187
148 170 199
140 163 194
131 154 197
141 164 203
125 150 185
136 159 192
131 154 190
121 145 193
101 129 186
120 146 189
115 141 193
109 135 186
100 127 190
112 138 188
95 124 187
116 141 191
94 123 185
107 134 195
93 122 184
97 125 190
85 115 181
94 122 184
79 111 181
80 111 177
74 107 176
71 105 177
74 106 173
72 105 172
68 102 172
67 102 167
75 107 172
72 105 169
65 100 163
67 101 165
70 103 163
65 100 170
66 101 167
64 100 167
61 97 167
66 101 163
61 97 163
64 98 155
61 97 161
61 97 159
66 100 161
60 96 158
61 97 156
63 99 163
60 96 159
61 97 154
64 100 168
62 98 159
61 98 166
62 98 162
61 97 159
60 96 161
60 97 156
61 97 161
61 97 166
62 98 164
61 97 157
61 97 162
62 98 163
61 97 156
61 97 158
61 97 160
61 98 165
62 98 162
61 98 162
62 98 164
61 97 163
61 96 159
62 98 165
61 97 157
61 97 159
61 97 163
63 99 164
61 97 155
62 98 156
61 97 155
62 98 161
61 97 160
62 98 165
62 98 165
62 98 162
60 96 151
61 97 157
62 98 154
62 98 166
62 98 159
62 98 157
61 97 154
61 97 157
60 95 150
61 97 158
62 97 158
61 97 153
61 97 159
60 96 152
60 96 153
61 96 153
62 98 158
62 98 162
60 96 141
62 98 164
62 97 155
62 97 153
62 98 160
62 97 160
62 97 157
62 97 154
62 98 162
61 97 156
61 97 158
61 97 150
61 96 151
61 97 151
62 97 155
60 96 150
61 97 157
61 97 153
61 97 150
61 97 150
61 96 144
61 97 160
61 97 154
63 98 158
61 97 155
61 96 149
63 98 159
61 97 149
61 97 150
62 98 157
62 97 157
62 98 156
61 96 154
62 98 154
63 99 166
60 96 149
61 96 152
61 97 150
61 96 153
61 97 154
63 99 158
62 97 153
62 97 153
61 96 151
62 97 144
61 96 148
61 96 144
61 96 141
61 97 156
61 96 149
62 97 155
62 97 150
60 95 140
61 97 153
61 97 155
62 97 150
61 96 143
60 95 137
62 97 153
60 96 142
61 96 145
60 95 145
61 96 148
61 96 144
60 95 145
59 94 138
61 96 145
60 94 139
59 93 135
59 92 128
61 95 145
61 95 143
60 94 141
59 93 132
55 89 114
60 93 136
59 93 129
71 97 114
95 113 107
99 109 52
111 116 18
116 119 0
130 138 0
115 121 0
116 121 0
104 111 0
115 120 0
111 115 0
110 114 0
117 120 0
105 107 0
107 109 0
113 113 0
111 112 0
102 104 0
97 99 0
113 112 0
106 109 0
100 100 0
91 90 0
103 103 0
100 97 0
101 98 0
108 105 0
98 93 0
94 92 0
104 103 0
107 105 0
87 84 0
101 101 8
94 89 0
103 99 0
95 92 0
102 97 0
108 107 0
106 100 0
102 100 0
99 98 0
106 101 0
104 101 0
99 97 0
102 97 3
110 106 0
100 96 0
106 101 0
97 93 0
116 112 16
108 101 11
111 107 0
110 107 0
98 93 0
108 105 0
107 103 11
113 111 0
110 107 11
105 102 11
112 108 0
96 95 11
116 113 0
107 105 0
110 107 0
109 104 0
113 110 11
114 107 11
112 107 0
118 113 0
121 119 0
115 116 11
115 112 0
125 125 11
119 117 11
120 120 16
126 125 11
116 116 0
126 123 0
121 120 11
126 127 0
131 132 11
129 129 11
130 132 11
135 137 11
135 135 0
140 142 16
131 132 0
133 137 11
140 145 0
142 149 0
145 150 11
147 152 0
149 155 0
152 159 0
145 155 0
150 159 0
149 159 0
157 166 0
152 159 0
154 164 0
148 159 0
157 167 0
158 170 0
157 167 0
159 173 0
151 162 0
149 161 0
159 173 0
157 170 0
152 163 0
158 170 0
157 168 0
156 170 0
154 166 0
159 174 0
156 169 0
158 171 0
163 177 0
163 179 0
159 174 0
161 178 0
161 177 0
165 181 0
163 177 0
160 176 0
163 179 0
163 178 0
162 177 0
167 183 0
160 175 0
163 181 0
164 180 0
164 181 0
160 176 0
163 179 0
166 183 0
167 187 0
165 185 0
168 184 0
164 183 0
168 187 0
208 225 226
203 222 217
205 223 215
201 219 206
205 223 221
199 218 193
194 214 188
198 217 189
197 217 189
193 213 173
197 216 182
189 210 155
191 211 165
187 209 153
190 210 165
188 209 149
189 210 155
186 207 142
185 207 133
191 211 163
181 204 114
184 205 137
183 205 114
186 208 140
185 206 135
177 200 111
182 204 140
183 204 122
183 205 122
175 199 76
177 200 108
184 205 117
179 202 117
180 203 108
175 198 84
174 198 95
175 199 76
177 199 92
178 202 105
176 199 105
179 202 108
175 198 72
180 202 99
175 198 99
174 197 72
176 198 102
174 196 95
176 199 84
174 197 62
176 198 88
174 198 88
174 198 84
174 197 62
175 198 88
176 200 92
178 201 95
177 200 76
175 198 92
175 198 80
176 199 114
180 203 108
177 200 99
179 202 105
182 204 120
176 198 102
176 198 111
185 206 135
178 201 118
181 203 130
172 194 147
166 188 152
159 182 165
147 169 168
140 162 199
139 161 188
133 156 190
143 164 191
141 163 199
142 164 192
138 161 194
126 150 196
131 155 196
129 152 188
116 141 187
119 143 191
110 137 188
125 150 191
110 135 191
116 141 184
107 133 193
109 135 188
106 133 185
110 135 186
113 139 188
93 122 178
86 116 182
112 137 193
88 118 184
100 128 192
98 126 188
98 125 183
86 116 181
74 106 176
71 105 179
74 107 176
70 104 174
68 102 170
64 99 169
71 104 170
70 104 172
71 104 166
72 105 168
65 101 166
67 101 165
66 100 160
65 99 160
63 99 165
70 104 163
65 99 161
61 97 168
63 99 163
60 95 156
59 95 152
62 97 152
62 98 162
61 96 159
61 97 164
61 97 156
60 96 158
62 98 162
60 96 150
62 96 158
62 99 171
61 97 161
62 98 162
61 98 169
61 97 162
61 97 164
61 97 158
61 97 163
62 98 164
60 97 161
61 98 162
62 97 155
60 96 155
61 97 159
61 97 161
61 98 166
62 98 160
62 98 159
63 99 161
61 97 157
61 97 157
61 97 159
62 99 164
62 98 161
62 98 162
61 97 161
61 97 158
61 97 156
62 98 168
62 99 166
61 96 155
63 99 168
61 97 159
62 98 157
63 98 166
61 96 148
61 97 158
61 96 156
62 98 155
62 98 159
62 98 157
61 97 153
60 96 149
62 98 159
62 98 162
61 97 159
63 99 162
62 98 157
62 98 155
61 97 159
59 95 152
63 99 163
62 98 160
61 97 151
62 98 162
61 97 155
61 97 154
62 98 165
62 97 159
62 98 159
63 99 163
61 96 151
61 97 151
62 97 157
61 97 156
62 98 159
62 98 159
63 98 158
62 97 159
61 97 153
62 98 159
62 98 158
60 96 151
61 96 147
60 96 153
61 97 151
62 97 151
61 97 153
61 97 154
61 96 157
61 97 153
62 97 151
62 97 154
61 97 149
61 96 143
62 97 153
60 96 150
61 96 154
61 96 145
62 97 157
61 96 151
62 98 156
61 96 149
62 98 153
61 96 148
61 96 141
61 96 145
61 97 145
60 96 149
61 96 150
62 98 157
61 96 148
61 97 147
61 96 148
60 95 135
62 97 149
62 97 154
60 94 140
61 97 144
60 95 135
61 96 148
61 96 145
61 96 141
60 96 147
60 95 142
60 94 138
61 96 147
60 95 139
59 92 129
58 92 133
61 95 141
58 92 121
58 92 128
60 94 130
58 91 124
59 92 121
60 91 121
86 108 116
99 115 86
110 119 47
108 114 25
115 119 0
112 118 0
103 108 0
118 122 0
122 128 0
118 123 0
107 108 0
112 117 0
113 120 0
113 117 0
99 104 0
106 110 0
97 99 0
112 114 0
98 99 0
96 97 0
93 93 0
108 110 11
100 103 0
107 109 0
107 109 0
101 100 0
94 94 0
88 87 0
97 99 0
106 105 0
106 108 0
96 94 0
104 102 0
102 100 0
107 105 0
81 78 0
98 93 0
107 107 0
105 106 0
85 81 0
104 100 0
100 95 0
105 102 0
102 97 0
107 104 0
113 108 0
101 100 0
106 104 0
111 108 0
112 106 11
102 98 0
116 113 0
96 91 0
108 102 0
99 96 0
110 107 0
115 113 0
103 98 11
110 103 0
115 112 0
108 106 0
116 112 0
118 115 11
107 106 0
122 120 11
114 110 0
121 117 16
126 123 0
118 117 0
119 114 0
117 117 0
110 107 0
126 123 0
116 116 11
126 122 0
128 128 0
131 129 11
129 131 0
122 122 0
121 120 19
120 123 0
136 137 16
131 132 0
135 141 0
134 136 11
141 144 0
139 144 0
141 147 19
138 142 11
144 150 0
148 156 0
153 161 0
149 160 0
148 156 0
144 152 0
151 163 0
151 159 0
154 163 0
152 164 0
152 164 0
153 164 0
155 169 0
151 162 0
150 161 0
157 166 0
150 161 0
154 167 0
154 165 0
158 168 0
157 169 0
153 165 0
162 175 0
159 172 0
158 170 0
162 176 0
158 172 0
163 177 0
163 178 0
149 162 0
161 175 0
162 175 0
159 172 0
163 176 0
161 177 0
164 180 0
164 179 0
164 179 0
158 173 0
161 177 0
168 185 0
169 184 0
160 175 0
166 183 0
165 182 0
163 178 0
162 181 0
164 183 0
162 179 0
167 186 0
166 184 0
167 184 0
202 220 207
200 219 199
200 219 198
199 217 201
196 216 188
198 218 194
194 214 188
190 211 167
194 214 182
194 213 171
187 208 149
190 209 171
187 208 142
190 211 159
186 206 159
188 209 155
185 207 147
186 207 135
183 205 137
183 204 114
184 207 135
181 204 128
183 205 117
186 206 142
176 199 92
176 199 102
179 201 102
178 200 108
178 201 88
174 197 80
174 197 72
177 201 88
175 199 84
177 200 80
177 200 92
174 197 72
174 197 67
176 200 88
175 199 62
174 197 76
176 200 88
173 197 62
176 199 72
175 198 92
174 198 76
174 198 80
174 198 67
175 199 92
175 197 84
174 198 99
175 199 88
178 202 99
174 198 88
174 197 76
175 199 84
172 195 76
171 195 62
172 195 80
177 200 80
175 198 84
174 198 95
176 200 76
175 199 84
175 198 105
173 196 76
179 202 108
177 200 102
171 194 100
169 192 103
169 191 151
167 189 140
150 173 161
139 162 178
131 155 180
133 156 189
126 150 187
139 161 196
132 155 192
140 163 181
130 154 188
137 160 194
116 142 187
131 154 194
112 139 188
118 143 189
115 140 181
108 134 188
116 141 190
106 133 186
95 123 179
112 138 183
106 132 188
112 138 184
108 134 182
100 127 189
90 119 181
98 126 187
92 121 181
97 125 188
97 125 184
98 126 190
79 111 180
86 116 179
70 103 169
77 109 181
76 108 169
77 109 175
78 110 175
75 107 167
68 102 171
73 106 170
74 107 177
69 103 167
73 106 168
69 102 161
73 106 171
65 100 165
67 101 168
60 96 159
63 99 166
64 100 165
63 98 157
63 99 162
61 97 163
61 97 161
63 97 152
61 97 159
64 98 156
62 98 166
64 99 157
62 98 164
60 96 160
60 96 160
62 98 162
60 96 150
61 97 164
61 97 161
61 98 163
61 97 159
61 97 162
61 97 162
61 97 158
62 98 164
61 98 163
61 97 157
62 98 164
62 97 158
62 98 159
61 97 161
62 99 168
62 98 159
61 97 159
61 97 158
61 96 153
62 98 160
62 98 159
61 96 157
62 98 163
62 98 157
60 96 145
61 97 152
60 96 155
61 97 153
61 96 150
62 98 163
61 97 156
62 98 163
62 97 153
62 98 164
61 97 156
62 98 159
61 97 150
61 97 159
61 97 155
61 97 147
62 97 157
61 97 153
62 97 156
62 98 157
61 97 154
60 96 148
61 96 152
61 97 151
62 98 161
62 98 161
62 98 158
62 98 160
60 96 152
61 97 153
62 98 160
60 96 150
61 97 154
61 97 149
61 97 153
61 97 152
61 97 153
62 98 157
62 98 158
62 98 156
62 97 153
61 97 152
62 98 159
61 97 150
62 97 151
62 98 151
60 95 145
62 97 154
62 97 156
62 97 150
61 96 151
62 97 144
61 96 150
62 97 152
61 97 154
61 96 154
62 98 154
61 97 148
62 98 158
61 97 151
61 97 149
62 98 156
61 96 154
61 97 155
61 96 149
61 97 144
61 96 142
62 97 152
59 94 137
61 96 148
63 98 161
61 96 151
61 97 149
61 96 144
62 97 152
60 95 134
61 96 142
62 97 148
61 96 145
61 96 145
61 96 145
62 97 153
60 94 136
61 95 143
59 93 134
61 96 148
59 93 130
61 97 149
60 94 136
60 95 136
61 95 148
61 96 150
59 93 134
59 93 126
60 94 139
59 92 133
59 92 129
60 94 126
59 92 131
66 96 111
89 109 101
99 112 74
110 119 47
114 119 0
107 112 0
116 121 0
104 110 0
100 106 0
105 112 0
125 133 0
110 115 0
103 107 0
100 103 11
115 121 0
101 105 0
108 111 0
111 118 0
99 102 0
98 102 0
104 107 0
110 114 0
106 107 0
106 106 0
108 112 0
113 113 0
100 99 0
97 96 0
94 93 0
95 96 0
105 105 0
97 97 0
108 106 0
105 104 0
105 102 0
101 100 0
98 94 0
97 91 0
96 91 0
108 106 0
101 96 0
111 108 0
96 91 0
105 103 0
103 101 0
106 103 0
102 99 0
103 100 0
97 96 0
96 91 0
107 106 0
105 102 0
116 114 0
111 109 0
108 103 0
95 93 0
111 109 0
117 116 11
119 118 0
118 117 0
115 111 0
108 105 0
116 118 16
116 114 0
122 119 11
111 110 0
119 117 11
119 114 0
111 111 0
113 107 19
121 121 0
120 118 0
117 118 0
124 122 0
131 132 11
124 123 0
129 133 0
124 123 0
123 125 0
129 131 0
129 132 16
129 130 0
139 143 16
139 141 0
141 145 0
142 147 0
129 133 0
146 154 0
144 151 0
138 145 0
142 148 0
145 153 0
148 157 0
151 160 0
151 158 0
150 157 0
148 154 0
156 168 0
159 168 0
154 166 0
148 158 0
160 172 0
153 162 0
156 166 0
159 171 0
155 166 0
152 161 0
158 172 0
156 167 0
154 167 0
158 173 0
157 168 0
154 165 0
152 162 0
164 179 0
158 169 0
158 170 0
157 172 0
164 180 0
162 178 0
158 173 0
165 180 0
162 178 0
163 178 0
160 176 0
163 178 0
161 176 0
161 179 0
166 183 0
161 177 0
165 181 0
164 182 0
169 187 0
163 180 0
171 189 0
166 183 0
162 180 0
164 182 0
167 183 0
159 176 0
165 183 0
160 180 0
200 218 201
198 217 198
199 218 196
197 217 194
192 212 177
195 215 184
194 213 181
193 212 165
187 207 149
190 211 159
187 208 135
185 207 137
186 207 144
183 205 140
185 207 125
180 203 117
183 205 135
182 204 122
185 206 140
179 201 102
180 203 111
177 200 99
181 204 122
177 200 99
174 197 76
175 198 80
177 200 84
177 200 92
174 198 76
174 196 72
173 196 84
173 197 51
169 193 72
176 199 76
174 198 72
175 198 51
176 200 99
174 198 80
172 195 57
177 199 57
174 197 72
175 199 84
173 197 84
173 198 67
172 197 62
176 200 76
172 196 57
176 199 84
173 197 80
174 198 84
176 200 88
174 198 62
173 197 80
172 195 67
174 198 76
174 198 67
176 199 102
176 200 80
173 197 80
173 197 67
175 198 76
173 197 88
174 197 99
175 198 72
172 196 84
175 197 80
174 198 95
170 193 80
165 188 97
161 184 102
153 176 143
143 165 141
130 156 165
125 149 176
116 142 187
126 150 177
121 146 170
138 161 193
117 142 183
124 148 189
118 143 177
121 145 184
110 136 182
115 140 176
117 143 181
113 139 181
97 125 178
101 128 179
94 122 175
106 133 182
115 140 190
89 118 176
110 136 184
96 125 178
95 124 182
101 129 188
99 126 185
89 119 181
78 110 178
77 109 178
90 119 179
77 109 178
84 114 181
87 116 182
75 108 176
82 113 176
79 110 175
64 99 170
71 104 169
70 104 175
76 109 178
72 105 168
73 105 165
71 105 169
69 103 167
68 103 173
65 100 160
66 100 159
62 98 169
68 102 161
66 100 167
63 98 163
61 96 158
61 97 162
63 98 157
66 100 154
61 97 159
59 95 152
63 98 151
62 98 161
61 97 161
62 98 165
61 97 161
62 97 148
61 97 162
61 97 161
61 97 160
61 97 163
62 98 161
62 98 165
61 97 158
60 96 157
61 98 164
60 96 155
61 98 163
62 98 163
62 98 165
62 98 161
61 98 164
62 98 160
62 98 165
61 97 154
61 97 158
62 98 157
61 97 160
62 98 161
60 96 151
61 97 156
62 97 161
62 98 167
62 98 159
61 97 159
62 97 156
61 97 160
61 97 158
62 98 158
62 98 160
62 97 155
61 97 160
61 97 159
61 96 151
61 97 154
63 98 165
61 97 154
62 98 156
62 98 157
62 97 155
62 98 157
62 97 157
62 98 157
61 97 148
63 99 159
61 97 151
62 98 161
62 97 159
62 97 155
60 96 149
61 96 153
62 98 160
62 97 154
62 98 155
61 96 147
61 97 152
61 97 155
62 98 157
62 97 155
61 97 154
61 97 151
62 98 153
62 98 155
61 97 153
61 97 155
63 98 159
61 97 150
61 96 145
61 96 148
61 96 150
62 97 148
61 97 152
61 97 150
62 98 157
60 95 144
61 96 147
60 95 148
61 96 148
61 97 150
61 97 149
61 96 142
61 96 147
61 96 152
61 97 147
61 96 145
61 96 148
62 97 150
61 96 143
62 97 142
62 98 156
59 94 140
60 95 140
61 96 142
60 94 137
61 96 144
60 95 143
60 94 142
62 97 150
60 95 141
61 97 142
60 95 143
61 96 139
60 95 137
62 97 147
61 96 144
60 95 142
60 94 137
61 96 145
60 94 141
60 94 141
61 96 139
59 93 130
60 95 140
61 95 141
60 94 133
60 94 128
58 91 128
59 93 121
59 93 130
59 93 129
58 91 121
73 99 116
98 116 103
103 114 72
111 118 0
123 131 0
112 120 0
114 120 0
124 132 0
113 119 0
122 130 0
116 124 0
103 109 0
114 122 0
111 115 0
114 121 0
109 114 0
116 122 0
111 115 0
107 109 0
93 95 0
99 101 0
102 106 0
111 113 0
108 108 0
100 102 0
93 92 0
109 111 0
100 100 0
97 99 0
90 90 0
97 97 0
97 99 11
103 103 0
111 113 0
88 88 0
107 105 0
113 113 0
99 94 0
113 112 0
100 98 0
98 97 0
91 91 0
109 104 0
108 106 0
105 102 0
112 110 0
106 100 0
106 103 0
106 103 0
100 98 0
105 104 0
103 101 0
109 106 0
102 99 0
113 111 0
101 97 11
112 109 0
110 106 0
123 121 0
115 113 11
113 111 0
121 119 0
109 105 11
126 126 0
117 113 0
121 118 0
118 116 16
128 127 11
116 114 0
120 120 11
122 122 0
120 122 0
117 113 11
121 118 11
121 119 0
127 129 0
124 125 0
124 127 0
140 145 0
131 131 0
133 135 0
132 133 0
138 142 0
137 143 0
143 147 0
132 133 0
148 155 0
140 146 0
146 154 0
151 161 0
147 154 0
144 150 0
145 153 0
145 153 0
153 161 0
143 151 0
151 162 0
148 157 0
150 159 0
151 161 0
155 165 0
152 162 0
157 167 0
153 163 0
152 164 0
156 165 0
154 165 0
154 168 0
153 166 0
158 171 0
155 168 0
161 175 0
158 172 0
158 172 0
152 166 0
162 176 0
161 176 0
157 171 0
159 176 0
163 178 0
163 176 0
166 181 0
164 179 0
165 177 0
165 180 0
167 184 0
161 175 0
167 184 0
163 179 0
162 179 0
164 181 0
165 181 0
165 181 0
166 183 0
163 179 0
164 180 0
165 182 0
164 181 0
167 184 0
166 185 0
166 184 0
169 188 0
198 217 188
198 218 194
196 215 184
203 221 209
192 213 169
188 210 163
190 211 173
188 210 157
191 212 167
191 212 161
191 211 155
187 209 147
178 200 122
182 204 117
183 205 130
186 207 128
180 202 114
177 200 108
179 202 95
177 199 105
177 200 84
177 200 95
177 199 80
172 196 76
175 199 80
175 198 76
176 199 80
175 199 92
175 198 62
171 195 67
174 198 51
171 194 51
175 198 84
175 197 44
174 198 99
175 199 76
174 198 57
173 197 67
170 194 72
174 198 80
178 201 95
172 195 51
174 198 80
172 196 72
174 198 76
172 196 51
171 195 67
175 198 72
176 200 84
170 195 62
176 200 84
175 199 92
173 197 95
171 195 67
173 197 80
178 201 76
174 198 80
173 197 67
171 194 80
171 194 84
169 193 62
171 195 57
175 198 80
173 198 80
173 196 62
171 195 72
173 196 84
169 194 94
172 196 80
159 183 110
146 170 137
138 163 142
124 150 160
116 141 167
114 140 174
115 141 176
114 140 178
107 134 176
115 140 173
111 137 177
112 138 173
120 145 182
120 145 185
110 137 182
115 141 175
118 144 187
105 132 178
113 139 184
103 131 179
102 129 178
105 132 184
96 124 175
99 127 182
102 130 180
94 122 178
96 124 182
88 118 182
88 118 185
91 119 180
88 118 182
89 118 181
68 102 173
87 117 182
81 112 177
86 116 181
76 109 179
77 109 179
68 103 171
71 105 173
68 102 169
65 100 170
68 102 172
62 98 170
67 101 170
71 104 169
69 103 170
74 106 173
63 99 163
65 99 154
61 97 163
61 97 164
61 97 160
67 101 166
61 97 160
60 96 159
61 97 163
62 98 163
63 99 165
60 95 151
62 98 165
61 97 163
64 99 154
61 97 159
64 99 159
60 96 161
61 97 167
61 97 162
61 96 152
61 97 161
61 98 164
59 94 153
61 97 157
61 97 164
61 97 155
61 97 159
61 97 157
60 96 150
62 98 160
62 99 170
61 96 153
61 97 158
62 98 163
61 97 157
61 98 160
62 98 161
62 98 160
62 98 159
62 98 165
62 98 159
62 98 158
62 98 156
61 97 161
62 98 161
62 98 160
62 97 157
61 97 152
60 95 149
62 98 159
62 97 152
61 96 152
61 97 155
61 97 159
61 96 155
62 98 157
60 96 145
61 97 153
61 97 153
61 97 154
62 98 156
62 98 156
62 98 164
61 96 155
62 98 157
62 98 158
62 98 158
61 97 157
62 98 160
61 97 158
61 97 152
62 97 159
60 96 145
62 98 157
61 97 158
60 96 147
62 98 155
61 97 159
62 98 159
61 97 153
61 97 155
63 99 159
62 97 151
60 95 145
61 96 149
61 97 149
61 97 159
62 98 152
62 97 156
60 96 145
61 97 157
62 97 156
61 96 151
62 98 155
61 96 142
61 97 150
61 96 152
61 97 150
61 97 144
61 96 143
62 98 156
62 98 154
61 97 149
61 96 142
61 96 144
60 96 147
61 96 145
60 96 145
60 95 145
61 96 147
61 96 140
61 96 143
62 98 155
62 97 153
61 97 150
61 95 144
62 97 151
61 96 147
62 97 152
62 97 154
61 96 144
59 94 141
61 96 143
60 95 137
61 96 151
61 96 148
62 97 145
60 95 136
61 97 153
59 94 129
60 94 136
60 94 131
60 94 140
59 93 124
60 94 147
58 92 130
59 93 126
59 93 130
57 90 125
60 91 124
75 97 99
100 114 80
113 127 60
113 122 25
116 123 0
123 131 0
116 122 0
102 108 0
116 123 0
127 132 0
108 113 0
117 122 0
115 120 0
94 98 0
101 101 0
113 117 0
108 112 0
105 107 0
116 121 0
100 104 0
111 113 0
103 108 0
110 113 0
110 115 11
107 107 0
104 105 0
106 108 0
96 98 0
113 118 0
96 97 0
101 101 0
112 114 0
107 106 0
110 110 0
95 96 0
106 105 0
98 97 0
104 103 0
114 116 0
112 111 0
86 84 0
105 103 0
92 90 0
106 104 0
103 99 0
95 91 0
107 104 0
102 97 0
94 93 0
108 105 0
113 107 0
106 109 0
100 95 0
117 116 0
105 101 11
115 114 0
108 106 0
116 114 0
111 110 0
116 116 0
115 112 0
112 111 0
116 114 0
115 112 0
112 109 0
121 119 11
112 111 0
121 119 11
119 118 11
117 115 0
122 121 11
127 129 0
125 122 11
129 132 0
129 129 11
135 138 0
129 131 0
141 146 0
137 138 16
124 125 11
133 136 0
134 134 11
143 148 11
138 141 0
138 142 0
139 143 11
147 153 0
146 152 0
137 142 0
142 146 11
148 156 0
145 154 0
150 158 0
147 152 0
146 153 0
148 156 0
149 158 0
147 153 0
148 155 0
148 158 0
150 159 0
153 162 0
155 165 0
155 167 0
153 165 0
161 174 0
157 168 0
161 172 0
155 166 0
159 172 0
159 173 0
161 175 0
158 172 0
153 164 0
164 179 0
157 169 0
162 176 0
157 168 0
157 170 0
163 178 0
156 168 0
158 172 0
161 177 0
161 175 0
161 178 0
162 178 0
159 176 0
166 182 0
165 180 0
163 180 0
159 176 0
165 180 0
164 181 0
161 178 0
164 180 0
166 184 0
161 180 0
167 186 0
167 184 0
161 177 0
166 185 0
163 180 0
194 213 179
187 207 157
193 214 173
191 211 165
190 211 155
187 208 144
190 210 157
189 209 151
186 206 135
185 206 130
181 203 120
183 205 135
177 200 102
174 198 99
180 203 120
183 205 117
180 203 122
180 202 105
180 202 92
170 193 76
172 195 76
176 200 95
177 201 102
175 199 76
175 198 72
173 197 72
176 199 62
173 197 67
174 197 72
174 197 51
174 198 80
176 199 76
172 195 62
172 196 51
175 198 80
176 200 76
173 196 62
173 197 80
173 196 51
173 196 67
174 198 84
171 195 57
170 194 44
175 198 76
172 196 84
171 195 67
173 197 76
176 199 92
170 194 44
173 197 72
170 194 57
167 190 57
171 194 62
174 197 72
172 196 72
172 195 62
173 196 80
170 194 57
172 196 88
175 198 67
174 198 67
173 196 72
172 195 84
173 197 76
174 198 72
172 196 76
174 198 72
172 195 76
164 187 82
158 182 92
148 172 136
132 157 145
114 140 161
97 126 173
96 125 173
107 134 163
107 134 163
103 131 162
116 143 165
114 140 175
119 145 178
113 139 173
122 146 173
96 125 171
100 127 175
89 119 173
107 133 181
111 138 180
104 131 168
106 132 174
110 136 173
100 128 180
91 121 180
97 126 181
96 124 180
86 116 181
83 114 174
84 115 177
79 111 179
92 121 181
83 114 176
87 117 178
80 111 173
78 110 176
78 110 175
65 100 172
84 114 177
78 110 176
77 109 180
77 108 168
66 101 172
71 104 168
71 104 163
74 106 169
65 100 171
62 99 172
76 108 176
64 99 160
66 101 168
68 102 162
65 99 156
62 98 166
64 99 162
63 98 158
63 97 158
63 98 163
65 100 163
63 97 156
61 97 157
61 98 161
61 97 162
62 98 162
61 97 156
60 96 160
63 99 162
63 98 158
60 95 154
62 98 164
60 95 155
61 97 160
61 97 161
61 96 153
62 98 163
62 98 159
61 96 154
62 98 163
61 96 152
61 97 154
61 97 159
62 98 160
61 97 150
61 97 156
61 97 160
61 97 156
61 97 156
61 97 156
61 97 158
61 96 158
61 97 154
62 97 157
62 98 161
62 98 163
61 97 159
62 98 159
61 97 158
62 98 161
62 98 157
62 97 155
61 97 153
62 98 157
61 96 152
61 96 151
62 98 162
61 97 155
62 98 158
61 96 152
62 97 155
62 98 160
62 98 162
62 97 152
62 98 160
61 96 149
61 96 148
61 97 157
61 96 151
61 97 150
61 97 148
61 96 147
61 97 154
62 98 156
62 97 161
61 96 156
60 95 147
61 96 148
61 97 159
61 96 141
61 96 148
61 96 144
61 97 154
62 98 158
62 98 158
61 96 151
62 98 157
61 96 143
62 97 154
62 98 160
61 97 152
61 96 147
61 97 148
61 96 145
62 98 155
62 97 152
62 97 152
61 96 145
61 96 143
62 98 151
60 95 144
61 97 151
62 97 152
61 96 150
61 97 150
60 95 137
61 96 144
61 96 150
60 95 135
62 97 144
61 97 148
61 97 149
61 97 150
61 96 144
60 94 139
61 97 150
62 97 147
60 96 143
61 97 148
59 95 139
61 97 150
61 97 144
61 95 140
61 96 147
61 96 143
60 95 141
61 96 148
60 95 134
61 96 139
60 95 132
60 95 139
60 95 131
59 93 133
59 93 137
59 92 128
60 94 139
60 94 134
59 94 130
59 92 124
59 93 128
56 89 114
63 94 120
94 110 94
90 103 65
102 111 44
105 109 0
112 121 0
113 118 0
110 117 0
113 122 0
116 122 0
121 128 0
113 116 0
107 114 0
108 115 0
94 97 0
119 123 0
114 120 0
111 114 0
113 117 0
116 118 0
111 115 0
112 113 0
107 110 0
109 112 0
99 103 0
110 115 0
110 113 0
115 117 0
109 110 0
102 101 0
101 103 0
109 110 0
93 95 0
104 103 0
107 107 0
103 104 0
99 99 0
99 99 0
110 108 0
96 95 0
113 114 0
89 87 0
110 111 0
102 101 0
99 101 0
96 93 0
98 99 0
114 111 0
110 107 0
108 108 0
115 112 0
106 105 0
106 100 0
110 104 0
109 109 0
112 114 0
110 108 0
109 109 0
116 115 0
116 117 0
113 111 0
120 118 0
124 126 0
123 124 11
123 120 0
112 110 0
121 120 0
118 119 0
119 118 11
114 112 0
121 122 0
124 124 0
115 114 0
130 132 0
137 139 0
132 134 0
133 136 0
121 125 11
131 133 0
140 145 11
141 142 11
135 137 0
135 141 0
131 135 0
139 144 0
144 150 0
148 154 0
138 142 0
151 156 0
154 163 0
152 160 0
140 146 0
147 157 0
151 157 0
146 156 0
154 162 0
145 152 0
155 162 0
151 159 0
152 162 0
151 161 0
153 160 0
152 163 0
162 175 0
155 166 0
158 169 0
149 157 0
155 166 0
161 173 0
162 178 0
158 169 0
159 173 0
160 174 0
159 173 0
159 170 0
160 172 0
158 172 0
162 176 0
163 176 0
161 174 0
159 174 0
162 175 0
159 173 0
157 171 0
163 178 0
163 178 0
165 180 0
160 177 0
161 178 0
161 176 0
158 173 0
164 181 0
163 181 0
167 185 0
168 186 0
169 188 0
158 173 0
164 181 0
162 180 0
168 187 0
167 185 0
165 182 0
160 177 0
196 215 181
190 210 167
191 212 165
188 209 151
187 209 147
184 205 142
185 207 130
184 206 133
181 203 122
182 205 114
177 199 111
180 203 105
179 201 105
178 201 105
175 197 80
179 202 102
178 200 88
176 200 99
176 199 72
173 196 76
174 197 67
169 193 76
175 198 67
174 197 72
173 197 88
172 196 80
172 197 88
173 197 80
175 198 72
174 197 67
171 194 51
172 196 84
175 199 80
172 197 72
173 196 72
174 197 76
171 195 76
170 194 62
172 196 62
171 196 72
175 199 92
176 200 102
171 195 84
170 193 72
175 197 57
170 193 76
176 199 76
173 197 72
173 197 80
175 198 67
174 197 36
175 199 88
176 199 84
175 199 95
172 195 62
175 199 80
171 194 76
173 196 67
174 197 80
172 196 57
172 196 57
174 197 76
174 199 80
173 196 84
168 193 67
170 193 67
175 198 67
168 192 70
166 189 88
160 183 97
147 171 103
138 162 121
107 135 153
100 129 162
108 135 168
98 127 171
102 130 164
101 129 167
109 135 164
107 135 177
103 131 167
108 134 170
106 133 164
104 132 175
99 127 170
99 128 169
102 129 173
96 124 177
104 132 178
93 122 166
102 129 181
98 126 181
97 125 174
96 124 177
92 121 176
92 121 178
94 122 176
89 118 171
78 110 174
93 122 178
70 104 167
81 112 178
90 120 181
81 112 175
87 117 175
90 119 181
70 103 172
84 114 175
68 102 174
77 109 177
70 104 169
68 102 169
77 108 171
64 100 172
76 108 174
67 101 167
73 106 172
69 103 169
76 108 171
64 99 158
71 104 167
65 99 157
64 99 160
68 102 164
65 100 163
61 96 156
62 97 156
60 96 151
61 97 166
64 99 163
61 97 162
62 97 149
63 98 154
62 98 165
61 97 158
60 96 159
62 97 156
62 98 165
61 96 156
61 97 162
61 97 161
61 97 160
62 98 163
61 97 154
62 99 165
60 96 155
62 98 159
62 98 160
61 97 154
61 97 158
62 98 161
61 97 157
61 97 155
62 97 154
62 98 165
60 96 152
62 98 161
62 98 162
61 96 161
62 98 162
60 95 149
61 96 150
61 96 153
62 98 159
62 98 160
61 97 153
61 97 159
61 97 154
62 97 158
62 98 163
62 98 157
63 99 162
63 99 164
62 98 159
62 98 156
61 97 153
60 96 148
61 97 157
62 97 155
62 97 152
61 97 153
61 97 157
62 98 160
61 97 150
62 98 156
62 97 158
63 98 160
61 97 159
62 98 158
61 97 154
61 96 150
62 98 157
61 96 147
61 97 153
62 98 156
61 97 152
60 95 144
62 97 153
62 97 151
62 97 155
62 97 157
61 97 151
61 97 151
61 97 150
61 97 152
63 99 160
62 97 154
62 98 153
62 97 150
61 96 143
61 97 150
62 97 150
61 96 149
61 96 147
61 96 142
61 96 145
61 96 144
61 97 149
62 97 151
61 96 150
61 97 144
61 96 140
62 97 147
61 96 148
59 94 140
61 97 149
61 97 152
59 94 141
60 95 140
61 96 147
61 96 148
61 97 149
61 96 143
61 95 144
60 95 139
59 93 140
61 97 153
61 95 139
60 95 136
60 95 144
60 95 140
62 97 145
61 96 144
60 95 137
59 94 133
60 95 141
59 94 128
59 94 129
60 95 139
59 94 126
59 93 129
60 94 137
58 91 124
60 94 128
59 92 129
60 94 130
60 92 127
74 99 103
93 110 83
106 118 65
114 123 36
108 116 0
110 117 0
116 123 0
117 123 0
114 122 0
125 129 0
118 126 0
117 122 0
103 109 0
112 116 0
114 118 0
121 128 0
116 119 0
117 121 0
108 111 0
118 121 0
105 110 0
115 118 0
105 113 0
108 108 0
108 110 0
115 118 0
104 105 0
104 106 0
111 115 0
116 117 0
104 103 0
108 109 0
105 103 0
98 101 0
106 105 0
94 95 0
116 116 0
99 98 0
107 104 0
113 112 0
112 114 0
104 103 0
111 111 0
110 112 0
111 110 0
104 105 0
117 115 0
107 107 0
111 109 0
107 105 0
111 110 0
115 113 0
105 102 0
110 110 0
107 109 0
117 117 0
102 99 0
109 111 0
115 114 0
117 117 0
105 104 11
120 119 0
112 113 0
108 109 0
122 122 0
121 123 0
127 128 0
125 124 0
123 123 0
120 121 0
127 128 0
130 131 0
132 133 0
120 122 0
130 129 0
135 136 0
124 126 0
132 133 0
131 131 11
139 144 0
139 143 0
134 136 0
145 151 0
125 127 0
140 142 0
144 149 0
144 148 0
142 148 0
142 149 0
143 151 0
149 158 0
151 158 0
147 156 0
147 154 0
150 160 0
152 162 0
153 158 0
150 160 0
154 168 0
145 152 0
150 160 0
149 157 0
157 170 0
152 158 0
157 169 0
154 164 0
155 164 0
158 172 0
158 172 0
153 166 0
160 172 0
155 165 0
160 174 0
157 170 0
155 167 0
161 175 0
160 175 0
163 176 0
163 177 0
158 170 0
158 173 0
158 173 0
164 180 0
160 174 0
159 174 0
157 173 0
158 171 0
165 180 0
165 179 0
166 182 0
164 179 0
155 170 0
161 178 0
157 172 0
163 179 0
164 181 0
168 185 0
168 187 0
160 179 0
167 186 0
166 184 0
166 184 0
163 180 0
192 212 163
186 207 149
185 207 144
189 210 157
183 205 133
184 206 137
183 205 125
180 201 122
177 200 99
174 198 102
177 200 76
173 197 88
177 200 92
172 196 67
173 196 67
175 199 84
170 193 51
173 197 92
174 198 84
174 198 95
175 198 80
174 198 92
176 199 76
172 197 80
173 197 84
171 196 72
172 196 62
177 200 92
171 194 80
175 198 62
174 197 57
172 195 67
171 195 67
174 197 51
170 195 62
175 199 88
173 196 67
174 197 72
174 197 72
173 197 80
172 195 62
171 195 80
170 195 76
172 196 67
172 196 62
173 196 62
174 197 67
175 199 72
173 197 84
173 196 72
171 195 80
171 195 76
169 193 51
171 195 84
172 195 72
170 194 57
173 196 72
174 197 67
174 198 80
170 193 72
174 198 95
172 195 72
175 198 72
173 197 88
172 196 84
172 196 76
170 194 62
170 192 60
170 194 65
163 187 100
158 182 111
140 165 124
119 145 143
109 136 169
96 125 165
103 132 174
100 128 171
96 125 164
108 135 163
102 130 171
103 132 169
105 132 167
91 121 164
109 136 173
103 131 172
107 135 170
100 127 164
103 131 166
100 128 178
89 119 167
95 123 173
89 117 160
88 117 165
89 119 168
92 121 161
81 113 171
90 120 174
90 119 178
81 112 167
75 108 172
76 109 175
87 117 180
94 122 181
75 108 173
88 118 178
68 103 172
77 109 173
80 111 175
79 110 177
76 108 178
83 114 176
65 101 172
78 110 167
68 102 170
79 110 174
65 100 166
68 102 166
71 105 170
64 100 169
64 99 167
62 97 162
65 99 155
61 97 161
68 102 164
62 97 159
62 97 156
62 98 163
62 98 161
60 96 158
63 98 156
62 97 163
59 95 155
63 98 156
61 97 158
62 98 163
61 97 160
61 97 159
61 97 163
61 97 159
61 97 160
61 97 158
61 97 160
62 99 169
61 97 164
60 96 156
61 97 159
61 97 154
61 97 161
61 97 157
61 97 156
62 97 160
61 97 154
59 95 151
62 98 159
61 97 158
61 97 155
62 98 164
61 97 151
62 98 166
61 97 151
62 98 160
61 97 156
62 98 158
62 98 158
61 97 150
61 97 153
62 98 159
61 97 155
61 96 148
60 96 145
61 97 155
62 98 156
63 98 166
61 97 152
61 97 150
61 98 164
62 98 153
62 98 157
62 98 157
61 97 156
62 98 159
63 99 162
62 98 154
62 97 151
62 98 158
62 97 151
62 98 163
61 96 143
61 96 144
62 98 158
61 97 151
62 98 160
61 96 152
62 97 152
61 97 150
62 98 154
61 96 148
61 97 156
61 97 151
62 98 152
62 98 158
61 97 156
62 97 152
60 95 144
60 95 144
61 97 152
61 97 151
61 97 151
61 96 139
61 96 155
61 97 152
61 96 150
62 97 155
61 96 149
60 96 144
62 98 153
61 96 147
61 97 145
61 96 136
61 95 139
61 96 145
61 96 144
60 96 151
62 97 152
61 96 145
60 96 143
60 95 139
60 96 147
61 96 140
61 96 147
61 96 145
61 96 140
61 97 145
62 97 149
61 96 144
61 96 148
60 94 133
60 95 142
60 95 135
60 95 140
61 96 148
61 96 140
60 95 144
60 95 137
61 96 140
60 95 139
61 95 143
59 94 132
60 95 141
60 95 136
59 93 126
60 94 138
60 94 136
58 92 113
59 92 134
58 92 124
69 98 116
81 100 94
92 108 68
107 116 44
126 135 18
126 136 0
111 118 0
111 119 0
120 128 0
112 118 0
113 120 0
110 116 0
98 103 0
114 119 0
107 111 0
100 104 0
116 125 0
106 110 0
119 126 0
109 113 0
108 114 0
103 105 0
113 119 0
102 104 0
108 110 0
122 128 0
103 108 0
118 123 0
119 122 0
98 98 0
110 113 0
113 116 0
112 115 0
104 107 0
109 112 0
121 124 0
106 109 0
108 107 0
112 114 0
110 112 0
105 107 0
111 112 0
119 120 0
112 112 0
110 110 0
109 109 0
120 122 0
99 99 0
113 116 0
112 113 0
112 116 0
112 112 0
109 109 0
115 114 0
126 124 0
125 128 0
123 122 0
107 106 0
116 111 0
106 108 0
122 125 0
121 122 0
123 123 0
121 124 0
127 127 0
130 131 0
125 127 0
126 130 0
121 124 0
119 119 0
126 128 0
127 130 0
130 132 0
138 140 0
133 137 0
121 122 0
135 137 0
136 138 0
128 127 0
137 140 11
141 146 11
138 144 0
142 148 0
143 149 0
138 144 0
141 146 0
142 148 0
144 152 0
143 151 0
140 146 0
153 160 0
147 155 0
149 156 0
145 152 0
145 155 0
148 159 0
151 158 0
140 148 0
148 155 0
148 155 0
152 164 0
155 166 0
156 165 0
146 157 0
152 163 0
152 163 0
164 176 0
155 167 0
159 169 0
150 163 0
158 171 0
156 169 0
159 173 0
163 176 0
159 174 0
160 174 0
158 171 0
159 174 0
162 176 0
158 174 0
163 179 0
156 171 0
159 173 0
164 180 0
163 180 0
160 175 0
156 170 0
160 176 0
163 178 0
160 176 0
161 178 0
161 177 0
163 179 0
161 178 0
160 177 0
162 179 0
164 181 0
164 180 0
163 182 0
156 172 0
162 178 0
165 183 0
164 181 0
166 183 0
185 206 140
186 208 144
182 204 122
183 205 135
184 206 142
181 203 125
182 204 122
181 203 114
173 196 95
178 202 95
179 201 105
179 201 92
176 199 62
171 195 80
177 200 80
176 198 72
172 196 84
171 194 62
175 199 80
172 196 62
173 198 72
174 198 92
175 198 67
170 194 80
173 198 76
175 199 72
176 199 72
171 194 51
174 197 88
174 197 80
175 199 80
172 196 72
170 193 57
174 198 88
175 199 76
173 196 80
173 197 76
172 196 76
173 195 76
171 195 67
177 199 76
174 198 80
175 198 76
170 193 57
172 196 72
175 198 88
170 194 57
171 195 80
173 198 76
173 196 72
173 196 62
173 198 67
171 194 67
172 197 80
172 195 72
175 199 88
166 190 36
171 195 67
170 194 72
172 195 62
170 193 72
173 196 76
173 196 76
170 193 67
172 196 72
170 194 62
172 196 88
171 195 76
173 197 88
163 186 90
148 172 103
145 169 115
134 159 140
118 144 149
96 126 171
102 131 176
95 125 162
101 129 178
86 116 166
94 123 168
106 134 176
99 127 167
93 122 167
95 124 166
107 133 163
96 125 173
102 130 165
97 125 167
104 131 169
95 123 171
93 122 159
108 134 160
98 127 176
87 116 172
81 113 168
91 121 175
87 117 167
87 116 174
86 116 171
88 118 169
85 115 178
87 117 176
85 116 173
84 114 170
76 108 177
77 109 170
65 101 174
80 111 175
69 104 174
75 108 167
73 106 176
70 103 167
65 101 174
75 107 174
70 104 169
78 110 172
68 102 168
66 101 162
75 107 158
67 101 163
67 102 164
60 96 153
71 104 164
62 98 154
61 97 162
63 98 159
61 97 163
64 99 156
61 97 158
60 95 148
61 97 164
64 99 156
60 96 158
63 99 162
61 97 159
61 97 157
60 96 158
61 97 163
60 96 154
61 97 165
60 96 157
61 97 153
60 96 153
62 97 154
61 97 158
62 99 171
61 97 153
61 97 161
61 96 150
61 97 153
61 97 157
62 97 152
61 97 155
62 99 165
61 96 154
61 97 151
61 97 158
61 97 152
62 98 157
62 98 156
61 97 153
62 98 155
62 97 158
60 96 152
62 98 158
62 98 163
62 98 160
62 98 159
61 97 154
60 96 153
62 98 160
62 98 160
62 97 152
61 96 155
61 97 149
61 96 153
62 98 157
60 96 152
61 96 149
61 97 153
61 97 153
61 97 155
62 98 157
61 97 155
62 97 153
62 98 158
60 96 153
61 97 152
62 97 143
62 98 159
61 97 157
61 97 150
63 98 159
61 97 149
60 96 149
61 96 145
60 96 149
61 96 147
62 97 155
61 96 148
62 98 158
61 96 147
62 97 154
61 96 152
61 96 147
61 97 151
61 96 148
62 97 153
62 97 153
62 97 152
61 96 142
62 97 154
61 96 145
61 96 145
61 96 147
61 96 148
61 96 142
61 97 143
61 96 144
62 98 154
61 97 147
61 96 147
60 95 145
60 95 141
60 95 135
59 94 137
61 96 145
60 94 139
60 95 141
61 96 141
61 96 144
61 96 147
62 97 155
62 97 148
61 96 148
59 93 131
60 95 140
60 95 139
61 96 144
60 94 136
61 96 138
61 95 140
60 95 137
60 95 142
60 95 143
60 94 136
60 94 126
60 95 137
59 93 133
59 93 136
59 93 131
60 95 126
59 92 116
60 93 133
60 95 133
59 92 133
64 94 119
82 105 102
103 115 62
115 122 36
116 122 0
112 122 0
112 119 0
120 128 0
117 127 0
125 134 0
113 118 0
116 124 0
114 120 0
107 112 0
111 115 0
117 122 0
120 128 0
106 109 0
122 128 0
115 123 0
101 103 0
119 126 0
120 126 0
113 117 0
112 115 0
112 117 0
110 113 0
117 124 0
111 113 0
113 116 0
113 115 0
111 113 0
116 118 0
102 104 0
102 105 0
118 122 0
112 115 0
108 109 0
108 111 0
108 108 0
117 118 0
105 106 0
90 89 0
105 105 0
116 116 0
112 113 0
117 117 0
120 120 0
103 99 0
121 122 0
104 102 0
112 113 0
111 111 0
109 109 0
112 114 0
116 115 0
127 129 0
118 116 0
112 110 0
124 124 0
116 115 0
114 114 0
124 127 0
115 116 0
111 109 11
123 123 0
128 129 0
127 130 0
119 119 0
141 145 11
133 137 11
133 135 11
133 135 0
129 132 0
133 135 0
131 134 0
141 146 0
138 144 0
138 142 0
134 137 0
132 135 0
137 141 0
147 154 0
145 152 0
139 145 0
138 143 0
146 153 0
152 161 0
150 156 0
147 154 0
151 160 0
150 156 0
149 157 0
145 155 0
145 150 0
150 159 0
148 158 0
151 160 0
155 164 0
146 156 0
152 160 0
153 165 0
159 170 0
153 163 0
155 169 0
157 166 0
149 160 0
160 170 0
155 166 0
152 164 0
151 165 0
158 170 0
160 174 0
160 174 0
154 168 0
151 163 0
159 172 0
156 170 0
162 176 0
156 171 0
154 169 0
157 169 0
157 171 0
159 175 0
159 175 0
160 176 0
164 180 0
166 183 0
163 181 0
162 175 0
158 173 0
160 177 0
167 185 0
166 184 0
168 186 0
163 178 0
165 185 0
161 178 0
164 181 0
166 184 0
165 181 0
164 181 0
170 186 0
168 185 0
187 208 151
184 206 133
181 203 137
181 204 122
177 200 92
176 200 105
177 199 72
176 199 92
180 202 102
177 200 84
174 198 76
173 197 51
172 195 72
172 196 72
173 197 44
174 198 99
173 197 57
173 197 80
174 197 62
172 196 67
171 194 57
174 198 88
174 197 67
176 199 88
173 197 76
173 196 67
173 197 76
174 197 84
172 196 80
174 198 76
173 197 72
172 195 67
173 197 84
171 195 84
172 196 62
168 191 67
174 198 92
173 197 76
172 195 76
173 196 76
172 196 62
173 196 57
171 194 62
170 193 72
175 199 76
173 196 72
172 195 84
172 196 76
170 195 67
172 197 92
171 195 76
172 195 62
171 195 51
170 193 80
172 195 51
171 195 67
169 193 62
171 194 88
172 196 62
171 195 72
170 194 67
171 195 62
168 192 72
171 195 80
172 195 57
168 191 67
171 195 88
173 196 88
167 191 95
168 192 95
153 177 111
156 180 121
144 169 126
130 156 149
114 141 175
98 127 163
107 135 176
94 124 174
90 120 168
100 129 169
105 132 166
95 125 160
111 138 163
104 132 159
93 123 162
100 127 154
110 136 159
100 128 153
95 124 157
93 122 168
91 121 166
101 129 170
101 128 161
90 120 172
88 118 175
89 118 167
89 119 174
90 119 171
83 114 172
93 123 177
93 122 175
85 116 179
81 112 177
81 112 171
74 107 174
84 115 180
67 102 172
71 104 173
70 104 168
71 104 169
65 101 174
71 105 173
82 113 177
77 109 175
70 104 174
74 106 171
72 104 162
71 105 171
68 102 164
67 101 165
65 100 158
71 105 167
68 102 163
62 98 162
64 100 171
61 97 158
61 96 157
60 96 161
60 96 155
61 97 157
61 96 156
60 96 152
61 96 163
61 97 162
61 96 156
61 96 155
64 99 162
60 95 150
62 97 161
61 97 154
60 95 154
61 96 157
60 96 159
62 98 164
62 97 155
61 97 158
60 96 153
62 98 159
61 97 160
61 97 155
61 97 151
61 97 163
61 97 156
61 97 157
61 97 155
60 96 154
61 97 157
62 98 162
61 97 152
62 98 157
63 98 161
61 96 149
62 98 162
60 96 152
62 97 156
61 97 160
61 97 153
61 96 149
61 97 152
63 99 161
62 98 164
60 96 147
61 96 145
61 97 155
61 97 152
61 97 157
62 97 154
61 96 151
61 96 153
61 96 143
62 97 151
61 97 155
62 98 154
61 96 154
61 97 153
62 98 160
62 97 153
59 95 140
61 96 151
61 97 149
61 96 153
63 98 162
62 98 154
61 96 147
61 97 154
60 95 142
62 97 153
61 97 152
61 97 151
61 96 149
62 97 152
62 98 151
61 97 153
61 97 151
62 97 143
61 97 148
62 97 149
60 95 147
61 96 143
61 96 147
62 97 151
62 97 153
61 97 150
62 97 154
61 96 149
60 96 140
59 94 140
61 96 144
61 96 142
62 97 150
62 98 152
60 95 141
59 94 141
60 95 140
62 97 144
62 97 147
61 97 148
60 95 141
62 97 148
61 96 144
60 96 141
61 96 145
60 95 141
60 94 134
60 95 140
60 96 142
60 95 141
59 94 133
58 93 133
60 95 135
61 96 142
61 95 144
59 93 131
59 94 130
59 93 126
60 95 140
60 94 137
60 95 131
58 92 128
59 93 133
60 93 136
58 91 120
59 92 124
58 91 128
59 94 124
57 90 124
78 101 101
99 115 78
112 125 57
107 116 25
121 131 0
120 130 0
110 120 0
126 132 0
126 134 0
120 129 0
118 124 0
116 121 0
105 112 0
105 112 0
121 127 0
125 133 0
124 130 0
111 115 0
120 126 0
115 119 0
109 113 0
107 113 0
104 109 0
112 116 0
109 113 0
121 123 0
109 115 0
103 110 0
110 112 0
110 114 0
103 105 0
111 116 0
100 103 0
116 120 0
106 109 0
95 98 0
109 113 0
125 128 0
111 115 0
114 117 0
112 112 0
105 107 0
113 114 0
118 121 0
112 114 0
102 104 0
117 123 0
120 120 0
114 113 0
118 122 0
117 119 0
118 118 0
119 118 0
120 122 0
115 117 0
123 126 0
124 125 0
114 114 0
120 119 0
126 128 0
117 116 0
125 126 0
128 130 11
124 126 0
121 120 0
137 140 0
136 139 0
124 125 0
134 139 0
133 137 0
130 134 0
134 137 0
126 130 0
132 137 0
126 131 0
137 142 0
137 142 0
139 144 0
148 153 0
138 141 0
137 143 0
140 147 0
138 146 0
147 154 0
149 153 0
141 147 0
140 144 0
147 153 0
144 151 0
146 152 0
153 162 0
151 161 0
144 151 0
146 155 0
145 152 0
152 164 0
148 154 0
154 164 0
147 158 0
159 170 0
149 156 0
152 162 0
151 161 0
154 165 0
152 166 0
153 166 0
164 179 0
160 171 0
158 174 0
157 169 0
156 170 0
161 173 0
152 165 0
154 170 0
154 167 0
157 169 0
155 170 0
162 175 0
155 171 0
153 168 0
159 172 0
153 169 0
158 175 0
155 170 0
165 181 0
166 180 0
156 171 0
162 177 0
159 176 0
165 182 0
162 179 0
163 181 0
165 181 0
165 183 0
165 182 0
166 183 0
164 183 0
160 178 0
165 182 0
163 181 0
166 182 0
163 182 0
165 182 0
167 185 0
182 204 122
182 204 130
181 202 111
181 203 95
181 203 111
175 198 108
174 198 88
177 200 95
177 200 84
175 198 84
171 195 51
175 198 84
172 196 67
172 195 51
174 199 92
175 199 72
172 196 99
172 196 67
174 198 80
173 197 84
172 196 84
172 196 67
172 196 67
172 195 80
170 194 57
174 197 62
174 197 67
174 197 62
176 199 80
173 197 80
174 197 51
171 194 67
174 197 67
172 195 72
171 195 80
172 197 80
172 196 67
171 195 72
171 195 72
175 199 88
171 194 72
172 194 62
171 195 62
171 196 95
172 196 62
171 194 51
173 197 67
170 194 62
170 195 62
172 196 72
172 196 80
172 196 51
172 196 80
172 196 84
169 193 62
167 191 44
169 192 62
169 193 57
165 188 80
168 191 80
171 194 84
170 194 57
171 194 62
169 193 76
171 194 62
173 197 62
170 194 62
173 197 72
174 197 86
169 193 72
157 181 97
154 178 108
139 163 129
120 145 140
104 132 166
99 127 165
103 131 179
104 133 171
95 124 164
104 131 167
93 122 167
100 128 171
87 117 164
100 128 161
91 121 176
100 128 155
105 133 156
112 139 170
99 127 171
100 128 167
98 126 165
103 131 164
86 117 165
93 122 173
103 130 171
104 131 176
94 123 173
88 118 184
96 125 177
86 117 174
97 125 177
91 121 177
82 113 173
79 111 179
75 108 172
82 113 172
84 114 172
76 108 174
76 108 170
74 107 168
65 101 172
70 104 169
76 108 172
67 102 170
67 101 161
62 98 166
74 107 172
64 99 162
62 99 171
61 97 156
65 100 159
69 102 163
67 101 159
63 98 162
69 102 159
65 98 157
61 96 157
61 95 147
63 97 155
66 100 158
60 96 154
62 96 147
61 97 157
64 100 165
61 97 157
60 96 155
62 98 163
62 98 164
65 100 157
62 97 164
62 98 159
61 97 159
61 97 163
61 96 157
61 97 156
61 97 154
60 96 152
62 97 161
61 97 150
60 96 147
60 96 154
61 97 160
62 97 160
60 96 150
61 97 148
61 97 154
61 97 157
60 96 157
62 97 154
61 96 152
61 97 153
61 96 153
61 97 156
62 97 157
61 96 154
61 96 150
61 96 145
61 96 158
60 95 145
62 98 162
61 96 155
62 98 162
62 98 160
62 98 157
62 97 154
62 97 153
62 98 154
62 97 154
61 96 148
60 96 149
60 95 147
61 97 151
62 97 148
61 97 153
61 97 154
60 95 147
61 97 152
62 98 155
62 98 157
62 97 153
62 97 151
61 96 153
61 97 148
61 97 151
60 96 143
62 98 158
60 96 149
62 98 157
62 97 149
61 97 152
60 95 144
62 97 152
62 97 150
62 97 155
61 96 150
61 96 149
61 97 155
62 97 154
61 96 143
61 96 144
60 95 140
62 97 149
62 98 154
61 96 142
62 97 151
61 96 151
61 96 145
61 96 147
62 98 155
61 96 143
60 95 141
62 97 155
58 93 131
61 96 145
61 96 148
61 96 143
61 96 145
61 96 140
61 96 150
60 95 134
60 94 136
61 96 137
60 95 131
60 95 139
59 94 133
60 95 137
60 95 139
62 97 152
62 97 142
60 95 134
60 95 142
60 94 135
60 95 129
60 94 141
60 94 131
59 93 125
59 92 124
60 94 135
61 95 148
60 94 136
60 94 139
60 94 126
57 90 117
60 94 126
58 91 124
65 92 107
86 107 100
103 117 74
115 124 40
117 127 25
106 111 0
124 131 0
117 125 0
114 121 0
116 124 0
122 133 0
119 126 0
120 128 0
112 121 0
109 116 0
118 127 0
118 123 0
125 133 0
117 124 0
124 130 0
113 117 0
108 114 0
109 114 0
128 135 0
124 127 0
112 119 0
111 120 0
118 123 0
118 122 0
107 109 0
112 117 0
102 104 0
118 122 0
109 115 0
117 117 0
116 116 0
114 117 0
117 121 0
116 118 0
119 123 0
114 117 0
117 118 0
116 120 0
109 111 0
113 116 0
106 107 0
129 132 0
107 108 0
115 116 0
117 118 0
111 113 0
113 117 0
114 117 0
113 114 0
119 118 0
112 113 0
106 107 0
116 120 0
120 122 0
113 113 0
125 127 0
109 109 0
120 122 0
113 112 0
126 129 0
118 120 0
127 132 0
123 125 0
136 140 0
135 138 0
133 138 0
133 138 0
125 128 0
121 121 0
142 148 0
143 148 0
138 141 0
140 145 0
139 145 0
137 144 0
143 149 0
143 148 0
140 149 0
138 144 0
148 157 0
144 152 0
142 149 0
146 154 0
144 151 0
141 151 0
154 163 0
150 161 0
150 160 0
147 154 0
147 155 0
153 163 0
139 145 0
151 162 0
153 162 0
154 163 0
155 167 0
148 153 0
159 171 0
153 165 0
152 163 0
149 161 0
160 174 0
156 169 0
153 162 0
158 171 0
160 172 0
158 172 0
159 173 0
158 171 0
154 167 0
160 174 0
163 176 0
162 176 0
160 175 0
164 180 0
156 170 0
159 174 0
162 177 0
158 171 0
158 171 0
156 169 0
160 175 0
162 177 0
158 172 0
163 181 0
162 179 0
165 182 0
164 182 0
161 175 0
157 170 0
164 182 0
164 181 0
165 183 0
164 181 0
164 182 0
163 179 0
162 180 0
165 183 0
166 184 0
168 187 0
180 202 102
180 203 114
177 201 102
177 200 80
172 196 67
175 197 80
177 199 72
169 193 67
174 197 80
175 199 76
174 198 72
173 196 76
174 197 80
171 195 88
174 198 67
174 197 62
175 197 51
174 196 44
174 197 80
172 195 84
171 195 57
172 195 76
170 194 62
174 197 36
170 194 51
173 197 99
175 197 62
172 196 76
172 196 84
172 196 67
170 194 76
171 195 72
172 196 51
169 193 62
169 193 76
171 195 92
173 197 80
170 194 67
170 194 67
171 194 51
169 193 67
175 200 102
172 195 51
172 197 57
172 196 76
174 197 62
171 194 80
169 193 80
173 198 67
171 195 44
171 195 57
169 192 62
169 194 84
172 195 80
169 194 80
173 197 67
173 196 67
170 193 67
167 192 62
171 195 76
171 193 51
170 194 67
169 193 67
172 195 88
165 189 51
172 195 76
172 195 72
172 195 80
166 189 51
170 193 78
164 187 94
153 177 124
137 162 120
127 153 135
107 135 157
107 134 165
101 129 171
97 126 169
103 131 180
85 115 164
102 130 175
86 116 160
97 126 167
100 128 170
91 121 170
95 123 157
92 121 172
98 126 158
97 126 168
93 123 170
96 124 166
93 121 171
94 122 163
96 125 160
83 113 162
89 118 153
88 119 167
90 119 169
96 124 176
85 115 167
87 117 169
81 113 172
84 115 164
77 109 162
83 114 175
86 116 170
76 108 174
75 107 168
71 105 166
74 107 171
74 107 168
82 112 163
70 104 167
77 109 176
62 98 167
77 109 175
74 107 170
73 105 167
74 106 164
61 97 159
65 100 163
61 96 159
64 100 164
67 100 157
71 104 156
68 102 162
69 102 150
62 97 156
60 96 148
61 97 156
63 97 151
60 95 156
60 95 155
64 100 167
63 98 158
61 96 157
61 97 160
62 97 158
62 98 159
62 98 163
65 100 160
62 97 161
62 97 154
61 97 160
61 96 156
62 98 154
62 97 163
62 98 158
61 97 158
61 97 154
61 97 157
62 98 164
61 96 156
61 96 151
62 98 156
62 98 156
61 97 156
61 97 154
62 97 154
61 97 152
61 96 148
61 96 152
62 98 157
62 97 157
61 97 154
61 96 152
61 97 157
61 97 150
62 98 156
62 97 153
61 96 149
61 97 153
61 96 145
62 97 158
62 97 159
62 97 159
61 96 148
61 97 155
61 96 144
61 96 153
60 95 142
62 98 158
61 96 151
62 97 151
61 97 149
62 97 155
62 97 153
62 97 155
62 98 151
60 96 145
62 97 155
61 97 150
62 98 158
62 98 158
60 96 145
61 96 149
62 97 154
61 96 144
61 96 153
61 96 147
62 98 159
62 98 156
61 97 149
62 97 151
60 95 143
61 96 145
61 97 152
60 95 140
61 96 148
62 97 150
61 96 143
61 96 139
61 96 155
61 97 153
62 97 157
61 97 147
61 96 140
61 96 140
60 96 145
61 97 147
62 97 148
61 96 148
61 96 143
60 95 142
61 96 136
61 97 145
60 95 131
62 97 153
60 94 142
60 96 142
60 95 142
61 95 140
62 97 154
61 96 139
61 96 135
59 94 133
60 94 137
60 95 142
59 93 125
60 95 133
59 94 137
60 95 144
60 95 146
59 94 128
60 95 136
61 95 149
58 92 117
60 95 141
60 94 138
59 93 134
59 93 120
58 92 133
60 94 137
59 93 129
58 91 126
78 104 109
90 109 79
109 123 47
121 135 25
115 124 0
121 132 0
116 122 0
114 123 0
121 130 0
116 126 0
121 128 0
120 129 0
120 127 0
119 128 0
115 122 0
117 125 0
117 125 0
119 127 0
114 123 0
115 125 0
117 120 0
117 126 0
116 120 0
107 112 0
120 125 0
111 119 0
104 107 0
107 111 0
120 125 0
103 108 0
122 128 0
121 126 0
116 121 0
107 112 0
127 136 0
111 117 0
124 130 0
116 119 0
114 115 0
121 125 0
121 124 0
113 116 0
114 116 0
113 116 0
123 128 0
121 124 0
120 121 0
122 124 0
124 128 0
113 114 0
116 117 0
120 120 0
116 120 0
109 110 0
120 122 0
117 120 0
119 123 0
119 121 0
128 132 0
118 120 0
125 126 0
143 149 0
126 130 0
124 126 0
138 140 0
124 130 0
133 137 0
125 127 0
134 136 0
133 134 0
132 135 0
136 141 0
131 137 0
133 140 0
144 149 0
138 142 0
145 151 0
135 141 0
138 142 0
135 138 0
146 151 0
140 146 0
132 137 0
138 145 0
136 144 0
140 145 0
148 156 0
138 147 0
152 161 0
149 158 0
149 159 0
140 147 0
150 158 0
144 153 0
151 160 0
153 164 0
142 149 0
160 173 0
146 151 0
155 168 0
157 170 0
151 159 0
151 163 0
154 165 0
154 165 0
154 162 0
157 170 0
153 163 0
151 162 0
162 174 0
156 168 0
153 166 0
155 167 0
158 172 0
153 165 0
159 173 0
152 166 0
157 170 0
157 167 0
158 173 0
159 174 0
152 166 0
156 170 0
157 172 0
166 182 0
159 173 0
160 176 0
163 179 0
160 173 0
160 176 0
166 183 0
161 176 0
165 183 0
163 179 0
160 176 0
161 177 0
167 184 0
163 179 0
161 180 0
168 186 0
164 180 0
162 179 0
166 184 0
166 185 0
165 184 0
181 204 111
177 200 92
175 198 92
176 199 88
176 199 72
174 198 84
178 201 92
172 195 62
177 200 84
176 199 62
172 196 57
176 199 80
172 197 76
174 198 80
176 200 80
171 195 80
173 197 76
174 198 72
173 196 67
173 197 92
174 198 88
174 197 67
173 197 84
171 193 44
171 196 80
172 195 67
176 199 76
174 199 88
170 195 67
168 191 62
170 194 76
174 198 72
172 196 76
174 197 76
176 200 88
173 196 84
172 196 88
172 196 72
172 195 67
172 196 72
172 196 95
172 196 76
169 193 57
170 193 76
169 193 67
172 196 76
173 197 76
171 194 62
170 193 72
174 197 76
172 196 80
171 195 88
170 193 57
171 195 76
173 196 67
170 194 67
170 194 44
168 191 51
173 197 76
166 189 72
172 196 88
169 193 92
169 192 80
171 195 88
171 195 84
167 190 62
167 191 62
167 191 67
171 193 84
173 197 84
164 187 99
160 184 108
146 170 129
128 152 139
125 151 151
101 129 165
85 117 166
95 125 163
106 134 175
87 117 161
85 116 166
96 124 167
104 132 166
89 119 172
111 137 168
99 127 167
102 130 164
89 118 166
97 125 168
99 127 169
98 127 176
88 117 163
114 140 161
90 119 167
93 122 170
105 132 163
86 116 164
88 118 163
90 120 172
90 119 170
86 116 168
79 111 163
82 113 172
79 111 167
81 112 176
88 118 176
78 110 172
85 115 171
74 107 177
79 110 171
77 109 172
74 106 172
76 108 175
77 109 178
71 105 171
67 102 172
69 103 173
71 105 164
64 98 155
68 103 167
65 100 170
65 100 164
63 98 158
61 97 160
76 108 166
61 97 161
65 100 163
61 96 167
62 97 161
62 98 159
64 98 160
61 96 153
66 100 150
63 99 162
61 96 158
65 100 158
64 99 163
61 97 158
61 97 161
61 97 157
61 97 156
61 97 155
60 95 145
61 97 151
61 97 157
61 97 156
62 98 155
61 97 155
62 98 157
61 97 154
60 95 147
61 97 156
61 97 158
62 98 158
61 97 155
61 97 160
61 96 152
61 97 153
61 97 148
62 98 159
62 98 158
61 97 157
61 97 154
62 98 159
61 96 147
61 96 144
63 99 166
61 97 150
61 97 154
60 95 150
61 96 142
61 97 147
60 96 145
62 97 154
62 98 155
62 98 160
61 97 154
61 97 151
61 97 151
61 96 147
62 97 152
61 97 160
61 96 149
61 97 159
61 97 154
62 98 155
61 97 147
62 97 145
61 96 143
62 98 158
61 96 145
61 97 153
62 97 151
61 96 145
62 97 151
61 97 154
61 96 147
60 95 144
62 98 154
61 96 148
61 96 149
62 97 154
61 97 145
61 96 149
61 97 151
62 97 148
61 96 143
61 96 148
61 96 144
62 97 150
62 97 147
61 96 149
61 97 147
60 95 147
60 96 142
61 97 145
61 95 145
60 95 142
60 95 142
61 97 148
62 98 155
60 96 149
61 97 149
61 96 142
62 97 149
61 96 140
59 94 140
60 95 135
61 97 143
62 98 154
61 96 141
60 94 139
61 96 142
61 96 139
61 96 143
60 95 140
59 92 130
58 92 125
60 95 139
59 94 133
61 96 139
60 95 141
60 95 139
60 95 139
60 95 136
60 94 139
60 95 140
60 95 130
58 92 123
60 94 134
56 89 122
60 95 136
59 93 120
59 93 133
67 95 117
74 99 99
110 128 65
101 112 47
109 117 18
125 135 0
117 126 0
113 122 0
112 121 0
118 125 0
118 128 0
118 126 0
120 129 0
124 133 0
125 134 0
118 121 0
109 116 0
120 127 0
113 118 0
123 133 0
124 132 0
118 126 0
126 133 0
119 124 0
95 102 0
114 118 0
112 118 0
124 132 0
116 120 0
122 128 0
118 123 0
109 113 0
114 120 0
111 112 0
118 124 0
115 120 0
107 112 0
120 125 0
119 121 0
111 112 0
122 126 0
114 118 0
115 121 0
116 119 0
118 120 0
120 127 0
120 123 0
125 129 0
112 116 0
122 127 0
126 129 0
132 135 0
116 118 0
123 127 0
118 119 0
115 116 0
126 127 0
117 117 0
124 129 0
126 129 0
118 120 0
123 128 0
130 135 0
126 128 0
129 132 0
126 132 0
129 133 0
124 125 0
128 132 0
130 135 0
136 142 0
133 135 0
126 128 0
133 136 0
141 148 0
124 130 0
139 147 0
140 146 0
138 143 0
135 141 0
142 148 0
145 150 0
140 142 0
138 144 0
142 149 0
143 148 0
149 157 0
139 146 0
148 154 0
145 153 0
141 146 0
153 162 0
152 162 0
147 153 0
148 155 0
145 154 0
155 166 0
150 161 0
158 168 0
157 168 0
149 159 0
157 171 0
149 160 0
148 157 0
158 169 0
154 165 0
157 167 0
153 165 0
159 172 0
157 169 0
159 174 0
158 171 0
154 168 0
157 172 0
158 172 0
157 172 0
163 177 0
163 178 0
163 177 0
157 170 0
151 164 0
161 175 0
160 176 0
161 176 0
155 169 0
163 177 0
162 179 0
155 172 0
159 175 0
162 178 0
162 179 0
163 179 0
164 181 0
162 177 0
162 181 0
157 170 0
162 181 0
161 177 0
165 184 0
163 180 0
163 179 0
162 177 0
158 176 0
165 186 0
169 188 0
165 185 0
178 200 92
175 198 76
174 198 72
171 195 67
174 197 67
175 199 62
175 198 67
174 198 62
174 199 95
175 199 80
174 198 84
172 195 67
174 198 80
172 197 84
173 197 51
174 197 62
171 195 67
171 195 80
171 196 80
172 196 67
171 194 51
173 197 80
174 197 84
171 195 62
173 197 80
170 193 36
173 197 88
172 196 67
171 195 76
171 195 72
170 194 92
173 197 67
173 198 76
171 195 72
173 198 80
171 194 80
172 197 76
169 192 72
170 194 67
171 196 84
172 196 80
172 195 84
169 192 51
172 195 80
172 195 62
172 196 62
171 194 80
168 192 76
167 191 80
168 192 44
168 191 62
172 196 76
170 194 62
171 194 72
171 195 84
171 194 88
172 196 80
170 194 72
173 196 95
172 195 76
175 200 88
168 192 67
173 196 95
172 195 51
174 198 80
168 192 36
166 189 62
165 189 72
168 191 51
165 188 62
171 195 67
163 186 102
157 181 124
149 173 129
127 153 148
118 145 168
91 121 167
97 127 169
96 125 175
91 121 173
92 122 172
95 123 158
94 124 168
92 121 169
100 128 158
77 110 168
101 129 175
89 119 160
103 131 165
93 122 159
99 127 164
111 137 175
97 125 161
89 119 165
93 122 167
94 124 167
92 121 168
90 119 167
88 117 174
100 127 174
91 120 169
90 120 169
89 119 166
83 114 170
84 115 171
84 115 178
79 110 168
77 109 173
74 108 173
88 118 177
73 106 172
65 101 170
68 102 171
74 106 171
74 106 169
71 105 170
65 100 169
73 105 168
65 100 170
63 99 163
62 98 164
69 103 160
68 102 168
72 104 157
69 103 165
68 102 161
63 97 160
60 96 159
61 96 154
62 98 161
62 97 156
64 99 158
60 95 154
62 96 154
63 98 152
62 98 161
61 97 154
61 96 150
60 95 149
61 96 150
63 98 151
62 97 158
62 97 157
61 97 152
61 97 154
61 97 154
60 95 148
61 96 148
62 98 164
61 96 152
60 95 147
61 97 155
60 96 143
61 97 150
62 97 153
62 97 152
62 98 162
61 97 150
61 97 153
62 97 149
61 96 143
61 97 154
61 96 144
62 97 154
62 97 150
62 98 162
61 97 149
61 96 154
63 99 164
62 97 162
62 98 155
61 97 159
62 98 155
61 97 154
62 97 157
60 95 141
61 96 150
62 97 156
62 98 160
61 97 152
61 97 150
61 96 148
62 98 155
62 97 156
62 98 160
62 97 151
61 96 148
61 97 153
61 97 155
61 96 149
60 96 144
61 96 147
60 95 143
61 97 152
60 95 148
60 96 143
61 97 144
61 97 144
62 98 159
59 93 135
59 94 140
61 96 149
60 95 136
60 95 144
62 97 151
61 96 149
61 97 147
60 95 139
60 95 144
61 96 147
61 96 144
61 96 143
61 96 149
60 95 143
62 97 149
61 96 142
60 96 147
61 97 149
61 97 152
60 95 142
61 96 148
60 94 133
60 95 142
61 97 148
60 94 134
60 95 141
60 95 141
60 96 145
61 96 143
61 96 147
60 94 137
59 94 139
60 95 136
61 96 142
60 94 145
60 95 131
60 94 135
60 94 129
61 95 137
59 94 130
61 95 143
60 95 130
59 94 130
60 95 141
60 94 131
59 93 133
60 94 141
59 94 128
58 93 121
58 92 118
59 93 126
60 94 131
58 92 124
60 92 124
72 98 112
84 104 96
106 119 65
114 126 31
121 131 0
116 127 0
116 125 0
122 130 0
120 128 0
124 133 0
117 125 0
117 126 0
119 128 0
122 129 0
118 124 0
114 122 0
121 128 0
121 128 0
117 124 0
115 122 0
117 122 0
116 122 0
118 125 0
120 129 0
119 128 0
107 112 0
113 118 0
113 119 0
116 123 0
116 123 0
119 126 0
117 122 0
124 131 0
111 115 0
116 120 0
124 130 0
123 130 0
119 123 0
113 117 0
117 122 0
110 116 0
118 121 0
116 120 0
116 118 0
126 134 0
122 127 0
128 134 0
113 116 0
125 129 0
125 129 0
124 128 0
127 131 0
120 122 0
121 124 0
123 127 0
130 135 0
130 136 0
131 136 0
118 120 0
128 131 0
122 128 0
131 136 0
136 141 0
131 137 0
126 128 0
136 141 0
130 135 0
132 136 0
133 139 0
140 146 0
138 144 0
139 142 0
132 137 0
137 142 0
137 145 0
145 154 0
140 148 0
137 141 0
143 149 0
150 154 0
138 142 0
147 154 0
134 139 0
141 149 0
148 157 0
133 137 0
143 151 0
144 150 0
148 157 0
142 148 0
141 149 0
146 154 0
145 153 0
150 161 0
152 161 0
149 157 0
152 161 0
147 156 0
149 160 0
148 158 0
158 168 0
155 165 0
159 170 0
151 162 0
153 163 0
147 159 0
154 164 0
159 170 0
156 168 0
159 172 0
160 175 0
156 168 0
156 170 0
155 168 0
159 173 0
153 166 0
161 176 0
161 175 0
158 170 0
158 172 0
167 182 0
158 173 0
160 176 0
161 177 0
161 176 0
165 180 0
162 177 0
163 180 0
165 184 0
161 177 0
162 176 0
161 177 0
161 176 0
162 177 0
166 182 0
164 181 0
165 183 0
164 182 0
166 184 0
160 178 0
162 179 0
165 182 0
164 181 0
161 179 0
167 186 0
165 183 0
174 197 105
173 197 62
175 198 67
172 196 92
173 196 72
172 195 57
175 199 88
173 197 84
176 199 76
175 199 80
175 198 72
173 197 84
171 194 72
170 193 72
171 194 80
175 199 95
175 199 72
174 197 62
173 197 72
171 195 80
175 199 67
174 198 76
173 197 76
172 197 67
171 195 72
174 197 62
171 195 76
175 198 57
173 197 62
171 195 80
170 194 76
169 193 67
169 192 62
173 196 84
172 195 62
171 195 76
171 195 76
172 196 67
165 189 67
173 197 72
169 193 72
172 196 62
171 196 62
169 193 76
171 194 76
173 197 72
171 195 76
171 195 84
169 194 88
171 194 57
170 194 88
171 195 76
167 190 67
174 197 51
169 194 84
169 193 88
171 195 80
169 192 62
169 193 80
167 191 57
172 196 57
171 195 62
171 194 76
165 189 76
170 193 92
171 195 80
168 191 36
166 189 44
169 193 67
163 187 72
167 191 70
163 187 90
156 180 107
146 170 128
131 155 125
109 137 157
104 132 162
91 121 174
95 124 170
90 120 167
103 131 168
98 127 169
98 127 170
88 118 168
83 114 160
93 122 163
101 128 167
110 137 159
110 135 172
93 122 165
95 124 168
95 123 157
93 121 163
99 127 166
89 119 161
106 133 164
96 124 161
98 126 168
98 126 156
91 120 164
90 119 170
95 123 154
81 111 169
76 108 162
98 125 170
90 119 172
75 107 165
71 105 159
87 117 178
76 108 171
76 108 169
79 111 177
71 104 167
78 110 175
68 102 169
74 107 173
73 106 167
66 100 159
65 100 164
68 102 163
71 104 159
70 103 159
64 99 161
68 101 150
68 101 163
66 100 156
62 98 166
64 99 158
64 98 150
65 100 158
64 98 149
63 98 152
64 99 158
66 101 158
61 97 156
60 96 155
61 96 160
60 96 154
62 98 157
62 98 164
61 97 155
61 97 155
59 94 141
61 96 146
61 97 158
61 96 149
61 96 153
61 96 150
61 97 149
62 97 155
61 96 151
61 97 153
61 97 156
61 97 159
61 97 162
61 97 151
62 97 156
61 96 148
62 98 155
60 95 139
62 97 155
61 97 152
61 96 154
61 96 154
60 95 140
61 96 141
61 96 151
62 97 154
60 95 145
62 98 157
62 98 154
61 97 153
62 98 159
62 97 154
62 97 149
61 97 151
61 96 149
62 98 152
62 97 151
62 98 154
61 97 153
62 98 154
62 97 152
61 97 150
61 97 154
62 97 154
60 95 147
62 97 154
62 97 154
61 96 151
61 97 147
59 94 141
61 97 150
61 96 148
60 95 137
62 97 150
61 96 144
61 96 144
62 98 153
62 97 156
60 95 144
61 97 147
62 98 155
61 96 143
61 97 153
61 96 148
61 96 143
61 97 148
62 97 152
61 96 145
62 98 153
61 96 151
60 96 144
60 95 136
62 97 150
62 97 149
62 97 151
61 96 141
60 95 144
59 94 136
61 96 140
60 96 140
60 95 135
61 95 142
61 96 141
59 94 134
61 96 143
61 97 145
60 95 137
62 97 149
61 95 135
59 94 136
61 96 136
60 95 142
60 95 135
61 96 140
59 93 130
58 92 124
58 92 125
59 93 136
59 93 130
58 92 126
59 93 128
60 95 142
59 93 115
59 93 133
59 92 122
61 95 142
61 95 138
59 93 121
59 93 121
57 91 117
59 92 123
71 100 115
83 106 100
109 124 63
105 120 47
117 129 18
116 127 0
127 137 0
124 134 0
113 122 0
120 130 0
122 132 0
119 129 0
125 136 0
125 132 0
111 119 0
113 123 0
113 120 0
116 127 0
120 125 0
119 130 0
118 126 0
112 119 0
112 117 0
104 112 0
118 127 0
110 118 0
128 136 0
129 137 0
129 138 0
121 128 0
122 129 0
117 123 0
120 124 0
129 135 0
113 120 0
125 130 0
116 122 0
123 128 0
117 120 0
115 121 0
120 125 0
118 121 0
117 123 0
119 125 0
122 126 0
124 128 0
128 135 0
121 123 0
125 132 0
119 123 0
115 120 0
124 126 0
124 126 0
121 125 0
121 126 0
118 121 0
133 138 0
126 132 0
128 135 0
130 135 0
133 136 0
136 142 0
135 139 0
133 139 0
140 147 0
125 126 0
137 141 0
128 133 0
135 140 0
132 139 0
131 132 0
140 145 0
139 146 0
137 140 0
135 142 0
135 144 0
139 145 0
142 147 0
130 135 0
144 152 0
137 144 0
130 135 0
147 157 0
141 146 0
149 156 0
147 153 0
142 147 0
147 156 0
148 156 0
153 161 0
146 155 0
148 155 0
147 158 0
151 161 0
147 153 0
148 158 0
149 157 0
150 161 0
150 160 0
151 164 0
147 156 0
158 170 0
153 162 0
157 169 0
157 171 0
153 163 0
158 171 0
156 166 0
162 177 0
152 164 0
155 170 0
160 174 0
158 170 0
157 171 0
157 170 0
156 172 0
159 175 0
158 172 0
160 174 0
164 180 0
162 178 0
159 174 0
165 180 0
165 181 0
164 179 0
163 178 0
161 175 0
158 174 0
163 181 0
158 173 0
161 176 0
162 179 0
157 174 0
160 176 0
161 179 0
163 181 0
161 178 0
163 181 0
163 178 0
160 178 0
164 181 0
165 184 0
165 184 0
163 181 0
163 181 0
162 178 0
164 182 0
175 198 84
175 198 95
172 195 51
176 200 88
174 197 62
177 200 67
172 196 80
174 198 80
173 196 67
173 196 67
174 198 88
173 196 72
168 192 80
176 199 76
174 198 62
170 194 80
173 197 95
174 198 88
172 196 72
170 195 76
171 195 62
172 196 57
173 196 72
174 198 76
173 197 80
171 194 51
172 196 76
169 193 76
174 196 67
174 198 84
170 193 80
169 193 92
169 193 72
172 195 62
171 195 76
168 193 67
172 197 80
169 193 67
172 196 72
170 193 67
173 196 88
170 194 80
169 193 67
172 196 72
171 195 62
173 197 84
168 192 57
172 196 62
169 192 72
171 195 67
169 192 72
172 196 102
169 192 76
170 193 80
172 195 57
168 192 72
172 196 99
170 193 62
167 191 76
168 192 51
171 194 51
170 193 62
170 194 62
169 192 67
169 191 57
165 189 76
168 191 84
169 193 76
172 195 80
171 194 88
161 186 62
165 188 80
163 187 67
154 179 111
139 164 118
120 146 144
109 136 158
96 125 169
100 128 161
91 121 169
88 118 164
92 122 175
89 119 161
93 123 173
91 121 167
95 124 166
92 121 168
99 126 162
102 130 165
102 129 156
100 128 163
80 111 160
96 124 168
92 121 156
99 127 164
100 129 162
93 122 157
95 123 168
87 116 162
113 138 164
96 124 175
87 115 159
83 113 176
88 118 171
92 120 160
102 129 181
83 114 170
81 112 163
92 121 181
87 117 170
77 109 171
78 109 171
72 105 169
84 114 172
80 111 168
66 101 162
66 101 171
76 107 166
70 103 166
78 109 172
74 106 168
60 97 162
71 105 167
65 100 157
60 96 154
62 98 158
61 97 159
63 98 160
62 97 155
59 94 147
61 96 154
62 98 163
60 95 158
60 96 148
63 98 158
60 95 153
65 100 157
62 97 159
61 97 159
61 97 157
61 96 153
64 99 154
60 95 149
62 97 150
60 95 147
61 97 153
62 98 156
62 97 153
61 97 150
62 97 155
61 97 157
62 98 154
60 95 141
62 98 157
61 97 159
61 96 145
60 95 151
62 97 153
62 98 160
62 97 154
61 96 149
61 96 149
60 96 147
62 97 153
61 97 149
61 97 150
60 95 142
63 99 162
61 97 154
61 97 151
60 96 150
61 97 151
62 97 152
61 96 149
62 98 155
61 97 151
61 96 144
62 97 150
61 96 148
61 97 150
61 97 150
60 95 147
60 96 148
61 97 148
60 96 149
62 98 158
62 98 151
61 96 153
61 96 149
60 95 137
61 96 144
61 96 149
61 96 143
63 99 156
60 95 147
61 96 144
60 96 147
61 96 150
60 94 137
62 98 153
61 96 149
60 95 139
60 94 136
62 98 156
61 96 149
61 97 150
62 97 152
60 95 134
62 97 145
61 96 141
60 96 142
60 95 140
59 94 135
61 96 147
61 95 144
60 95 147
61 97 143
60 95 141
60 95 130
61 96 147
61 96 140
60 95 142
61 96 147
60 94 135
60 95 134
62 97 147
59 94 137
60 95 136
61 96 145
61 96 139
60 95 135
61 96 139
61 96 143
60 94 135
61 96 145
61 96 135
60 94 135
61 95 143
60 94 134
60 94 136
59 94 133
61 96 138
58 92 126
59 93 129
59 93 135
58 93 118
59 94 125
60 94 136
59 93 136
58 92 121
59 92 131
59 92 121
60 92 116
66 93 101
90 108 89
109 123 65
104 116 36
118 129 0
116 124 0
117 127 0
121 133 0
115 125 0
113 121 0
116 124 0
118 128 0
124 133 0
122 132 0
120 128 0
121 130 0
124 133 0
121 131 0
120 129 0
124 135 0
128 135 0
126 136 0
120 127 0
114 119 0
118 126 0
120 129 0
124 132 0
117 124 0
112 122 0
120 127 0
120 128 0
121 129 0
108 113 0
107 115 0
124 130 0
127 131 0
115 124 0
126 132 0
116 122 0
124 131 0
115 121 0
133 139 0
119 125 0
116 120 0
122 128 0
129 137 0
113 116 0
131 138 0
132 138 0
125 132 0
126 128 0
113 116 0
134 138 0
128 132 0
123 128 0
130 134 0
123 127 0
121 121 0
130 134 0
131 135 0
127 133 0
134 139 0
130 137 0
126 130 0
127 131 0
130 132 0
129 137 0
140 143 0
130 133 0
134 143 0
145 152 0
132 137 0
133 137 0
138 144 0
135 142 0
135 141 0
139 144 0
143 148 0
140 146 0
134 138 0
142 150 0
141 148 0
149 159 0
135 142 0
132 139 0
143 152 0
141 149 0
151 159 0
152 160 0
143 150 0
148 157 0
152 162 0
153 166 0
153 165 0
144 153 0
150 162 0
151 162 0
150 161 0
146 158 0
156 166 0
157 167 0
151 159 0
150 161 0
159 170 0
148 157 0
161 174 0
156 169 0
152 164 0
159 169 0
158 168 0
159 173 0
154 167 0
153 164 0
157 173 0
160 174 0
158 171 0
150 163 0
157 171 0
149 161 0
157 173 0
156 171 0
156 172 0
161 175 0
159 175 0
162 179 0
162 178 0
165 182 0
157 172 0
163 180 0
162 176 0
163 181 0
164 181 0
158 173 0
165 182 0
164 181 0
161 176 0
165 183 0
164 180 0
165 182 0
162 177 0
164 182 0
167 184 0
162 182 0
169 187 0
168 186 0
164 181 0
165 182 0
170 195 76
174 198 84
171 194 57
174 197 84
170 194 51
173 196 57
174 197 80
172 195 62
171 194 62
172 196 57
174 197 95
177 201 95
174 197 67
175 199 72
171 195 44
172 196 67
173 196 62
176 199 76
173 196 67
174 198 76
174 198 95
168 192 76
170 193 67
173 197 67
171 195 67
172 196 76
174 198 72
173 197 51
172 195 51
173 197 84
169 193 76
171 195 67
172 196 95
172 195 84
169 194 67
173 197 57
171 194 62
171 194 72
171 195 62
167 191 62
173 198 102
172 195 72
170 192 57
172 197 105
166 190 67
169 193 72
169 193 67
173 197 80
173 198 95
169 192 67
167 190 62
171 195 72
171 195 95
173 198 88
172 197 99
173 197 62
173 196 62
169 193 62
163 186 51
172 195 76
171 196 72
170 193 57
169 192 57
167 190 80
168 193 95
167 189 76
169 194 62
168 192 72
170 193 67
172 195 72
169 193 44
172 195 72
166 190 67
152 176 90
143 167 113
128 153 128
107 133 146
106 134 172
91 122 170
87 118 169
91 120 164
93 123 171
95 124 164
89 118 158
103 130 168
95 123 167
100 129 170
95 123 160
100 127 147
96 125 167
98 127 170
93 122 154
91 120 150
97 125 159
95 124 159
98 126 163
108 135 173
89 118 162
101 127 170
93 122 163
87 118 166
93 122 167
92 121 170
96 124 168
80 110 158
90 120 161
79 111 169
90 119 175
89 118 176
83 113 171
86 116 161
82 113 172
77 109 169
79 110 166
80 111 169
69 103 165
79 110 174
70 103 161
63 98 154
69 102 161
71 104 167
63 98 160
62 98 166
64 98 161
64 98 158
66 100 161
62 96 149
61 96 154
62 97 150
66 100 154
60 95 152
63 98 156
62 97 158
64 99 159
65 99 151
64 99 160
62 98 166
61 97 156
61 96 154
61 96 157
61 97 152
60 96 149
60 94 141
61 96 151
62 98 161
61 96 156
60 95 147
61 97 155
60 95 155
62 98 159
60 95 149
61 97 154
61 96 145
61 97 151
60 96 148
62 98 159
61 97 153
60 96 143
62 98 157
61 96 149
60 95 148
62 97 148
60 96 148
62 98 159
60 96 141
62 98 157
60 95 145
61 96 151
63 98 158
62 98 155
62 98 151
60 95 144
62 98 153
60 96 143
62 98 155
61 96 147
60 96 149
62 97 151
61 97 151
62 97 151
62 97 150
62 98 158
61 96 147
61 97 151
61 97 144
61 96 152
62 97 150
62 98 158
61 97 145
61 96 148
61 96 151
61 96 140
61 97 156
62 97 149
61 96 144
61 96 145
60 95 139
61 96 149
60 95 147
62 97 155
60 94 137
60 96 147
61 97 145
61 96 147
60 95 147
60 95 139
61 96 147
61 96 144
61 95 142
61 96 139
60 96 140
61 96 143
61 96 152
61 96 142
62 97 150
61 96 142
60 95 142
59 94 130
61 96 140
61 96 141
61 96 139
60 95 141
60 95 139
62 96 141
59 94 133
60 95 135
61 96 142
60 94 136
62 97 148
60 95 131
59 94 134
61 95 139
60 95 139
61 95 134
57 92 122
61 96 143
60 95 140
62 96 142
60 95 140
61 96 139
59 94 136
59 93 133
60 94 126
58 93 128
59 94 135
59 93 125
61 96 141
57 90 121
58 91 121
58 91 117
57 91 113
59 93 130
67 96 107
80 103 107
107 123 54
111 121 40
121 133 0
121 134 0
128 136 0
109 119 0
116 127 0
119 132 0
111 121 0
125 136 0
119 130 0
131 142 0
120 130 0
118 128 0
117 128 0
119 129 0
123 136 0
112 118 0
110 118 0
109 118 0
126 136 0
129 139 0
122 129 0
125 135 0
119 125 0
123 133 0
128 137 0
116 123 0
127 134 0
123 132 0
123 132 0
124 134 0
122 128 0
116 120 0
122 126 0
116 123 0
124 132 0
122 127 0
131 138 0
123 130 0
116 121 0
122 128 0
121 125 0
118 122 0
121 124 0
110 112 0
120 125 0
125 128 0
128 135 0
122 127 0
128 132 0
124 131 0
125 132 0
125 133 0
126 129 0
138 142 0
135 144 0
126 130 0
129 132 0
141 147 0
131 137 0
130 135 0
134 142 0
145 153 0
135 143 0
127 131 0
132 139 0
130 138 0
133 139 0
134 139 0
143 150 0
143 146 0
129 137 0
138 148 0
136 143 0
139 144 0
145 152 0
139 144 0
132 137 0
134 138 0
143 152 0
142 149 0
142 148 0
146 157 0
137 144 0
142 148 0
142 150 0
145 155 0
151 161 0
149 159 0
146 156 0
154 165 0
155 166 0
151 159 0
145 157 0
149 157 0
153 162 0
159 173 0
148 158 0
150 158 0
156 169 0
156 168 0
159 171 0
157 169 0
153 167 0
151 161 0
161 176 0
157 170 0
156 168 0
158 171 0
151 163 0
159 173 0
161 175 0
156 170 0
156 171 0
159 174 0
163 177 0
159 172 0
160 176 0
165 178 0
154 171 0
164 181 0
162 177 0
160 174 0
163 179 0
161 177 0
160 177 0
163 179 0
161 177 0
159 174 0
159 174 0
161 176 0
160 178 0
159 175 0
165 183 0
162 182 0
164 180 0
163 180 0
164 182 0
167 185 0
166 185 0
161 178 0
168 185 0
167 185 0
162 181 0
165 181 0
174 197 57
176 199 76
172 195 76
177 200 57
175 198 62
174 197 72
172 196 99
169 193 67
170 194 84
173 196 67
172 196 95
173 197 67
172 196 67
174 198 67
171 196 57
172 197 76
173 197 95
174 197 51
172 196 67
173 197 67
172 197 67
174 198 84
173 197 76
170 193 44
170 194 62
172 197 76
172 195 57
174 198 72
171 195 84
172 195 62
171 195 62
169 193 76
171 196 84
170 194 62
170 194 62
170 193 67
170 194 51
170 194 67
171 196 80
172 196 72
170 195 67
173 197 95
169 192 67
169 193 57
169 192 80
167 191 44
169 193 84
167 191 80
172 195 44
169 192 67
171 194 67
170 193 62
169 192 67
173 197 125
163 188 92
166 190 67
166 189 44
169 192 67
167 191 76
170 193 92
166 187 51
159 182 72
169 193 72
168 192 76
169 193 88
169 193 92
165 188 44
170 194 67
168 192 62
172 195 92
165 188 72
170 194 76
165 188 80
157 181 80
153 177 102
139 165 120
128 154 143
111 138 150
98 127 172
101 129 170
90 119 162
95 125 181
94 123 170
96 125 167
98 126 163
91 120 162
98 126 161
102 129 167
97 126 163
95 123 155
104 131 160
95 124 161
83 113 149
105 132 166
91 121 171
100 127 168
105 133 163
104 131 167
100 127 151
85 115 165
97 125 163
92 121 169
96 124 166
98 126 174
94 122 174
94 123 178
91 119 167
76 108 163
89 118 167
75 108 161
74 107 170
84 114 173
78 110 174
74 107 177
76 106 162
82 112 165
82 112 176
74 106 170
62 98 161
75 107 169
68 102 165
68 102 164
65 100 155
65 100 166
70 102 156
61 97 159
62 97 156
68 100 158
64 99 161
61 97 159
63 98 153
65 99 150
63 99 157
64 100 164
63 98 155
60 95 148
62 98 153
63 98 153
61 95 139
61 96 148
60 96 149
61 96 148
60 95 146
62 98 157
61 96 160
61 96 154
61 97 150
62 97 155
61 97 156
62 98 158
61 97 158
61 97 154
62 97 154
60 95 148
60 96 148
62 97 160
62 98 157
63 99 158
63 98 154
61 97 160
62 98 159
62 97 152
62 97 149
61 96 150
60 95 139
62 98 157
61 97 155
61 97 145
62 98 154
61 96 153
62 98 156
60 95 144
61 96 144
60 95 143
61 96 147
61 96 144
62 97 153
61 97 154
61 97 155
60 95 144
60 95 137
62 97 149
61 96 152
61 96 148
61 96 147
62 97 145
61 96 144
62 97 150
60 96 145
62 98 153
61 97 150
60 96 143
60 95 141
60 95 143
61 96 150
63 98 151
60 95 139
61 96 139
60 95 137
61 96 144
60 95 142
61 96 144
60 95 143
60 95 139
60 95 130
61 96 145
60 95 139
61 95 145
61 96 144
61 96 149
61 96 145
60 95 141
62 98 149
61 96 145
60 96 142
61 97 150
61 96 144
60 95 144
61 96 144
60 95 143
61 96 143
61 96 140
60 94 135
60 95 141
61 96 143
59 93 133
60 95 131
62 97 143
60 95 144
61 96 136
60 95 139
59 94 126
59 94 125
60 95 140
60 94 126
61 96 144
58 92 122
59 94 133
59 93 130
59 93 128
60 94 134
60 94 140
60 94 137
60 94 132
60 94 135
58 92 129
58 91 126
59 93 124
57 90 117
57 89 124
59 93 122
59 92 124
77 104 114
85 106 78
112 126 47
113 125 31
111 123 18
116 128 0
128 141 0
122 133 0
119 130 0
121 132 0
117 127 0
115 125 0
108 117 0
127 139 0
111 121 0
119 130 0
115 122 0
121 130 0
104 116 0
126 138 0
122 131 0
112 118 0
121 129 0
119 129 0
115 125 0
125 133 0
120 130 0
116 124 0
123 132 0
132 142 0
123 133 0
116 124 0
123 130 0
122 132 0
116 124 0
118 125 0
123 131 0
125 131 0
124 131 0
125 133 0
117 123 0
117 121 0
124 129 0
132 136 0
122 132 0
122 130 0
126 135 0
116 123 0
128 132 0
126 133 0
135 141 0
122 131 0
126 135 0
116 120 0
133 140 0
127 132 0
133 139 0
126 129 0
128 134 0
127 133 0
139 143 0
138 145 0
135 142 0
133 139 0
126 130 0
127 132 0
136 141 0
129 132 0
141 150 0
138 143 0
136 142 0
140 149 0
141 149 0
139 149 0
138 144 0
137 143 0
143 153 0
144 153 0
131 137 0
141 148 0
147 155 0
142 148 0
147 155 0
146 154 0
149 157 0
145 152 0
148 158 0
145 154 0
150 160 0
149 157 0
147 155 0
147 158 0
145 156 0
143 154 0
153 163 0
148 156 0
149 160 0
153 161 0
151 165 0
155 167 0
152 167 0
152 166 0
151 164 0
154 166 0
156 167 0
156 168 0
161 174 0
161 175 0
149 161 0
158 171 0
152 167 0
158 172 0
157 172 0
157 171 0
160 173 0
162 175 0
159 172 0
159 174 0
156 170 0
161 177 0
160 175 0
157 174 0
163 178 0
159 176 0
163 178 0
163 181 0
164 180 0
161 178 0
162 181 0
161 180 0
162 180 0
163 181 0
165 183 0
157 173 0
160 174 0
162 177 0
159 175 0
168 185 0
166 185 0
165 183 0
163 180 0
157 172 0
165 182 0
165 184 0
163 180 0
165 184 0
164 180 0
167 185 0
172 196 72
171 195 76
173 197 76
173 197 72
173 197 88
175 198 76
175 199 80
175 199 92
172 195 76
173 196 62
171 195 72
174 198 80
172 196 72
172 196 80
172 196 72
173 196 84
173 197 72
173 197 67
173 196 51
173 196 72
172 197 72
173 196 76
168 192 57
172 195 67
173 197 80
172 196 72
167 192 67
173 197 76
170 194 51
172 196 67
170 193 62
169 192 25
172 196 72
169 192 57
169 192 36
168 191 80
172 196 76
170 194 76
167 191 67
165 189 76
170 195 76
169 194 84
168 192 62
171 195 72
169 193 80
164 188 88
170 196 92
169 193 72
166 190 72
168 191 67
171 195 84
171 193 44
167 191 51
169 193 76
170 194 76
167 191 51
167 192 80
168 191 62
170 193 76
172 196 72
172 195 76
166 190 84
166 189 80
170 193 76
163 187 57
165 188 62
168 191 62
168 192 80
167 190 57
167 191 62
172 196 72
167 189 76
171 193 51
167 189 88
156 180 95
144 168 110
140 164 135
116 142 145
98 126 155
95 125 168
88 117 155
93 123 167
88 119 169
92 121 165
98 127 169
93 122 163
89 119 161
83 114 167
89 118 160
84 115 161
105 132 166
97 126 172
91 120 164
93 122 165
94 123 162
92 120 153
87 116 160
89 118 158
100 128 157
97 126 162
93 121 164
100 127 164
85 114 161
95 123 164
94 123 160
92 120 170
88 118 160
81 113 171
85 115 170
79 110 161
90 119 169
74 107 160
80 112 169
74 107 173
72 105 168
76 107 171
76 108 167
72 105 175
71 104 161
74 107 169
70 103 161
81 111 171
68 101 161
81 110 165
71 104 166
68 102 165
63 97 147
71 103 160
66 100 160
63 98 161
64 99 161
62 98 162
64 99 164
64 98 156
63 97 152
61 96 148
61 96 149
64 99 157
63 97 150
62 97 151
63 98 150
62 97 158
62 98 158
60 94 137
59 95 147
61 96 154
60 95 148
61 97 153
60 95 148
61 96 153
61 97 153
61 97 151
62 98 156
61 96 149
60 95 147
62 98 155
62 97 154
62 97 152
60 96 150
61 96 149
61 96 147
60 95 140
61 97 151
61 97 148
61 96 144
62 98 157
60 96 148
62 97 152
61 97 151
60 95 143
61 96 150
61 96 151
62 98 154
61 96 142
61 96 141
61 96 144
60 95 141
61 96 149
60 95 142
62 97 152
61 96 148
61 97 153
61 96 141
60 95 143
61 97 145
61 96 137
60 95 144
61 96 143
61 96 148
61 97 152
60 95 146
61 97 147
61 96 152
62 98 161
60 95 133
60 95 136
62 97 142
60 95 142
62 97 150
60 95 137
60 95 137
62 97 149
60 95 135
60 94 135
60 95 137
61 97 149
61 96 143
60 95 147
60 95 141
61 96 141
60 94 143
60 95 140
61 96 147
61 96 144
60 95 144
60 95 145
60 96 145
59 94 131
60 94 137
60 94 133
60 95 136
61 96 137
60 95 137
60 95 135
60 95 136
61 95 137
62 97 151
61 96 145
61 96 147
61 96 136
61 96 139
60 94 136
60 95 134
61 96 135
60 95 137
60 94 126
60 94 139
60 95 135
60 94 133
61 96 140
61 95 141
60 94 136
60 94 129
59 92 129
59 93 126
59 92 125
59 93 124
59 93 123
60 95 136
56 89 121
57 90 103
63 91 109
82 105 88
91 108 72
106 120 41
110 123 32
113 123 0
120 131 0
118 130 0
131 142 0
123 135 0
118 129 0
125 135 0
118 130 0
125 135 0
122 132 0
130 139 0
126 136 0
126 133 0
117 127 0
117 127 0
120 129 0
119 130 0
117 127 0
122 132 0
128 136 0
124 132 0
121 129 0
126 137 0
127 136 0
131 141 0
118 125 0
128 137 0
124 134 0
125 131 0
126 132 0
132 141 0
122 132 0
119 127 0
133 139 0
135 144 0
127 134 0
128 137 0
124 131 0
120 128 0
124 134 0
129 137 0
126 132 0
117 124 0
130 137 0
119 124 0
127 132 0
133 140 0
128 136 0
124 131 0
129 136 0
124 131 0
131 138 0
125 132 0
145 150 0
128 135 0
133 139 0
132 139 0
132 140 0
132 139 0
138 146 0
131 138 0
137 145 0
144 152 0
139 147 0
133 140 0
136 143 0
142 149 0
139 148 0
137 142 0
128 135 0
144 153 0
130 138 0
139 145 0
147 158 0
147 157 0
144 152 0
141 150 0
140 144 0
147 157 0
145 155 0
141 153 0
150 159 0
147 156 0
149 159 0
145 155 0
145 154 0
148 157 0
153 162 0
144 155 0
145 154 0
150 158 0
152 161 0
138 147 0
147 159 0
148 160 0
154 166 0
148 160 0
148 160 0
153 162 0
151 164 0
148 158 0
156 168 0
153 166 0
157 168 0
160 172 0
148 161 0
159 175 0
158 172 0
154 166 0
160 174 0
157 171 0
161 175 0
156 170 0
159 171 0
160 173 0
157 171 0
161 174 0
163 178 0
155 171 0
157 170 0
163 180 0
155 170 0
157 171 0
160 175 0
162 179 0
160 176 0
163 178 0
154 171 0
158 174 0
162 178 0
162 178 0
164 181 0
165 181 0
161 177 0
164 180 0
158 176 0
166 181 0
161 178 0
166 183 0
160 177 0
166 184 0
165 184 0
166 184 0
167 186 0
173 197 62
174 197 76
172 196 84
171 195 92
172 196 44
170 193 67
173 197 84
175 199 76
172 196 67
169 193 62
173 196 51
172 196 76
172 195 44
170 194 51
167 191 67
171 196 84
174 197 84
172 196 72
172 196 67
170 194 88
172 196 67
170 193 67
173 197 72
173 197 62
173 196 84
169 192 57
175 198 95
171 195 57
169 192 51
171 195 72
171 195 80
174 198 84
172 197 88
172 195 76
169 192 88
169 194 62
167 190 80
169 194 72
168 192 67
172 196 72
162 186 57
172 197 92
167 192 80
170 194 51
171 195 84
169 193 72
174 198 76
173 196 88
167 192 76
170 194 72
170 195 92
169 194 62
169 193 72
169 194 76
165 189 62
165 189 44
170 194 72
167 191 80
164 189 67
164 189 51
167 190 36
169 193 72
169 193 84
170 194 88
165 188 51
172 195 44
168 191 72
167 190 72
168 192 67
167 190 72
167 189 57
169 193 76
172 195 76
165 189 72
165 188 115
156 180 102
137 162 108
128 153 126
93 122 148
86 116 151
86 116 154
86 115 154
98 127 160
89 118 165
85 115 162
102 129 169
90 119 159
81 112 166
94 123 166
96 124 163
91 120 162
107 134 172
96 125 171
88 118 163
99 127 155
92 120 157
96 125 162
98 125 160
92 121 166
102 129 165
114 140 167
97 125 155
95 123 156
100 126 159
95 124 164
91 120 164
89 118 162
87 117 163
100 128 174
82 112 167
79 111 174
80 111 158
87 116 163
77 108 168
72 105 165
70 103 159
69 102 161
70 103 164
77 109 176
70 103 166
71 103 167
65 100 167
65 99 162
69 102 159
65 98 156
69 102 161
69 102 157
68 100 156
66 100 159
66 100 153
65 99 153
63 98 159
61 96 148
62 97 154
60 95 149
61 96 154
64 98 153
63 98 152
66 101 156
65 99 151
61 96 145
62 98 156
64 99 154
62 96 145
62 98 164
62 97 158
61 96 152
60 95 153
60 95 145
62 98 155
61 96 152
62 98 162
60 94 141
61 96 153
61 96 141
62 97 151
61 96 152
62 98 155
62 98 155
61 97 153
61 96 141
60 96 141
62 97 148
62 98 155
61 96 145
61 96 149
62 97 154
62 97 153
62 97 149
61 96 150
61 97 155
60 95 149
62 98 157
61 96 149
62 97 147
62 96 148
61 97 148
61 96 147
60 95 137
61 97 149
60 95 136
61 97 150
62 97 155
61 96 145
60 96 149
61 96 148
62 97 148
61 96 144
61 97 154
60 96 143
60 95 147
62 97 153
62 97 155
60 95 142
60 96 142
59 94 135
61 96 149
60 94 135
61 96 142
60 95 139
60 94 139
60 95 139
61 96 143
61 96 140
60 94 131
60 95 139
61 96 140
60 94 133
60 95 135
60 96 143
60 95 139
59 93 125
61 96 139
61 96 143
60 94 133
61 96 141
61 96 139
58 93 131
61 96 144
60 95 134
61 96 142
61 95 140
61 95 140
61 95 141
60 95 131
61 96 147
60 95 137
61 95 140
61 96 141
61 95 137
61 95 142
60 95 130
59 94 135
61 96 143
59 93 133
60 95 141
61 95 135
59 93 125
58 92 130
58 93 121
59 94 133
58 93 125
59 94 131
59 93 121
60 94 126
57 91 120
58 92 123
59 92 122
56 89 111
56 89 115
60 92 114
84 108 99
100 117 74
114 127 57
123 137 25
119 130 0
112 122 0
117 126 0
121 135 0
123 136 0
117 126 0
123 134 0
122 135 0
123 135 0
123 134 0
119 132 0
113 122 0
123 134 0
123 133 0
126 136 0
130 141 0
122 132 0
116 125 0
124 134 0
122 132 0
115 124 0
121 129 0
123 134 0
124 134 0
115 125 0
125 137 0
117 126 0
130 139 0
123 134 0
120 129 0
130 139 0
120 128 0
121 130 0
117 125 0
119 127 0
131 137 0
125 134 0
123 131 0
128 134 0
132 142 0
120 130 0
123 128 0
124 133 0
131 139 0
119 126 0
121 126 0
139 148 0
126 133 0
132 139 0
135 142 0
137 146 0
131 140 0
127 134 0
124 132 0
126 132 0
134 140 0
125 133 0
130 137 0
131 137 0
134 142 0
136 146 0
136 143 0
126 132 0
131 138 0
138 146 0
141 147 0
137 144 0
149 156 0
134 140 0
147 155 0
133 138 0
142 153 0
137 144 0
137 146 0
139 145 0
139 146 0
140 149 0
141 147 0
141 149 0
142 150 0
148 157 0
150 161 0
134 141 0
149 161 0
149 158 0
147 157 0
152 162 0
146 158 0
152 163 0
153 163 0
148 158 0
143 153 0
149 160 0
152 162 0
152 164 0
148 159 0
152 166 0
152 164 0
154 166 0
152 161 0
155 168 0
157 169 0
158 172 0
150 164 0
158 170 0
155 169 0
158 172 0
150 164 0
157 171 0
155 168 0
159 174 0
158 171 0
164 178 0
159 173 0
160 174 0
166 183 0
158 172 0
162 175 0
159 175 0
160 177 0
156 171 0
161 178 0
157 172 0
163 181 0
162 180 0
156 170 0
166 184 0
164 179 0
166 184 0
158 174 0
159 177 0
159 178 0
161 177 0
161 177 0
165 183 0
160 177 0
159 177 0
162 178 0
161 179 0
163 179 0
163 184 0
165 184 0
166 183 0
162 180 0
168 185 0
174 197 72
168 193 62
176 199 62
170 194 67
175 199 80
175 199 88
171 195 84
175 199 72
171 195 80
173 196 25
173 197 57
174 198 80
173 197 72
166 190 92
173 198 105
173 196 76
173 196 57
170 194 76
174 197 62
174 198 72
172 196 67
171 195 62
170 194 67
172 196 76
170 194 76
173 196 72
171 195 62
168 191 57
171 195 67
172 195 72
170 196 72
170 195 76
169 192 62
169 193 80
171 195 80
168 193 76
169 194 84
169 193 67
169 193 80
168 192 72
170 194 57
167 192 80
169 193 95
168 192 84
168 192 51
169 194 62
170 194 84
169 193 67
166 190 62
164 189 67
170 194 80
167 191 67
161 185 72
169 192 84
168 191 76
163 187 80
170 193 76
171 195 102
165 188 72
171 193 72
165 189 80
161 185 72
165 189 51
166 189 76
165 188 72
167 190 72
165 188 72
168 193 76
170 194 57
156 180 67
162 185 80
159 182 62
168 191 80
166 189 51
157 181 62
152 175 90
142 167 117
117 143 137
101 128 132
91 120 139
84 115 154
86 116 159
97 125 149
88 117 147
104 131 161
82 112 161
80 111 164
93 122 173
86 116 159
101 128 165
100 128 162
105 132 155
95 123 165
95 123 162
90 119 163
92 121 156
91 119 159
97 124 136
96 123 151
105 133 168
95 123 151
97 123 154
80 111 157
97 124 164
87 116 155
92 120 157
100 127 164
92 121 176
89 118 170
88 117 168
75 106 159
100 127 173
79 110 159
78 109 163
71 104 161
74 106 165
78 108 165
76 108 168
75 107 171
79 110 171
64 98 155
69 102 152
68 102 165
68 102 160
62 96 153
66 99 154
68 101 150
65 99 156
70 102 162
69 100 148
61 96 158
65 99 151
61 96 149
62 97 154
60 95 155
67 101 154
61 97 155
61 96 151
60 96 149
61 97 157
61 97 151
60 96 153
62 97 145
61 97 154
61 97 155
61 95 143
62 97 149
61 96 157
61 96 148
61 96 148
62 97 157
61 96 151
61 96 152
62 98 159
61 96 155
62 97 151
61 96 151
61 97 151
61 97 154
61 96 147
60 95 148
61 97 155
62 97 151
61 96 154
60 95 142
61 96 148
62 98 157
62 97 153
61 96 151
61 96 142
61 96 150
62 98 157
62 97 149
60 95 147
61 97 148
59 94 145
61 97 152
61 96 147
60 94 141
61 96 140
61 96 145
61 96 142
60 95 145
61 97 151
60 95 140
60 96 148
62 97 153
60 95 137
62 97 151
61 96 142
61 96 144
62 97 149
60 95 142
60 95 142
62 97 149
61 97 149
61 96 149
60 95 142
61 96 143
60 96 143
61 96 141
60 95 135
62 98 154
61 96 148
61 96 144
61 95 141
60 95 135
61 97 149
61 96 134
60 94 140
60 95 144
61 96 137
60 95 139
60 95 133
61 97 150
59 93 135
61 95 142
60 95 139
61 96 139
61 95 140
60 95 136
61 96 145
60 95 135
60 95 139
61 96 143
62 97 147
61 97 144
60 94 134
60 94 136
60 95 131
60 94 129
59 94 130
60 94 128
60 94 129
59 94 129
59 93 125
59 93 128
58 92 122
59 94 122
60 95 130
59 93 126
61 95 139
59 93 130
59 93 129
59 92 129
56 89 116
58 92 122
58 92 120
58 91 121
58 91 115
69 97 111
87 108 83
108 125 60
112 125 40
112 125 0
130 142 0
119 131 0
122 137 0
122 130 0
118 130 0
116 125 0
115 126 0
124 135 0
115 124 0
114 125 0
125 135 0
124 134 0
122 130 0
128 137 0
120 129 0
124 134 0
124 136 0
120 131 0
128 140 0
132 143 0
130 142 0
116 125 0
124 135 0
134 145 0
118 127 0
127 135 0
124 132 0
124 134 0
115 123 0
125 136 0
119 131 0
121 129 0
120 128 0
133 141 0
129 137 0
118 126 0
121 127 0
130 140 0
129 133 0
123 133 0
122 130 0
126 135 0
139 147 0
119 128 0
131 137 0
127 137 0
137 145 0
124 131 0
125 133 0
126 132 0
142 152 0
128 135 0
133 141 0
132 139 0
131 136 0
126 131 0
132 140 0
131 139 0
123 130 0
128 135 0
130 136 0
132 140 0
136 141 0
138 148 0
141 149 0
136 143 0
135 138 0
138 143 0
134 142 0
132 136 0
144 154 0
135 144 0
151 161 0
139 148 0
149 156 0
139 146 0
144 154 0
141 147 0
147 155 0
147 156 0
151 161 0
140 147 0
146 158 0
140 147 0
148 160 0
144 154 0
156 170 0
148 158 0
146 155 0
143 151 0
150 159 0
154 164 0
159 172 0
153 165 0
151 163 0
147 157 0
152 163 0
153 167 0
150 161 0
151 162 0
152 166 0
154 165 0
151 165 0
151 167 0
156 168 0
154 167 0
165 181 0
162 176 0
157 169 0
156 170 0
161 178 0
159 172 0
156 170 0
156 169 0
163 178 0
160 176 0
159 176 0
156 170 0
159 175 0
162 180 0
161 180 0
160 176 0
155 169 0
157 171 0
158 176 0
162 180 0
163 179 0
163 181 0
163 179 0
164 182 0
162 179 0
162 178 0
164 180 0
164 180 0
162 178 0
165 182 0
165 184 0
169 189 0
166 185 0
166 184 0
165 183 0
163 182 0
168 187 0
166 185 0
168 186 0
175 198 57
175 199 92
171 195 62
171 194 72
173 198 62
172 196 80
169 192 51
175 198 84
173 197 62
171 195 84
172 196 62
171 194 72
173 196 62
173 196 72
169 194 51
172 196 80
172 196 67
174 198 57
171 194 62
168 192 76
168 193 67
172 195 84
171 195 72
174 198 84
171 195 57
173 196 80
169 194 92
169 194 99
171 195 72
169 192 72
170 195 88
169 194 84
169 194 84
169 193 67
169 193 80
171 195 62
168 192 88
169 194 88
174 197 67
172 195 76
171 195 76
169 194 62
167 192 92
168 192 84
171 195 76
170 194 44
168 192 80
168 192 80
172 197 80
167 189 67
168 192 62
171 194 62
167 191 88
168 192 84
166 190 84
166 191 84
168 192 57
169 194 84
171 194 51
167 190 62
164 188 67
165 189 80
165 188 62
164 189 72
170 194 92
163 186 72
169 193 99
165 188 62
165 188 62
164 187 62
168 191 76
161 185 51
169 192 72
165 188 76
168 191 80
159 183 82
147 171 99
131 156 105
117 143 137
100 127 139
91 120 154
85 114 144
96 124 149
102 130 156
107 134 166
91 121 155
99 127 173
92 121 162
104 131 163
106 133 150
92 121 165
93 122 160
103 130 156
80 111 160
108 135 169
100 128 162
105 132 165
95 123 163
98 125 159
99 126 150
98 125 168
91 119 156
98 125 159
98 126 161
98 126 161
86 116 162
99 127 164
86 116 162
94 122 155
92 120 153
85 115 163
90 119 176
83 113 163
81 112 164
73 105 164
86 116 167
77 108 165
68 103 169
68 102 169
75 107 165
71 103 158
73 106 164
73 105 162
64 99 155
66 101 166
66 99 151
67 101 168
65 99 154
65 100 163
68 102 160
65 99 155
62 97 148
62 97 149
61 96 155
62 97 154
61 96 150
61 96 157
64 99 154
60 95 145
61 96 156
61 96 157
62 96 145
61 96 147
61 96 148
60 95 147
61 97 151
61 97 152
61 96 149
62 97 156
62 98 156
62 98 155
61 96 150
62 97 155
60 95 145
62 98 155
60 96 147
62 97 155
62 97 149
62 98 156
61 97 154
60 96 147
60 95 141
61 96 148
62 98 157
61 97 151
62 98 151
61 96 147
61 97 150
62 97 155
61 96 145
62 97 154
60 95 139
62 98 156
61 97 151
60 95 142
61 97 150
61 96 149
61 96 141
61 96 155
62 97 152
61 96 140
61 97 151
61 96 147
61 96 142
61 96 143
60 95 148
60 95 144
61 96 144
61 96 144
60 95 141
62 97 154
61 96 143
60 95 141
61 96 144
61 97 151
61 96 147
61 96 143
60 95 141
62 97 150
60 95 140
61 96 143
60 95 140
60 96 142
60 95 136
60 96 147
61 96 144
60 95 133
61 96 144
60 95 137
62 97 144
59 94 130
60 95 137
59 94 136
58 92 130
61 96 145
60 95 140
60 95 137
59 94 133
60 96 140
60 94 135
60 95 139
60 94 133
60 95 144
61 96 148
60 95 135
59 94 125
60 95 141
60 95 136
60 95 130
61 96 139
59 93 128
60 94 136
59 93 129
59 94 133
61 95 139
60 95 141
59 93 125
60 94 133
60 95 137
58 93 117
59 93 128
60 95 137
58 92 118
60 94 130
59 94 129
60 95 129
58 91 120
59 93 134
57 90 113
62 93 113
87 109 94
94 111 65
115 127 47
114 128 31
121 133 0
113 122 0
118 131 0
121 131 0
130 143 0
120 131 0
121 133 0
117 129 0
113 125 0
128 140 0
117 129 0
118 130 0
103 111 0
121 130 0
124 133 0
119 128 0
115 127 0
113 124 0
121 134 0
115 124 0
121 130 0
131 143 0
116 126 0
114 122 0
112 124 0
119 129 0
127 138 0
117 124 0
124 135 0
124 135 0
123 135 0
139 149 0
136 146 0
139 151 0
128 140 0
123 134 0
129 138 0
119 128 0
125 134 0
118 127 0
138 148 0
132 143 0
124 131 0
125 131 0
138 150 0
134 145 0
139 147 0
136 146 0
118 127 0
140 150 0
130 136 0
128 136 0
138 149 0
129 136 0
146 155 0
142 150 0
132 140 0
137 144 0
137 146 0
126 130 0
136 145 0
133 143 0
127 135 0
135 143 0
129 136 0
138 147 0
132 141 0
141 151 0
137 147 0
137 147 0
134 142 0
146 155 0
135 142 0
138 146 0
141 150 0
147 156 0
148 159 0
137 149 0
145 153 0
142 153 0
156 168 0
141 150 0
147 155 0
150 158 0
148 157 0
148 159 0
149 160 0
148 159 0
152 160 0
154 165 0
147 157 0
146 158 0
157 169 0
153 163 0
153 165 0
151 163 0
155 169 0
149 162 0
160 173 0
151 162 0
153 167 0
146 156 0
151 165 0
157 172 0
154 166 0
155 168 0
161 173 0
152 166 0
153 166 0
165 180 0
157 171 0
151 164 0
163 178 0
160 174 0
157 172 0
155 172 0
167 183 0
159 174 0
156 174 0
162 177 0
157 172 0
162 179 0
155 172 0
159 175 0
159 174 0
164 182 0
164 183 0
165 182 0
157 172 0
163 180 0
161 179 0
168 186 0
161 180 0
160 177 0
164 182 0
165 181 0
165 183 0
171 189 0
161 181 0
160 178 0
169 189 0
165 184 0
156 173 0
166 181 0
158 175 0
166 183 0
173 196 67
175 198 80
172 195 62
174 198 76
173 196 84
169 193 67
173 197 88
171 195 72
173 197 84
170 194 57
171 195 84
172 195 62
172 196 80
173 197 67
171 193 72
166 191 67
170 194 95
168 192 76
171 195 72
169 193 92
173 197 102
173 197 67
170 195 84
173 196 76
171 196 95
170 194 76
169 193 67
169 192 62
172 196 76
170 194 62
169 194 84
167 191 51
169 193 57
171 196 84
165 189 62
169 192 67
171 195 76
166 190 62
166 190 62
164 189 76
172 196 80
169 194 84
171 195 57
168 192 84
170 195 84
165 190 67
171 195 67
171 195 88
173 197 76
167 191 84
166 190 88
167 190 67
166 190 80
171 195 67
168 191 72
169 193 88
166 190 57
163 186 76
167 190 72
166 190 95
167 191 51
162 185 62
166 189 76
167 191 80
163 187 57
162 185 76
166 189 67
171 195 84
164 188 67
170 193 92
163 185 80
165 188 67
171 194 76
163 186 72
166 190 72
162 185 76
157 181 82
146 170 113
128 152 134
107 133 129
91 119 148
99 127 140
88 118 154
106 134 171
94 123 156
86 116 153
96 125 172
107 134 177
94 122 163
94 122 168
97 125 160
94 123 164
91 119 164
109 136 167
99 126 163
105 132 162
87 115 159
101 129 165
103 129 164
96 124 151
91 120 156
104 131 173
99 126 168
98 126 171
91 119 157
93 121 148
100 127 162
86 115 163
89 118 167
95 122 154
75 107 159
79 110 164
97 124 170
75 107 168
85 114 166
73 106 163
81 112 165
78 109 161
70 103 161
67 101 161
77 108 164
67 100 159
66 101 170
71 103 159
68 101 158
67 101 168
67 99 161
69 102 157
68 102 162
75 106 163
63 98 153
64 98 155
65 99 159
63 97 154
66 100 158
69 102 151
63 97 149
62 96 140
64 99 152
60 95 143
62 97 139
60 95 145
64 98 151
61 96 149
62 97 159
61 97 150
62 98 153
61 96 139
61 96 149
60 96 149
62 98 158
62 98 158
61 97 152
62 97 153
62 97 155
61 96 150
60 95 141
61 97 147
61 96 148
61 97 150
61 96 149
60 95 142
61 96 148
62 97 156
63 99 161
61 96 147
61 97 150
62 98 151
62 97 153
60 95 142
63 99 161
61 97 156
61 96 151
62 97 156
60 95 143
61 96 148
61 96 149
61 97 148
60 95 153
61 96 147
59 94 148
61 96 147
62 97 151
61 95 143
62 97 153
60 96 148
60 95 137
61 96 147
61 96 149
61 96 147
60 95 139
61 96 145
61 97 148
61 96 147
61 97 150
61 97 142
60 96 141
61 96 143
61 96 140
59 94 134
62 98 151
61 96 147
61 97 148
60 95 139
61 96 141
60 95 140
60 95 139
60 95 143
60 95 148
61 96 148
62 97 143
61 95 141
59 93 139
61 96 139
61 96 142
60 95 134
61 96 141
59 94 133
60 95 129
60 95 140
59 94 137
58 92 131
59 94 141
60 94 134
60 94 137
60 95 133
60 94 140
60 94 139
58 92 125
59 94 130
59 94 125
59 94 133
60 94 129
59 94 134
61 96 134
58 92 118
60 94 135
60 94 136
59 94 129
59 93 136
59 93 126
58 92 130
59 93 133
58 92 124
59 92 122
58 91 118
58 92 118
57 90 113
58 89 105
74 101 108
81 103 85
101 117 44
119 132 31
126 138 18
123 138 0
125 136 0
115 127 0
115 129 0
124 133 0
124 138 0
131 146 0
109 122 0
118 130 0
125 138 0
112 122 0
126 139 0
119 130 0
126 138 0
134 146 0
124 133 0
124 132 0
127 138 0
128 138 0
116 124 0
122 132 0
124 135 0
134 146 0
129 141 0
129 139 0
126 137 0
127 138 0
125 139 0
133 141 0
131 141 0
133 143 0
127 136 0
122 132 0
132 141 0
122 130 0
126 134 0
128 136 0
135 144 0
134 144 0
139 150 0
130 139 0
122 131 0
133 141 0
127 136 0
141 153 0
126 133 0
126 137 0
125 133 0
132 141 0
131 141 0
137 145 0
131 142 0
133 142 0
130 136 0
131 137 0
133 143 0
132 141 0
141 149 0
135 144 0
123 128 0
137 149 0
139 146 0
137 148 0
139 148 0
138 144 0
136 145 0
139 150 0
145 153 0
138 143 0
145 155 0
143 150 0
149 159 0
142 150 0
139 149 0
147 155 0
147 156 0
152 160 0
145 157 0
138 147 0
146 157 0
147 158 0
141 149 0
149 161 0
141 149 0
150 160 0
151 162 0
151 162 0
156 166 0
154 166 0
151 161 0
146 159 0
156 168 0
157 170 0
157 171 0
148 159 0
149 161 0
145 155 0
157 170 0
149 162 0
152 164 0
154 168 0
157 170 0
155 169 0
153 164 0
152 167 0
157 171 0
156 169 0
153 165 0
152 164 0
153 165 0
156 170 0
162 177 0
154 169 0
157 172 0
160 175 0
162 178 0
158 174 0
159 173 0
160 177 0
157 174 0
160 175 0
163 179 0
155 172 0
159 176 0
160 175 0
164 179 0
162 177 0
159 176 0
154 171 0
160 178 0
158 174 0
167 185 0
168 187 0
167 186 0
160 176 0
167 186 0
162 181 0
158 176 0
168 185 0
161 179 0
165 182 0
167 185 0
164 181 0
169 187 0
165 184 0
163 181 0
172 196 67
172 196 84
173 197 84
174 197 67
172 196 76
175 199 99
169 191 62
170 194 62
173 197 76
173 198 88
174 198 72
173 197 80
173 197 51
172 197 62
169 192 72
172 196 57
168 191 62
172 196 72
174 198 80
168 193 80
172 196 72
169 194 92
170 193 88
169 193 51
166 191 62
169 194 72
168 192 84
170 193 67
171 195 84
173 197 84
172 195 72
168 192 76
170 195 84
171 194 72
171 195 88
172 195 57
167 192 72
164 189 72
167 190 80
172 196 80
170 192 57
163 186 36
171 196 88
171 195 62
172 197 88
160 184 62
169 194 84
169 194 76
168 193 72
166 190 88
168 192 62
165 190 67
166 189 72
166 190 57
170 194 72
168 192 76
168 192 92
161 184 51
160 183 57
165 189 62
169 193 102
162 186 92
171 195 72
162 186 51
162 186 95
165 189 99
162 186 67
168 191 80
163 187 67
165 190 72
161 185 88
163 186 62
164 187 84
164 188 76
167 190 62
164 186 76
163 187 74
149 172 86
143 166 107
117 143 113
90 119 144
88 117 140
90 119 150
98 126 152
103 130 152
100 128 158
87 117 153
97 125 164
91 120 164
101 129 170
91 119 168
95 123 161
104 131 166
84 114 152
98 125 167
98 125 159
86 115 167
103 130 154
93 121 161
92 120 152
89 117 144
98 125 150
92 120 162
96 124 160
98 125 157
93 121 162
95 123 149
96 124 158
101 129 160
85 115 161
93 122 160
81 112 161
92 121 169
82 112 169
76 107 161
82 113 175
82 112 166
84 113 171
77 108 157
68 102 166
70 103 161
69 102 159
73 105 168
60 96 158
71 103 164
68 102 164
69 101 146
65 99 163
67 100 150
67 101 152
66 100 156
61 97 149
62 98 156
69 102 154
65 99 151
66 100 159
70 102 147
63 98 151
65 99 137
61 97 152
61 97 153
61 96 149
63 98 151
60 94 139
60 95 141
61 97 157
59 94 144
62 98 154
61 96 149
59 94 144
60 95 150
60 95 143
60 94 141
61 96 140
62 97 151
62 98 157
60 96 140
62 97 157
61 97 155
60 95 149
61 97 150
61 96 150
62 97 150
63 98 156
62 97 152
62 98 155
62 98 155
61 96 148
62 97 149
59 94 143
60 96 143
61 96 143
61 96 145
61 97 144
61 96 143
61 97 150
61 96 142
61 96 143
61 97 145
60 95 142
61 96 145
61 97 152
61 96 150
60 95 140
61 96 142
62 97 147
60 95 136
61 97 147
62 97 147
60 95 140
61 96 151
61 96 144
60 95 142
61 96 147
61 96 144
62 97 143
61 96 140
60 94 133
60 95 141
58 93 131
61 96 149
61 96 148
60 95 137
60 95 136
60 95 136
61 96 137
59 93 139
60 95 142
58 92 122
60 95 137
61 96 145
61 96 140
60 94 136
62 97 147
60 95 140
61 95 148
61 96 142
59 94 130
62 97 141
60 95 134
60 94 129
60 95 133
60 94 135
60 95 135
60 95 134
60 95 130
59 94 134
59 93 122
59 93 126
59 94 128
60 95 141
61 95 139
59 94 130
59 93 121
59 93 128
59 93 128
59 93 131
59 93 124
60 94 131
59 93 131
58 92 118
59 93 125
60 94 131
59 93 129
57 90 122
57 89 109
56 88 122
56 88 110
67 96 110
88 108 89
106 123 54
100 115 51
110 124 36
126 139 0
122 135 0
120 133 0
114 126 0
116 128 0
109 121 0
119 130 0
126 139 0
125 137 0
120 135 0
122 135 0
125 139 0
136 150 0
121 131 0
117 125 0
124 135 0
121 133 0
124 137 0
119 130 0
113 126 0
127 139 0
128 141 0
119 130 0
134 148 0
127 139 0
120 133 0
126 139 0
131 141 0
132 140 0
132 143 0
125 134 0
124 135 0
127 138 0
130 138 0
124 134 0
129 139 0
137 148 0
120 127 0
135 145 0
132 141 0
122 132 0
131 141 0
132 141 0
130 139 0
128 137 0
134 143 0
127 136 0
131 139 0
141 151 0
128 137 0
133 142 0
131 140 0
143 154 0
126 133 0
138 148 0
127 135 0
133 143 0
134 143 0
134 146 0
136 145 0
137 146 0
137 147 0
136 144 0
132 138 0
136 143 0
138 149 0
131 141 0
134 145 0
141 150 0
142 151 0
134 142 0
138 145 0
147 157 0
133 143 0
140 151 0
140 147 0
138 147 0
149 158 0
146 156 0
144 154 0
137 146 0
146 156 0
149 160 0
143 153 0
143 154 0
157 171 0
146 157 0
152 163 0
147 159 0
146 156 0
152 164 0
157 168 0
149 161 0
152 163 0
152 163 0
149 162 0
152 165 0
152 164 0
155 168 0
151 164 0
153 164 0
161 175 0
156 170 0
155 168 0
157 171 0
156 168 0
157 172 0
158 171 0
159 172 0
154 166 0
157 170 0
155 172 0
158 174 0
159 175 0
154 170 0
158 172 0
158 173 0
159 176 0
160 176 0
159 176 0
159 171 0
165 182 0
164 181 0
162 178 0
149 163 0
160 177 0
160 177 0
161 179 0
165 183 0
163 179 0
166 185 0
162 177 0
162 179 0
165 181 0
162 180 0
157 174 0
160 178 0
162 179 0
162 180 0
167 185 0
167 186 0
165 184 0
163 181 0
164 183 0
165 182 0
169 188 0
166 184 0
172 195 67
171 195 51
169 193 57
172 196 72
173 197 92
172 196 76
173 197 80
172 196 72
172 195 67
173 196 36
172 195 57
169 192 51
170 194 72
170 193 67
171 194 76
171 195 72
168 193 62
168 191 72
171 195 72
170 193 44
173 198 102
169 194 92
169 194 72
170 194 67
166 190 80
171 194 62
174 198 67
171 195 84
167 192 72
167 190 51
167 191 67
167 191 44
169 193 76
168 192 80
171 195 72
168 192 76
169 194 84
169 192 62
168 192 76
167 190 57
167 191 88
169 194 88
166 190 80
163 187 88
164 188 80
170 193 44
170 195 67
166 189 76
172 196 92
169 193 72
162 186 67
166 190 62
170 193 80
168 192 84
161 184 44
166 190 67
169 192 84
160 185 67
163 187 67
162 186 72
167 190 88
165 189 62
168 192 88
165 188 62
166 190 76
164 188 57
160 182 44
169 193 84
165 188 76
165 188 57
161 184 67
165 188 72
164 187 57
164 188 84
160 183 62
161 185 84
166 189 88
153 176 80
152 175 111
125 150 121
109 135 129
86 114 130
93 121 141
94 122 148
99 127 161
99 127 165
90 120 155
88 117 157
88 118 160
100 127 153
87 117 162
84 114 157
99 127 157
101 128 158
97 124 159
100 127 170
88 117 154
100 128 162
84 114 156
100 127 159
97 125 149
96 125 160
97 124 161
90 118 156
102 129 159
98 124 154
81 111 152
92 121 159
97 124 165
95 123 164
75 108 160
99 126 162
84 115 164
82 113 162
91 120 155
79 111 158
79 110 169
73 105 164
92 121 167
64 99 153
71 103 161
72 104 158
62 99 164
65 99 161
65 100 161
70 103 166
78 108 161
67 101 159
70 103 155
71 103 160
65 99 156
65 99 144
61 96 154
66 100 141
61 96 152
63 97 142
63 96 149
60 95 146
60 95 147
63 98 149
61 95 146
62 98 158
60 95 149
61 96 149
61 96 147
61 96 140
61 96 148
62 97 148
60 95 145
62 96 141
62 97 155
62 98 159
61 96 147
61 96 146
61 96 144
60 95 141
60 95 147
61 96 144
61 97 149
61 96 143
62 97 149
60 95 142
61 96 150
61 96 148
61 96 148
60 95 142
61 96 148
62 97 152
61 96 147
62 97 152
61 95 143
60 95 137
61 96 152
61 96 144
62 97 149
61 96 145
61 96 142
61 96 142
60 95 141
62 97 148
61 96 145
61 96 144
61 96 149
61 96 141
61 96 140
61 97 145
61 96 148
62 98 155
61 96 136
61 96 142
61 96 144
60 95 134
61 96 149
61 96 136
59 94 134
61 95 142
61 97 152
60 95 140
60 94 136
60 95 139
60 94 134
60 95 141
61 96 133
61 97 148
59 94 136
60 95 139
61 96 147
60 95 141
60 94 131
61 96 145
60 95 147
59 94 134
60 95 141
60 94 131
61 95 141
58 92 126
61 96 135
61 96 144
60 94 124
59 94 126
61 96 145
60 94 130
59 93 125
60 95 136
61 96 147
61 95 141
60 94 139
60 95 140
59 93 126
60 95 135
61 95 137
60 95 136
59 93 125
58 92 118
59 94 131
60 95 129
58 92 129
61 95 136
58 92 125
59 93 130
60 94 130
59 93 120
59 93 118
58 92 114
57 91 124
59 92 125
58 92 133
61 92 109
74 98 89
101 119 62
101 116 62
115 129 31
112 125 0
126 138 0
114 124 0
125 136 0
127 140 0
123 134 0
116 130 0
115 126 0
122 136 0
123 136 0
128 138 0
124 137 0
124 135 0
119 133 0
108 119 0
131 145 0
123 135 0
133 144 0
122 135 0
124 135 0
122 134 0
118 128 0
122 133 0
120 130 0
123 134 0
125 136 0
124 135 0
129 141 0
131 142 0
118 128 0
131 143 0
124 133 0
124 131 0
120 132 0
131 143 0
129 139 0
133 143 0
131 142 0
124 135 0
123 132 0
133 144 0
130 140 0
128 140 0
125 136 0
135 146 0
139 150 0
132 144 0
140 149 0
126 135 0
133 142 0
132 140 0
139 149 0
144 152 0
134 145 0
138 148 0
139 150 0
141 150 0
130 140 0
139 148 0
134 145 0
139 149 0
145 154 0
132 138 0
138 148 0
135 144 0
142 151 0
140 150 0
144 156 0
132 143 0
143 153 0
144 155 0
154 167 0
144 154 0
142 156 0
143 152 0
141 151 0
140 148 0
148 156 0
149 161 0
148 157 0
149 161 0
143 154 0
152 163 0
141 151 0
146 156 0
140 150 0
146 158 0
147 160 0
149 162 0
151 163 0
142 151 0
147 157 0
149 161 0
153 165 0
152 165 0
154 167 0
150 161 0
152 166 0
159 174 0
156 168 0
152 165 0
151 163 0
154 169 0
152 167 0
150 164 0
156 171 0
159 174 0
158 172 0
153 169 0
157 171 0
154 167 0
163 176 0
154 170 0
163 178 0
150 163 0
162 178 0
156 173 0
158 173 0
160 174 0
161 177 0
161 177 0
156 169 0
165 182 0
152 166 0
160 178 0
154 170 0
160 175 0
165 184 0
160 177 0
162 176 0
166 185 0
158 174 0
162 179 0
161 179 0
161 177 0
163 181 0
157 173 0
159 175 0
165 185 0
168 185 0
163 181 0
167 186 0
165 184 0
161 179 0
163 181 0
167 186 0
163 182 0
169 189 0
174 197 72
172 196 67
172 196 67
176 200 99
172 196 80
172 196 80
174 197 84
173 197 84
166 190 62
172 196 62
170 194 57
174 198 95
171 195 80
169 193 57
171 194 67
170 195 80
170 193 57
168 192 57
172 195 67
170 194 62
170 195 67
171 195 84
172 196 88
167 191 76
170 194 57
173 198 92
173 198 80
172 196 62
168 192 62
173 197 84
168 192 72
169 194 80
167 190 62
167 191 72
168 192 62
167 191 25
168 192 62
166 190 51
174 198 80
164 187 36
170 193 57
167 191 84
167 191 72
166 190 80
172 196 67
170 193 80
167 191 51
170 194 72
163 186 57
170 193 80
168 192 76
166 190 84
165 188 72
162 185 62
164 188 67
165 187 76
164 189 72
164 188 80
166 188 62
166 190 76
163 186 67
167 191 67
167 191 95
169 194 72
164 187 62
167 190 76
165 189 67
165 189 62
167 191 62
162 185 62
163 187 62
159 182 95
166 190 76
169 193 92
158 181 57
163 186 84
162 186 57
161 183 82
151 175 84
140 164 102
121 146 102
95 122 139
101 129 140
93 121 142
94 122 145
90 118 144
101 129 164
95 123 156
97 125 159
89 117 154
89 117 160
106 133 164
91 119 160
100 128 166
90 118 157
98 126 170
84 114 159
94 122 168
84 113 156
95 122 159
94 122 166
95 122 154
94 122 157
106 132 158
89 117 155
89 118 157
95 123 154
86 116 159
85 115 157
88 117 157
94 121 163
82 112 156
78 109 165
78 109 163
85 114 160
75 107 163
81 111 158
78 109 160
73 105 163
66 100 167
70 103 160
71 104 163
68 102 162
71 104 166
77 108 167
69 102 163
68 102 164
76 107 170
66 101 167
72 103 156
62 96 147
73 105 158
68 101 153
65 99 158
61 96 149
66 99 152
64 97 138
64 98 151
65 98 150
61 96 149
63 97 150
66 100 155
62 97 152
62 97 146
64 98 141
61 96 154
63 98 151
60 95 136
64 99 151
61 96 152
61 97 153
61 96 151
61 96 140
62 97 152
61 95 142
62 97 154
62 97 153
61 96 151
61 96 151
61 96 143
61 96 141
62 98 154
60 96 148
62 97 148
61 96 143
61 97 155
61 96 148
62 97 148
62 97 149
60 94 140
60 94 137
61 96 148
61 96 144
62 98 155
61 96 147
60 95 137
61 96 144
60 95 133
61 96 144
60 95 145
61 96 147
61 96 148
60 95 144
60 95 141
62 97 148
61 96 141
61 96 148
60 95 145
61 96 142
60 94 134
62 97 144
60 94 139
62 97 152
60 94 135
60 95 139
60 95 137
61 95 141
61 96 137
60 95 139
60 95 142
61 96 139
60 95 136
61 96 142
60 95 129
61 96 137
61 96 142
61 96 141
61 96 141
60 95 142
60 95 140
61 96 141
61 96 140
60 94 133
58 92 130
60 94 141
58 93 130
60 94 136
59 93 129
60 95 133
61 96 136
61 96 136
60 95 131
60 94 137
60 95 137
60 95 130
60 94 130
59 93 124
59 93 126
61 95 135
60 94 134
60 94 134
60 95 133
59 93 114
60 96 145
60 95 134
59 94 125
60 94 129
59 93 126
59 93 122
60 93 130
58 91 114
59 93 129
58 92 120
59 93 122
58 92 124
56 89 107
61 93 115
72 99 113
83 103 67
99 115 37
111 125 31
111 123 0
127 141 0
124 136 0
113 125 0
117 129 0
117 128 0
123 137 0
114 128 0
123 135 0
116 128 0
123 136 0
126 142 0
129 142 0
120 132 0
126 137 0
120 131 0
121 132 0
120 133 0
120 132 0
123 137 0
124 135 0
123 133 0
117 128 0
129 141 0
124 134 0
126 137 0
120 132 0
126 137 0
120 129 0
124 135 0
129 141 0
129 140 0
130 141 0
130 140 0
131 141 0
137 149 0
125 136 0
127 137 0
130 142 0
134 143 0
127 137 0
133 145 0
132 144 0
136 147 0
124 137 0
132 142 0
134 145 0
138 148 0
133 145 0
141 151 0
132 141 0
132 144 0
139 150 0
131 142 0
133 141 0
135 143 0
132 142 0
143 154 0
133 142 0
136 147 0
143 156 0
143 152 0
134 144 0
138 149 0
139 149 0
141 151 0
142 148 0
137 145 0
139 151 0
133 141 0
138 148 0
143 152 0
145 158 0
148 161 0
135 144 0
146 156 0
146 156 0
140 150 0
142 153 0
148 160 0
147 158 0
153 163 0
145 156 0
146 160 0
148 157 0
147 160 0
154 163 0
151 162 0
154 166 0
147 160 0
146 156 0
148 160 0
155 169 0
154 166 0
155 169 0
149 161 0
156 170 0
151 163 0
150 164 0
157 174 0
154 167 0
150 163 0
148 162 0
158 172 0
161 175 0
154 169 0
151 164 0
156 170 0
155 172 0
157 171 0
159 174 0
155 168 0
155 170 0
158 172 0
156 171 0
153 169 0
159 175 0
161 177 0
160 176 0
159 173 0
164 181 0
155 171 0
161 179 0
161 176 0
160 177 0
161 178 0
160 175 0
161 179 0
156 171 0
161 177 0
157 173 0
161 179 0
156 174 0
160 176 0
161 177 0
166 185 0
163 179 0
162 179 0
162 179 0
164 181 0
164 183 0
165 182 0
161 178 0
167 186 0
166 185 0
163 179 0
165 183 0
165 184 0
163 183 0
173 196 67
172 196 76
171 194 84
170 194 72
171 195 72
174 199 72
171 194 76
174 199 95
172 196 80
171 194 80
174 197 57
173 197 67
173 197 80
167 191 67
171 196 88
171 194 72
171 194 62
171 196 76
171 195 62
171 195 57
170 193 67
174 198 88
171 196 92
169 193 62
170 193 57
169 193 88
167 191 44
171 195 67
167 191 76
170 194 88
165 189 67
170 195 67
168 192 80
169 193 67
167 191 76
169 192 57
168 192 62
165 189 67
164 188 88
164 188 72
172 195 76
167 191 72
166 190 57
169 193 84
165 189 84
168 193 84
168 191 57
167 192 76
166 190 57
168 192 72
164 189 57
164 188 72
162 184 51
167 191 57
165 188 76
166 190 72
164 188 51
160 183 67
164 188 57
163 188 72
172 195 80
165 189 62
161 185 72
165 188 72
166 190 88
162 185 80
167 190 76
167 191 57
165 187 76
161 184 57
166 189 76
168 191 84
163 187 84
161 184 72
163 187 80
157 181 76
161 184 72
156 179 76
151 175 70
156 180 95
133 158 121
114 139 114
93 121 124
89 117 120
90 120 144
96 124 144
85 114 132
89 118 145
94 122 149
91 120 160
99 126 153
103 130 163
94 122 151
98 125 160
95 123 166
102 128 157
94 122 151
98 126 160
105 131 147
89 118 158
102 128 153
92 122 159
98 125 158
93 121 157
100 126 153
98 126 158
103 130 154
97 124 156
90 119 157
96 124 160
93 119 151
95 124 157
84 114 165
90 118 158
83 113 167
89 118 161
90 117 164
78 110 165
84 114 160
83 113 166
82 112 161
70 104 165
72 104 160
70 102 160
74 106 166
68 102 169
77 107 164
61 97 156
65 101 166
61 97 151
68 100 153
63 98 149
68 99 145
61 95 138
65 99 144
66 99 152
60 95 150
66 100 152
60 95 145
66 101 140
64 99 150
64 97 143
60 95 143
61 96 147
61 97 151
63 98 151
61 97 152
62 97 149
62 97 155
61 96 145
62 97 150
60 95 141
60 94 137
62 97 149
61 96 150
59 94 139
61 97 153
62 97 147
61 96 144
61 96 149
60 95 139
60 95 148
61 96 140
62 97 151
61 97 148
61 96 147
61 96 147
60 95 139
61 96 142
61 96 142
60 95 140
61 96 144
61 96 148
61 96 142
61 96 144
61 96 140
60 95 142
60 94 133
61 97 147
60 95 143
61 97 142
60 96 142
60 96 141
61 96 150
62 97 150
61 96 145
61 96 144
62 97 142
60 95 141
61 96 147
61 95 143
61 96 143
61 96 145
61 96 137
60 94 134
62 97 145
61 96 141
62 96 144
60 95 136
60 95 135
60 94 135
61 96 142
62 97 147
60 94 133
61 96 143
61 96 140
60 95 137
60 95 139
59 94 131
59 93 134
60 94 131
60 95 139
59 93 122
61 97 149
60 94 122
59 94 134
59 94 134
60 95 135
61 96 140
61 96 143
60 95 128
59 93 130
60 94 136
61 95 131
60 94 129
59 94 130
60 94 135
58 92 129
59 93 126
59 93 124
60 95 134
59 93 124
59 93 126
59 92 117
60 94 133
60 94 122
59 93 120
58 91 114
58 92 114
58 92 121
60 94 129
58 91 120
56 89 111
59 92 121
57 90 107
60 92 111
65 93 108
89 110 86
102 118 54
107 121 36
120 131 0
126 141 0
121 133 0
114 127 0
123 137 0
126 141 0
117 129 0
120 134 0
120 134 0
122 135 0
121 132 0
123 135 0
123 136 0
120 134 0
118 131 0
119 131 0
110 121 0
126 136 0
124 137 0
129 140 0
120 131 0
127 140 0
126 139 0
126 136 0
126 136 0
138 151 0
119 132 0
124 136 0
143 156 0
119 130 0
132 146 0
127 138 0
121 130 0
122 132 0
132 144 0
127 140 0
124 132 0
127 138 0
133 144 0
130 141 0
128 138 0
135 147 0
131 142 0
121 128 0
140 151 0
136 147 0
132 143 0
137 151 0
132 141 0
137 149 0
130 140 0
139 150 0
140 151 0
133 143 0
129 141 0
130 138 0
142 151 0
145 157 0
138 149 0
136 148 0
135 144 0
138 148 0
139 149 0
130 140 0
140 150 0
140 149 0
141 153 0
138 149 0
138 147 0
149 159 0
143 152 0
145 156 0
145 159 0
143 154 0
147 158 0
144 154 0
147 159 0
146 159 0
156 168 0
147 160 0
154 165 0
144 156 0
149 160 0
149 162 0
146 157 0
143 154 0
153 164 0
148 163 0
143 155 0
154 166 0
152 165 0
150 163 0
147 159 0
146 157 0
153 166 0
151 166 0
148 158 0
155 169 0
154 166 0
153 164 0
155 167 0
151 164 0
155 168 0
154 167 0
157 167 0
152 163 0
151 165 0
158 171 0
159 173 0
160 175 0
157 169 0
157 171 0
155 171 0
161 174 0
157 172 0
158 172 0
156 170 0
158 173 0
160 177 0
161 176 0
152 167 0
156 173 0
162 178 0
161 177 0
160 175 0
157 172 0
163 179 0
160 175 0
162 179 0
159 176 0
159 176 0
160 178 0
164 181 0
163 178 0
162 181 0
161 178 0
153 169 0
164 178 0
164 182 0
163 182 0
162 179 0
163 180 0
167 185 0
160 176 0
165 183 0
165 185 0
164 182 0
164 182 0
161 179 0
165 184 0
172 196 80
171 194 67
173 197 80
168 192 44
170 193 76
173 197 62
167 192 76
169 194 67
172 195 72
174 198 72
171 195 84
167 191 67
173 197 80
173 196 57
173 197 92
171 195 80
171 196 72
172 195 92
171 195 72
168 191 84
169 193 84
170 195 76
170 195 62
172 195 84
171 193 57
170 194 62
166 189 57
172 195 51
171 195 80
171 195 72
167 191 84
170 195 80
166 190 57
164 189 67
169 193 67
168 192 76
169 194 76
170 195 62
173 197 80
170 193 76
172 196 80
164 188 51
166 189 72
162 186 76
170 194 80
167 191 51
166 190 57
167 191 88
165 189 62
168 192 76
167 192 92
168 192 72
167 192 88
166 190 76
168 192 62
166 190 62
168 193 92
163 187 80
165 189 76
160 184 62
165 189 72
161 184 67
165 189 72
165 190 80
160 184 80
165 188 62
164 187 72
159 182 57
162 186 62
163 186 51
168 192 80
158 181 72
166 191 92
156 179 57
164 187 84
164 187 57
152 175 67
161 184 67
158 180 90
155 177 86
145 167 94
123 148 106
101 128 128
88 117 131
91 119 137
82 112 133
83 113 142
86 115 144
93 122 149
80 109 134
86 115 149
84 114 160
89 117 158
103 129 163
84 114 151
105 131 166
88 117 147
89 118 155
96 123 143
94 121 149
95 123 165
78 109 154
95 122 156
101 127 148
89 117 157
98 125 162
88 116 155
101 128 153
93 120 164
86 115 143
86 114 161
91 119 158
99 126 153
87 117 167
81 111 161
88 117 168
85 115 147
88 116 161
74 105 149
77 108 157
77 107 162
76 107 166
69 102 148
67 100 155
69 102 165
73 105 161
68 101 150
73 105 165
70 102 154
64 98 164
63 98 156
70 102 160
69 101 146
63 98 158
65 99 144
63 98 153
67 99 145
61 94 145
61 96 151
65 99 149
61 96 150
61 97 141
60 94 139
61 96 149
68 100 139
61 96 147
61 95 149
60 95 135
62 97 151
60 96 142
61 96 142
60 95 139
60 95 145
60 95 145
60 94 148
60 95 141
61 97 149
61 96 146
61 96 147
62 97 147
62 97 153
60 95 142
62 97 152
61 95 142
60 95 145
61 97 151
61 96 147
60 95 144
61 96 140
61 96 142
61 96 142
62 97 150
61 97 148
60 95 137
59 94 135
60 95 137
61 96 144
60 95 145
61 96 143
60 95 140
59 94 134
61 96 142
61 96 139
61 96 140
60 94 134
62 97 145
59 94 134
61 96 145
61 96 145
60 95 136
60 94 131
60 95 135
61 96 148
60 95 141
61 96 135
60 95 135
61 96 147
62 96 141
62 97 148
60 95 143
61 95 141
61 96 142
59 94 136
61 95 137
61 96 142
60 95 133
61 96 149
61 96 143
60 94 130
61 95 131
61 95 135
60 95 131
58 92 129
59 93 125
61 96 142
59 94 133
60 95 140
60 95 141
59 94 121
61 96 134
58 92 124
59 93 139
59 94 130
59 93 126
60 94 133
60 95 134
60 94 126
59 94 128
59 92 128
59 94 136
59 93 121
60 95 135
58 91 117
58 91 121
60 94 135
58 92 117
58 92 117
60 94 126
58 91 111
58 92 117
59 93 128
58 91 118
57 90 115
57 90 104
58 90 117
57 89 101
81 104 94
87 110 84
109 126 44
112 127 25
108 120 0
117 131 0
122 135 0
125 137 0
120 136 0
120 133 0
112 122 0
119 130 0
112 126 0
124 137 0
120 133 0
118 129 0
127 140 0
126 139 0
121 134 0
135 147 0
125 137 0
122 136 0
127 139 0
113 126 0
127 141 0
119 130 0
121 136 0
129 142 0
121 130 0
137 151 0
129 139 0
131 144 0
134 146 0
137 150 0
129 140 0
131 144 0
125 136 0
131 145 0
128 139 0
119 133 0
133 141 0
139 152 0
128 140 0
137 149 0
127 139 0
127 138 0
129 140 0
138 149 0
139 149 0
130 143 0
132 144 0
139 151 0
136 148 0
137 148 0
131 141 0
125 133 0
131 141 0
138 147 0
133 143 0
126 135 0
134 148 0
135 148 0
131 140 0
137 148 0
139 153 0
141 151 0
144 157 0
146 160 0
141 152 0
146 158 0
138 150 0
155 166 0
144 152 0
146 158 0
143 156 0
144 155 0
147 158 0
145 154 0
138 148 0
141 153 0
144 157 0
147 160 0
150 161 0
148 158 0
152 161 0
144 155 0
143 153 0
153 166 0
148 157 0
146 158 0
151 165 0
146 157 0
153 164 0
148 158 0
152 163 0
150 163 0
155 170 0
154 168 0
151 167 0
156 169 0
151 163 0
152 166 0
146 158 0
156 170 0
143 156 0
161 175 0
152 165 0
160 174 0
156 171 0
155 170 0
156 169 0
155 168 0
158 172 0
158 174 0
156 170 0
153 167 0
161 178 0
158 173 0
159 174 0
159 173 0
154 169 0
162 179 0
155 170 0
165 180 0
155 167 0
160 175 0
158 174 0
163 181 0
160 176 0
155 172 0
164 183 0
160 177 0
163 179 0
166 185 0
160 174 0
159 179 0
160 177 0
160 178 0
164 182 0
161 179 0
161 177 0
164 186 0
165 182 0
162 180 0
166 185 0
158 175 0
165 183 0
159 179 0
159 178 0
158 174 0
168 189 0
166 186 0
167 185 0
164 183 0
174 197 62
171 195 67
170 193 84
173 197 67
169 192 57
172 197 72
170 194 72
170 194 76
174 198 105
174 198 88
171 194 44
173 198 76
171 195 72
169 194 80
169 194 67
174 197 67
169 193 88
170 194 57
171 194 80
167 191 76
169 192 72
174 198 80
166 190 72
168 192 88
168 194 99
172 196 67
173 196 76
169 193 80
169 193 57
169 193 62
167 192 51
165 189 44
170 194 62
172 196 76
162 186 76
170 195 62
168 193 72
168 192 44
169 193 80
168 192 88
169 194 95
167 191 80
163 186 80
169 194 88
166 190 62
167 191 51
168 191 57
166 190 84
167 191 80
163 187 92
171 195 72
166 189 51
167 192 76
163 187 57
170 195 99
165 190 80
166 189 67
162 186 57
164 188 80
165 190 72
166 190 72
163 187 76
163 186 57
168 192 80
166 189 84
163 187 80
162 186 80
159 183 88
161 185 82
164 187 72
166 190 67
152 176 57
164 187 88
161 184 44
160 183 57
162 185 76
159 181 57
163 186 72
159 182 67
158 182 100
149 173 78
140 163 76
126 150 117
104 131 131
90 118 129
99 126 142
83 112 134
91 120 141
83 112 137
96 123 151
96 123 144
87 116 147
83 112 155
99 127 159
84 113 163
94 122 164
87 116 159
98 125 157
106 132 155
97 124 153
90 117 149
95 122 156
108 134 155
94 122 159
96 122 144
102 128 156
98 126 151
88 116 151
91 117 156
99 126 167
91 120 165
98 125 162
92 119 156
98 125 151
81 111 155
86 116 165
82 111 156
84 113 153
77 108 161
82 111 159
70 103 158
75 106 159
64 99 167
82 111 160
78 108 159
65 99 156
64 98 155
64 98 157
73 105 156
68 101 157
64 99 156
66 99 160
71 102 150
69 102 152
67 99 135
62 97 151
63 97 144
64 98 151
61 96 146
63 98 149
62 97 151
66 99 141
62 97 152
60 94 137
62 95 137
61 95 147
60 95 142
64 97 138
62 97 154
63 97 152
60 96 144
61 96 150
61 95 144
62 97 146
62 97 150
63 98 153
60 95 143
61 96 143
62 97 158
61 96 148
61 96 143
62 97 151
61 96 140
61 96 145
60 95 142
61 96 149
60 95 141
61 96 143
62 97 157
62 97 150
60 95 147
61 95 139
62 97 150
61 96 152
61 96 140
60 95 142
62 98 152
60 95 144
62 97 150
61 96 143
61 96 153
61 96 140
61 96 143
61 95 139
60 95 143
62 97 151
62 97 147
60 95 131
61 96 147
61 96 140
60 95 135
60 95 137
61 95 137
60 94 131
61 96 141
60 96 140
60 95 139
60 95 133
61 96 139
62 97 147
61 96 141
60 95 139
61 96 139
60 94 137
61 96 143
61 96 141
60 94 128
60 95 129
60 94 134
60 95 136
60 94 136
60 95 136
60 95 135
60 95 137
60 94 126
60 94 131
60 95 140
61 96 137
59 93 129
61 96 137
60 95 134
59 94 128
60 95 141
61 96 140
57 91 111
60 95 128
60 94 133
59 94 128
59 93 122
58 92 118
59 94 129
57 91 107
60 94 131
59 92 121
58 92 121
59 93 128
58 91 117
59 93 131
59 93 115
58 92 125
59 93 129
58 91 123
59 92 118
57 90 116
60 89 98
78 100 94
86 106 76
92 106 60
99 113 40
114 127 0
115 130 0
121 133 0
117 130 0
120 133 0
115 130 0
107 116 0
124 137 0
115 128 0
126 139 0
118 131 0
131 146 0
121 133 0
123 137 0
114 124 0
131 145 0
119 131 0
127 139 0
122 133 0
124 137 0
135 148 0
135 146 0
117 131 0
139 154 0
127 139 0
125 138 0
132 144 0
129 139 0
125 136 0
124 136 0
115 126 0
139 155 0
125 134 0
128 141 0
125 136 0
129 140 0
131 142 0
131 144 0
135 148 0
128 140 0
137 149 0
130 141 0
136 151 0
126 139 0
137 146 0
142 151 0
135 146 0
141 155 0
142 154 0
131 143 0
136 148 0
134 147 0
135 145 0
129 141 0
143 155 0
142 154 0
144 157 0
136 148 0
133 144 0
136 145 0
138 149 0
143 155 0
151 164 0
145 158 0
136 147 0
135 146 0
136 148 0
138 152 0
139 150 0
143 154 0
145 158 0
144 156 0
145 158 0
143 155 0
146 158 0
148 160 0
148 161 0
149 162 0
147 157 0
147 159 0
143 152 0
146 161 0
154 166 0
155 166 0
147 161 0
158 175 0
147 160 0
151 163 0
150 163 0
155 168 0
152 166 0
143 158 0
157 171 0
142 154 0
162 177 0
147 160 0
158 174 0
154 170 0
151 165 0
153 167 0
154 169 0
156 170 0
154 169 0
148 161 0
149 162 0
155 167 0
155 171 0
161 176 0
157 172 0
155 169 0
157 172 0
156 171 0
158 172 0
155 169 0
154 170 0
161 176 0
155 169 0
156 173 0
156 172 0
161 176 0
156 171 0
156 174 0
159 176 0
159 177 0
158 173 0
158 175 0
163 176 0
163 180 0
161 176 0
151 168 0
162 178 0
165 182 0
161 178 0
161 178 0
167 185 0
161 179 0
161 179 0
162 179 0
160 178 0
164 182 0
159 177 0
166 185 0
163 182 0
163 180 0
163 182 0
164 184 0
165 184 0
163 182 0
161 179 0
164 184 0
160 180 0
172 196 72
174 198 84
172 196 67
171 195 72
173 197 80
173 197 72
174 198 88
169 194 62
174 198 88
168 192 80
170 195 76
171 196 57
169 193 51
170 194 72
173 197 76
172 196 84
166 190 57
169 193 76
171 194 51
169 193 67
169 193 76
172 196 80
173 197 84
172 197 76
171 196 92
170 195 88
171 195 72
165 189 84
174 197 57
167 191 72
166 190 62
167 192 67
165 189 67
171 196 80
169 193 99
165 188 51
170 194 57
167 190 72
170 194 95
169 193 80
169 193 88
168 193 80
167 191 84
171 195 72
168 192 80
168 192 62
170 194 62
166 190 57
168 192 80
166 191 80
164 188 95
168 193 72
168 192 76
166 190 84
166 189 62
165 188 62
164 187 44
163 187 72
163 188 80
166 190 57
165 189 72
164 189 72
168 192 67
165 189 62
164 188 76
167 190 67
165 188 80
159 183 51
165 188 57
161 184 67
162 186 72
163 187 76
157 180 57
165 189 67
163 186 62
156 179 51
161 184 67
156 179 57
162 184 67
160 182 95
152 175 54
149 172 92
131 156 103
110 135 118
86 113 111
81 111 136
85 114 129
77 107 128
91 118 135
84 114 133
92 120 160
97 125 158
104 131 158
96 123 155
92 120 143
89 117 161
92 121 161
103 130 158
95 123 156
91 118 145
97 124 158
109 133 150
92 120 157
94 121 153
89 117 157
95 124 155
103 128 148
87 116 155
97 124 150
100 127 153
77 109 154
96 124 159
90 119 154
83 112 150
91 119 160
91 119 162
81 111 158
79 109 155
94 122 157
83 112 156
75 106 156
72 104 162
83 113 167
79 110 157
67 102 163
75 107 166
68 100 157
76 105 158
66 100 161
67 100 149
74 105 149
68 100 155
65 99 155
63 97 154
75 106 158
68 100 141
63 97 149
62 97 147
67 99 142
61 95 142
60 95 140
70 103 154
60 95 140
60 95 142
61 96 151
61 96 146
58 92 132
60 95 148
62 97 149
60 95 147
61 96 149
61 96 144
62 97 149
59 94 135
61 96 144
61 96 149
60 95 135
61 96 153
61 96 142
61 96 142
61 96 143
60 95 144
61 96 148
61 96 141
59 94 137
61 96 142
62 98 152
60 95 134
62 98 157
61 96 140
62 96 148
61 95 145
62 97 150
62 97 145
60 95 135
61 96 137
61 96 148
61 96 139
61 96 139
60 95 136
61 96 145
60 95 139
59 93 131
61 96 137
61 96 140
61 97 142
61 96 142
60 95 134
61 96 145
60 94 138
60 95 137
61 96 137
59 94 135
61 96 143
61 96 140
60 94 131
59 94 135
61 95 142
61 96 136
60 95 134
61 95 135
61 96 136
60 95 141
62 97 148
61 95 137
61 96 140
60 95 135
60 95 139
61 96 140
58 92 133
60 94 137
62 96 141
58 93 118
61 95 142
61 95 134
61 96 136
60 95 136
60 95 142
61 95 144
60 95 131
60 94 130
61 96 140
60 94 135
61 95 137
60 94 125
59 93 126
60 95 135
58 92 125
59 92 121
59 93 129
59 93 126
58 92 122
60 95 135
60 95 130
60 95 140
57 90 124
60 93 129
58 91 120
57 90 117
58 91 118
59 93 128
56 89 103
59 93 130
60 91 108
75 100 92
84 105 70
90 106 44
107 121 36
117 132 0
124 139 0
118 132 0
115 126 0
116 127 0
125 139 0
119 133 0
123 137 0
112 124 0
113 125 0
118 131 0
123 137 0
123 139 0
127 142 0
129 142 0
127 137 0
123 135 0
133 146 0
122 137 0
126 138 0
136 150 0
124 137 0
135 151 0
132 146 0
131 144 0
117 131 0
118 132 0
135 147 0
132 147 0
136 149 0
135 148 0
136 149 0
131 146 0
135 149 0
135 148 0
133 148 0
133 143 0
127 139 0
132 143 0
135 149 0
130 143 0
138 150 0
130 143 0
137 153 0
127 137 0
132 142 0
141 154 0
139 151 0
141 153 0
137 150 0
141 152 0
140 152 0
135 147 0
132 143 0
143 155 0
134 146 0
143 152 0
141 155 0
142 150 0
145 157 0
137 150 0
140 153 0
140 150 0
135 145 0
143 155 0
150 162 0
146 161 0
139 152 0
144 158 0
136 150 0
144 156 0
138 149 0
144 156 0
142 154 0
139 152 0
136 149 0
145 159 0
139 151 0
138 147 0
147 161 0
146 159 0
138 150 0
150 163 0
149 163 0
151 164 0
154 168 0
152 165 0
150 163 0
151 165 0
141 152 0
151 163 0
151 165 0
147 161 0
154 167 0
148 162 0
151 164 0
148 161 0
154 166 0
148 160 0
159 175 0
153 167 0
153 169 0
155 170 0
153 169 0
148 163 0
155 170 0
155 168 0
153 167 0
156 171 0
152 165 0
155 172 0
151 164 0
155 170 0
159 175 0
158 173 0
153 168 0
162 177 0
154 170 0
161 176 0
159 175 0
159 176 0
157 173 0
163 179 0
157 174 0
157 172 0
159 175 0
161 178 0
164 183 0
158 174 0
156 174 0
158 174 0
160 178 0
158 177 0
165 182 0
160 176 0
164 183 0
160 175 0
166 184 0
162 182 0
160 179 0
164 182 0
162 179 0
165 184 0
163 182 0
164 182 0
167 184 0
160 177 0
163 180 0
162 176 0
164 182 0
162 181 0
168 187 0
171 196 76
172 196 76
173 197 62
172 196 80
170 193 62
171 195 76
173 197 80
173 197 80
169 193 72
171 195 80
174 197 72
167 190 57
170 193 62
174 198 88
171 196 88
170 194 62
173 197 95
169 193 36
170 194 72
174 197 88
171 194 57
170 194 80
170 193 44
173 197 67
168 193 76
173 197 62
167 192 84
169 193 80
172 196 99
168 191 62
168 192 62
164 189 88
168 191 72
168 192 76
168 193 67
167 191 88
168 193 92
164 189 62
169 193 57
171 195 84
167 192 80
164 188 76
162 188 84
169 194 102
169 193 80
168 191 76
163 187 51
169 194 72
165 190 80
166 190 76
168 192 67
163 187 44
167 191 80
166 190 76
167 191 80
167 191 80
165 189 62
162 185 80
172 194 84
166 191 76
158 182 67
154 179 76
161 185 57
162 185 80
160 185 92
155 178 57
159 183 80
162 186 84
161 185 72
166 189 44
159 181 62
159 183 67
157 181 76
159 182 80
159 183 67
163 186 72
163 187 80
161 184 72
159 181 80
155 178 76
158 180 84
153 176 72
140 163 90
122 147 84
86 114 114
102 128 137
91 119 136
85 114 132
84 113 146
90 117 139
77 107 135
83 113 145
83 111 134
102 129 151
95 122 146
92 121 150
88 117 140
94 122 165
90 118 154
97 125 164
94 121 154
94 122 153
95 122 156
106 131 156
102 129 160
96 124 149
103 130 147
104 131 161
94 122 158
87 116 153
91 120 158
95 123 158
84 113 152
87 116 156
81 112 164
92 120 155
94 121 162
87 115 158
81 110 160
85 114 161
75 106 161
79 110 153
72 104 162
79 109 165
69 103 162
82 111 150
65 99 153
79 108 151
73 103 155
65 99 153
65 100 159
71 103 152
67 100 149
64 98 156
69 101 158
67 99 140
67 99 143
64 97 137
63 97 150
64 98 145
66 100 152
60 95 143
61 96 149
64 98 143
68 101 144
62 98 154
62 97 151
62 97 148
61 96 145
61 95 145
60 95 148
60 95 143
61 96 150
59 94 137
61 96 138
62 97 151
61 97 150
60 95 144
62 97 143
62 97 155
61 96 140
62 97 150
60 95 139
62 96 142
59 94 130
60 94 134
59 94 137
61 95 144
61 96 144
61 95 141
61 96 142
61 96 153
60 96 141
61 96 143
61 96 143
59 94 122
61 97 155
61 96 140
60 95 147
61 96 134
61 96 139
60 94 139
60 95 134
59 94 130
62 98 153
61 96 142
61 96 135
61 96 141
60 94 135
60 94 136
59 94 134
62 97 147
61 95 137
61 96 140
60 94 133
60 96 143
61 95 139
60 95 139
60 95 133
61 96 136
60 95 136
61 96 141
60 95 136
59 94 130
60 95 130
60 94 129
61 96 140
62 96 142
60 95 130
60 95 134
60 95 130
60 95 135
60 95 130
59 94 135
60 94 134
61 96 142
59 94 130
60 95 137
61 95 134
60 95 135
58 92 124
58 91 117
59 93 121
58 92 120
60 94 133
59 92 125
59 94 130
59 94 129
59 93 129
58 92 121
59 93 125
58 92 121
57 90 115
59 94 131
60 95 135
57 90 115
58 91 117
58 92 115
58 91 120
57 90 117
57 91 120
54 86 107
57 89 118
65 95 113
88 111 92
100 119 72
105 120 47
114 126 0
116 129 0
134 147 0
122 137 0
114 127 0
119 136 0
131 146 0
115 130 0
129 142 0
126 141 0
127 142 0
125 139 0
124 137 0
130 144 0
120 132 0
121 135 0
126 139 0
123 137 0
117 130 0
127 141 0
127 139 0
125 137 0
131 146 0
135 149 0
136 150 0
123 136 0
119 132 0
143 157 0
123 136 0
131 143 0
136 148 0
133 145 0
124 137 0
134 146 0
128 141 0
122 137 0
137 150 0
123 136 0
132 146 0
133 146 0
128 141 0
140 154 0
136 149 0
137 149 0
136 147 0
129 143 0
128 142 0
140 154 0
141 151 0
129 142 0
132 144 0
136 147 0
130 142 0
133 144 0
135 145 0
146 158 0
138 150 0
138 148 0
144 157 0
137 147 0
141 155 0
142 153 0
136 149 0
148 161 0
142 152 0
138 154 0
144 159 0
136 149 0
141 153 0
144 154 0
143 156 0
137 152 0
143 155 0
144 157 0
139 151 0
148 160 0
153 166 0
151 165 0
155 170 0
147 160 0
151 163 0
139 153 0
152 163 0
148 160 0
144 159 0
153 164 0
153 165 0
153 168 0
151 163 0
151 164 0
147 161 0
148 163 0
150 162 0
150 163 0
152 167 0
155 168 0
151 164 0
152 167 0
158 172 0
151 164 0
156 172 0
153 166 0
152 165 0
151 163 0
158 174 0
150 165 0
153 167 0
157 172 0
158 172 0
151 166 0
155 171 0
156 172 0
161 176 0
154 170 0
158 173 0
164 182 0
156 171 0
157 174 0
160 176 0
161 177 0
157 176 0
164 184 0
157 174 0
157 172 0
160 175 0
162 178 0
158 174 0
155 171 0
163 182 0
155 171 0
161 177 0
162 180 0
161 178 0
154 170 0
160 179 0
165 184 0
159 175 0
160 179 0
158 175 0
162 180 0
160 179 0
168 187 0
164 182 0
167 188 0
165 184 0
163 180 0
163 182 0
164 180 0
163 183 0
166 183 0
166 185 0
169 190 0
166 185 0
171 195 76
170 193 72
174 197 88
171 196 84
172 194 80
170 194 72
170 194 57
167 191 62
172 197 76
170 194 72
169 193 44
173 197 36
166 191 88
171 195 80
171 195 51
170 194 62
170 195 92
169 193 76
168 192 84
171 197 99
166 190 62
165 190 80
171 194 57
167 191 62
167 190 44
171 195 76
168 193 51
165 189 72
171 195 80
171 196 72
168 193 84
171 195 62
166 190 84
168 192 72
171 196 76
167 192 76
166 191 76
167 191 72
168 191 72
165 190 76
173 197 84
168 191 72
170 194 62
171 195 76
163 188 67
162 186 80
164 189 80
159 184 72
172 196 67
167 192 80
162 186 67
164 187 51
165 189 84
162 186 72
165 189 36
161 185 72
157 181 57
163 187 67
160 183 51
167 190 76
165 189 99
160 185 88
159 182 62
169 193 67
165 189 88
165 189 76
164 188 72
160 183 80
157 180 62
162 186 84
162 184 44
158 181 72
159 182 76
158 181 72
160 184 84
159 182 62
162 186 67
160 181 76
159 183 95
160 182 67
159 182 67
154 177 65
140 163 40
130 153 80
107 131 102
81 110 124
90 118 121
95 122 136
105 131 143
98 125 145
85 113 142
98 125 156
91 119 146
95 123 150
89 117 154
92 120 153
85 113 150
105 132 157
91 118 145
98 125 161
95 122 150
101 127 159
85 115 156
89 116 139
89 116 141
108 133 160
104 129 162
100 125 145
102 128 152
106 131 148
93 120 153
109 135 159
78 108 150
89 118 164
96 123 158
88 116 162
82 112 154
92 120 157
86 114 154
85 116 157
94 120 157
71 103 155
79 109 156
80 110 158
77 107 158
68 101 158
82 112 163
69 101 159
71 103 152
72 103 151
70 101 144
72 102 146
67 99 139
77 106 154
67 100 150
65 97 135
66 98 139
63 98 151
66 98 141
64 98 139
62 96 145
65 99 145
67 100 145
60 95 144
60 95 141
61 96 146
63 97 136
61 96 144
60 95 142
59 93 133
61 96 141
60 95 141
62 98 154
61 96 147
60 95 141
62 98 151
60 95 144
62 97 151
60 94 137
61 96 143
60 95 131
60 95 141
61 95 139
62 98 154
62 97 149
61 96 139
61 97 145
60 95 143
62 97 141
60 94 138
61 96 144
61 95 136
62 97 148
61 95 140
60 95 133
61 96 145
61 96 142
61 95 139
60 95 140
61 96 145
60 94 134
61 96 137
60 94 131
60 95 136
61 96 141
61 96 148
59 94 129
60 95 143
60 95 136
61 96 137
60 95 144
60 94 133
61 96 145
59 93 131
60 94 131
60 95 130
61 96 142
60 95 131
60 95 129
61 96 139
59 94 126
60 95 133
60 94 134
61 96 142
61 96 140
59 94 131
59 94 121
61 96 143
60 95 142
60 95 136
59 93 129
61 96 137
59 93 129
61 96 143
59 93 126
57 91 114
59 94 133
59 93 134
59 94 125
59 94 128
60 94 131
61 95 136
61 95 140
58 93 125
60 95 125
58 92 124
59 93 118
59 93 130
59 94 136
58 92 121
59 93 124
57 91 115
58 92 121
58 91 117
58 92 114
58 91 120
56 89 117
57 91 115
59 93 124
59 93 121
56 89 103
57 89 105
62 92 114
80 102 90
99 118 70
111 127 51
111 126 25
118 132 0
114 126 0
114 126 0
120 135 0
113 126 0
113 128 0
124 138 0
120 134 0
130 147 0
133 147 0
121 134 0
111 124 0
128 140 0
127 140 0
138 153 0
133 145 0
119 131 0
124 139 0
129 144 0
129 142 0
132 146 0
136 150 0
133 145 0
115 127 0
128 142 0
122 138 0
123 134 0
130 143 0
132 146 0
132 144 0
129 142 0
129 144 0
134 148 0
130 143 0
135 148 0
126 140 0
127 139 0
133 145 0
130 143 0
125 137 0
147 162 0
137 151 0
137 149 0
136 149 0
136 148 0
134 147 0
140 156 0
129 142 0
133 145 0
146 161 0
135 147 0
144 156 0
136 151 0
145 157 0
143 156 0
139 153 0
135 145 0
139 153 0
141 154 0
143 152 0
143 154 0
143 155 0
138 151 0
139 154 0
139 153 0
143 154 0
141 154 0
139 153 0
141 154 0
139 150 0
139 152 0
145 156 0
142 155 0
145 159 0
141 155 0
150 165 0
146 157 0
147 160 0
144 157 0
150 162 0
143 155 0
143 154 0
146 158 0
147 160 0
147 160 0
151 163 0
143 154 0
156 169 0
149 162 0
156 171 0
151 164 0
150 163 0
148 163 0
152 165 0
152 167 0
151 167 0
152 167 0
153 168 0
159 173 0
152 165 0
154 169 0
155 168 0
145 157 0
151 164 0
152 165 0
155 171 0
150 166 0
151 167 0
153 167 0
155 171 0
149 163 0
159 174 0
157 172 0
150 166 0
162 176 0
160 175 0
155 170 0
156 171 0
157 172 0
165 182 0
161 177 0
156 172 0
154 171 0
158 175 0
163 180 0
157 173 0
165 180 0
158 175 0
160 177 0
160 177 0
161 179 0
163 181 0
159 177 0
155 170 0
165 182 0
160 179 0
165 185 0
157 174 0
161 180 0
167 183 0
165 184 0
164 184 0
165 185 0
166 186 0
161 177 0
165 183 0
158 176 0
162 181 0
165 185 0
163 182 0
163 181 0
162 181 0
163 183 0
170 194 57
169 194 62
172 196 80
170 194 67
172 196 72
170 194 57
172 195 76
172 196 76
172 195 51
171 195 84
173 197 92
170 194 72
169 192 67
173 197 88
170 194 72
169 193 72
169 194 80
172 196 76
167 193 72
172 196 84
170 193 76
172 196 95
169 193 67
170 193 72
168 192 72
169 192 62
164 189 72
166 189 51
169 193 76
171 195 76
169 193 62
168 193 84
170 193 72
165 190 88
167 191 67
173 197 88
166 190 57
166 191 76
168 192 84
170 195 105
164 188 84
166 191 62
165 189 88
163 187 25
165 189 67
168 192 88
164 189 67
168 192 76
168 191 80
165 189 51
164 187 72
163 186 57
167 191 76
164 188 67
163 186 72
170 193 76
163 187 67
162 186 72
163 187 62
162 185 51
162 187 67
159 182 72
161 185 80
162 186 88
165 189 62
159 182 80
162 186 72
164 186 72
166 189 57
162 185 76
166 190 72
159 183 80
163 186 76
158 181 67
158 181 57
154 176 62
161 184 84
157 180 72
160 183 67
157 180 67
159 182 80
155 178 62
151 174 62
133 158 102
122 145 110
110 135 125
85 114 126
86 115 140
95 122 115
84 113 129
87 115 137
103 129 146
84 112 132
77 107 132
91 119 143
96 123 144
93 119 139
86 113 141
99 125 158
84 112 140
96 123 153
100 126 158
92 119 159
97 124 160
99 126 150
90 117 140
98 124 157
99 127 159
102 129 153
90 118 159
97 125 162
100 127 157
97 123 147
83 111 155
92 118 149
96 124 151
82 112 145
79 110 157
81 111 152
89 117 162
84 114 159
78 108 149
84 113 162
66 100 154
79 110 162
65 100 155
78 109 160
67 99 148
65 98 149
78 107 150
69 102 161
66 99 151
70 102 154
64 99 164
67 100 149
65 98 144
72 104 144
66 98 140
72 103 141
60 95 137
64 97 149
61 96 148
64 98 140
60 95 155
62 97 139
63 97 145
62 96 141
66 100 142
61 95 134
62 97 136
61 96 141
62 97 144
60 95 139
60 94 127
59 94 140
60 96 141
61 96 144
62 97 145
61 96 144
61 96 147
62 98 151
62 96 145
61 96 143
60 94 139
60 94 140
60 95 143
60 95 140
60 96 141
61 96 143
61 96 143
61 96 137
60 94 140
61 96 140
62 97 153
61 96 141
62 97 150
61 96 148
61 96 139
61 96 139
60 95 139
60 94 130
60 95 137
60 95 137
62 97 151
62 96 145
61 96 143
61 96 144
61 96 144
61 95 141
61 95 139
61 96 144
61 96 141
60 95 141
60 94 133
61 96 133
60 95 130
60 94 136
62 97 145
62 96 143
62 97 148
62 97 149
59 94 136
62 97 144
62 96 141
60 94 137
61 95 131
59 93 124
59 93 129
60 95 137
61 96 133
58 93 129
61 95 131
61 95 133
61 95 141
60 94 129
59 94 128
59 94 129
60 94 126
61 96 137
58 91 120
60 94 130
59 93 120
59 93 122
59 93 126
59 93 122
57 91 108
58 92 113
59 93 118
60 94 130
59 93 131
58 92 125
61 96 141
58 92 115
58 92 122
57 91 118
59 92 121
58 91 122
59 92 121
58 91 128
56 89 122
57 90 115
61 93 121
69 95 101
89 110 80
100 117 57
111 126 31
113 129 0
120 135 0
120 134 0
120 135 0
126 142 0
110 122 0
126 139 0
126 140 0
105 119 0
116 130 0
131 146 0
117 131 0
129 143 0
130 144 0
131 148 0
125 138 0
126 138 0
121 136 0
129 145 0
124 137 0
127 141 0
121 136 0
127 140 0
115 128 0
138 155 0
143 157 0
127 141 0
123 134 0
135 150 0
141 156 0
126 137 0
119 132 0
129 145 0
122 132 0
121 133 0
134 150 0
130 144 0
131 144 0
133 145 0
134 147 0
131 144 0
140 151 0
137 149 0
141 155 0
135 150 0
142 154 0
143 156 0
131 143 0
137 151 0
132 143 0
130 143 0
133 146 0
135 148 0
136 149 0
139 152 0
139 153 0
138 152 0
129 143 0
142 155 0
137 149 0
142 155 0
138 147 0
140 153 0
143 155 0
146 159 0
133 146 0
140 150 0
143 156 0
142 156 0
138 149 0
134 146 0
147 161 0
149 164 0
145 157 0
145 160 0
148 162 0
145 157 0
150 164 0
148 162 0
142 155 0
148 162 0
145 157 0
147 162 0
153 165 0
151 165 0
147 160 0
149 164 0
153 169 0
148 161 0
154 168 0
149 163 0
152 166 0
147 162 0
147 159 0
159 173 0
147 160 0
153 167 0
157 171 0
156 172 0
154 169 0
146 161 0
142 155 0
156 168 0
150 163 0
151 166 0
159 172 0
148 163 0
152 166 0
150 165 0
161 178 0
151 166 0
154 172 0
153 169 0
159 177 0
157 174 0
153 167 0
156 173 0
152 167 0
154 171 0
160 178 0
162 180 0
159 177 0
154 169 0
153 170 0
159 174 0
159 177 0
153 170 0
161 179 0
157 174 0
165 183 0
159 176 0
163 179 0
156 175 0
164 181 0
162 181 0
161 178 0
161 177 0
161 179 0
162 179 0
162 181 0
167 183 0
168 189 0
163 182 0
161 180 0
159 176 0
168 188 0
164 184 0
162 181 0
163 182 0
165 185 0
161 178 0
166 185 0
163 181 0
164 182 0
173 197 72
173 197 88
173 197 57
171 194 57
171 195 67
168 192 72
171 195 44
170 194 57
168 193 80
169 193 67
170 195 67
168 192 67
170 195 76
172 197 76
170 194 88
170 194 76
170 193 62
170 195 62
167 192 51
167 191 76
170 194 92
169 194 84
175 199 80
170 194 67
168 193 67
172 196 76
163 188 84
167 192 57
166 190 76
164 188 62
172 196 72
165 189 67
168 192 88
171 196 88
167 192 67
172 196 67
170 193 76
163 187 80
167 190 67
168 192 57
168 192 62
167 190 51
168 192 76
170 193 72
165 189 84
163 186 62
166 189 76
164 187 62
168 192 76
164 188 92
167 192 92
168 192 76
165 190 84
167 190 57
167 191 88
165 189 88
162 186 76
165 190 95
165 189 88
166 190 92
156 180 44
153 176 67
163 186 84
167 191 62
159 182 76
160 183 67
156 180 92
159 182 57
164 189 99
162 185 72
161 185 80
162 185 88
159 183 67
162 184 67
155 178 72
157 181 82
156 179 84
159 181 76
148 171 62
154 177 62
156 179 80
156 179 57
161 184 72
156 179 90
136 160 97
120 143 92
106 132 133
98 125 131
88 115 133
90 117 133
88 116 129
96 123 141
99 124 141
87 115 140
86 114 135
86 115 150
97 124 153
91 118 136
80 109 137
80 110 146
98 125 159
89 116 148
81 110 149
85 114 160
95 123 164
96 123 164
99 125 153
108 134 151
94 122 153
99 124 161
102 129 161
91 118 144
98 124 159
81 111 150
103 128 153
98 125 158
91 119 166
95 122 158
96 122 152
82 111 151
65 99 148
81 110 154
89 118 170
81 112 159
83 112 159
71 102 160
83 112 164
74 104 154
85 112 154
70 102 149
68 101 156
68 101 155
66 99 153
65 98 142
61 96 152
70 101 150
69 101 152
61 95 137
68 99 142
69 100 136
60 95 149
59 94 136
59 94 132
63 98 147
65 98 134
60 95 137
61 95 141
60 95 141
58 92 134
60 95 133
61 95 137
60 95 134
62 97 145
64 97 141
61 96 143
61 96 142
60 94 129
60 95 135
60 94 139
61 96 142
62 97 151
61 96 137
60 95 137
63 98 153
61 96 147
62 98 148
60 95 144
62 97 144
62 96 147
62 97 150
61 96 143
59 94 141
60 95 143
59 94 131
60 95 135
60 95 136
59 94 136
60 94 133
61 96 147
60 95 134
60 95 140
60 95 142
60 95 135
61 96 144
60 95 137
60 94 136
60 95 137
60 95 135
59 94 134
60 94 131
60 95 141
59 93 125
60 95 137
60 95 137
59 93 135
60 94 139
60 95 130
59 94 131
59 93 129
60 95 130
61 96 140
61 96 137
61 95 142
60 95 134
59 93 125
61 96 134
59 93 131
61 95 140
59 93 121
60 95 135
60 94 135
60 94 140
60 95 130
60 94 125
59 93 131
58 92 121
59 93 117
58 92 118
60 94 131
58 92 125
60 95 130
59 93 130
58 91 120
59 93 128
59 93 124
60 95 134
60 94 137
57 91 124
59 92 122
56 90 108
58 92 122
59 93 124
58 92 120
58 92 113
57 91 118
57 90 113
56 89 105
58 92 118
57 90 114
55 87 92
58 90 110
73 100 103
84 102 76
94 110 65
113 128 36
107 121 18
123 139 0
117 133 0
108 121 0
110 122 0
119 133 0
109 120 0
121 135 0
123 137 0
124 140 0
123 138 0
126 141 0
126 140 0
129 142 0
120 134 0
121 136 0
131 145 0
135 148 0
123 136 0
118 135 0
118 131 0
128 143 0
127 141 0
130 145 0
127 141 0
128 143 0
130 146 0
134 147 0
122 135 0
133 147 0
124 136 0
134 149 0
132 146 0
123 136 0
132 146 0
141 155 0
129 141 0
132 144 0
134 148 0
125 138 0
138 151 0
126 140 0
138 153 0
140 155 0
138 153 0
139 154 0
136 151 0
138 152 0
132 147 0
132 146 0
151 164 0
140 154 0
127 141 0
131 145 0
147 160 0
137 149 0
141 155 0
138 154 0
150 162 0
143 156 0
137 150 0
140 154 0
126 138 0
139 152 0
146 159 0
139 152 0
144 155 0
144 156 0
145 156 0
144 157 0
149 165 0
144 159 0
141 155 0
151 165 0
143 156 0
146 159 0
153 169 0
155 169 0
140 153 0
140 154 0
148 160 0
156 172 0
149 161 0
145 157 0
149 165 0
150 167 0
157 173 0
146 159 0
154 170 0
152 166 0
148 162 0
146 158 0
148 162 0
155 168 0
147 162 0
154 168 0
154 166 0
154 168 0
156 173 0
164 179 0
159 176 0
155 170 0
152 168 0
152 166 0
153 167 0
156 172 0
154 172 0
155 172 0
158 174 0
151 167 0
157 174 0
158 176 0
153 168 0
156 171 0
160 177 0
160 175 0
159 176 0
158 175 0
158 175 0
156 173 0
155 172 0
162 180 0
164 181 0
164 180 0
162 178 0
164 181 0
156 173 0
161 179 0
164 181 0
159 175 0
162 178 0
160 179 0
161 180 0
162 182 0
154 174 0
159 175 0
164 183 0
160 176 0
159 177 0
162 180 0
165 184 0
162 180 0
165 184 0
161 179 0
164 183 0
164 183 0
163 182 0
164 183 0
163 182 0
159 178 0
167 187 0
166 186 0
163 180 0
165 187 0
166 186 0
171 195 92
170 194 44
174 198 80
171 195 72
171 195 72
172 196 67
171 194 57
172 197 84
169 193 84
171 195 88
170 194 57
166 189 67
170 194 80
168 192 62
174 198 99
168 192 76
169 193 76
167 191 57
167 191 67
169 193 72
168 192 51
172 197 84
169 193 76
169 193 62
168 193 80
170 195 95
164 188 76
168 192 84
167 192 84
171 195 67
167 192 84
167 191 76
169 194 88
167 191 76
164 188 57
162 186 62
171 196 76
169 193 62
166 190 51
170 194 57
167 192 95
164 188 67
166 189 76
166 191 72
167 191 76
167 190 44
163 188 72
166 191 72
165 189 84
167 190 84
166 190 72
162 186 44
165 189 67
161 184 62
163 187 62
167 192 99
163 187 72
164 188 62
165 189 44
165 189 67
166 189 84
162 186 99
165 188 36
161 186 92
162 185 62
164 188 76
152 176 76
166 189 57
166 189 72
164 188 92
165 188 67
158 182 88
163 186 72
159 182 88
156 180 95
158 181 88
154 177 92
163 186 72
157 180 62
160 183 92
158 181 72
157 179 67
157 179 67
152 176 67
158 180 84
136 159 76
120 145 110
92 120 129
81 110 139
104 131 135
87 114 124
81 109 122
83 112 135
91 118 139
90 117 141
87 115 137
87 114 138
84 110 127
87 116 150
98 126 147
98 124 153
92 119 147
104 129 159
98 125 150
84 113 147
97 124 157
97 123 158
101 127 146
89 117 145
95 121 153
100 127 162
90 119 149
102 127 151
96 122 141
90 118 156
75 105 145
84 113 159
99 126 162
86 115 152
80 109 151
88 117 156
79 109 149
87 116 164
82 110 164
76 108 158
73 105 155
72 103 158
69 100 141
71 103 157
74 104 153
80 109 149
67 100 151
64 97 142
69 100 147
68 99 141
63 96 144
68 101 156
66 99 141
63 97 140
67 100 139
69 99 134
66 98 129
62 96 135
60 93 124
62 96 137
62 96 138
60 95 137
65 99 144
59 94 139
60 95 131
61 95 129
60 95 134
60 95 129
60 95 130
61 95 137
60 95 134
61 96 145
61 96 139
60 95 141
61 96 144
60 95 133
60 95 137
61 96 140
61 96 142
61 95 139
60 95 140
61 96 143
60 95 134
61 95 137
59 93 133
60 95 134
60 94 133
61 95 139
61 96 145
61 96 141
62 97 141
60 94 133
61 96 140
60 94 128
60 94 137
60 95 135
60 95 137
61 95 146
60 95 131
62 96 145
61 96 135
61 96 137
60 95 130
61 97 147
62 97 140
60 94 135
60 95 130
62 97 142
61 96 147
61 95 140
61 95 133
60 94 134
59 93 130
60 94 129
61 96 135
61 96 137
60 95 144
59 93 120
60 94 131
56 90 105
60 95 131
58 92 125
60 95 136
61 96 137
58 92 126
60 95 142
60 94 129
59 93 118
58 92 122
59 94 129
59 93 128
59 93 122
57 91 128
60 94 131
59 93 125
58 92 121
59 93 125
58 92 115
60 94 128
59 93 126
59 93 114
59 93 130
58 92 120
59 93 124
58 92 128
57 90 113
58 92 120
59 93 124
57 90 103
57 90 110
58 92 114
58 92 117
58 90 123
56 89 102
57 89 103
71 95 88
95 114 74
109 127 54
99 113 31
109 125 18
124 137 0
113 126 0
107 121 0
124 137 0
113 125 0
114 127 0
131 145 0
119 131 0
124 138 0
125 139 0
126 141 0
105 119 0
130 144 0
127 141 0
131 146 0
122 136 0
128 143 0
125 140 0
134 148 0
131 146 0
134 147 0
126 140 0
136 148 0
120 134 0
126 138 0
133 148 0
130 145 0
128 144 0
133 149 0
130 145 0
131 144 0
127 141 0
137 152 0
142 158 0
129 141 0
139 155 0
132 148 0
129 144 0
126 139 0
136 154 0
140 155 0
138 154 0
132 146 0
142 156 0
134 147 0
139 154 0
137 152 0
143 157 0
131 147 0
136 149 0
137 151 0
130 142 0
135 146 0
139 152 0
139 153 0
137 151 0
144 160 0
135 150 0
145 159 0
145 160 0
141 155 0
134 146 0
136 147 0
147 159 0
142 154 0
143 153 0
142 156 0
142 151 0
142 155 0
145 161 0
153 169 0
140 152 0
139 153 0
148 162 0
143 158 0
154 169 0
149 165 0
145 159 0
145 159 0
134 143 0
152 166 0
147 162 0
148 161 0
152 166 0
148 162 0
149 165 0
150 166 0
148 159 0
142 156 0
161 176 0
153 169 0
152 166 0
151 165 0
157 172 0
142 157 0
153 167 0
157 170 0
155 171 0
158 172 0
154 167 0
154 169 0
153 169 0
158 176 0
151 166 0
152 166 0
159 174 0
155 171 0
154 171 0
160 177 0
155 172 0
163 183 0
158 173 0
144 159 0
159 176 0
155 169 0
155 171 0
154 170 0
156 173 0
159 175 0
157 174 0
153 168 0
145 160 0
161 178 0
164 181 0
160 176 0
161 178 0
163 181 0
162 181 0
157 173 0
157 174 0
159 175 0
163 182 0
159 176 0
159 177 0
163 182 0
162 182 0
165 183 0
157 174 0
163 182 0
166 183 0
164 182 0
157 177 0
158 176 0
160 178 0
159 178 0
162 181 0
164 183 0
158 176 0
158 176 0
167 186 0
162 181 0
159 180 0
162 181 0
163 182 0
163 183 0
173 197 67
173 197 72
170 194 67
167 191 76
173 197 67
172 195 62
168 191 62
173 197 88
169 192 76
170 194 72
172 196 80
170 194 57
172 196 72
171 195 57
167 191 92
170 194 62
170 193 67
172 196 67
168 192 88
172 195 76
168 192 62
161 185 72
171 194 88
166 190 76
168 193 62
167 191 80
169 193 72
169 193 84
169 193 62
167 191 62
168 191 72
165 190 67
171 194 76
166 190 57
167 192 57
165 190 80
166 190 76
168 192 88
166 192 95
169 194 88
168 192 88
167 191 76
164 189 57
163 188 72
165 188 76
172 195 76
162 187 67
161 184 72
167 192 84
164 189 84
162 187 67
163 187 76
161 185 67
167 191 80
165 189 84
166 191 80
163 187 84
164 188 88
158 182 76
167 191 62
165 189 88
164 188 62
162 187 72
162 184 67
162 185 76
162 184 62
163 187 72
160 183 67
154 178 62
161 185 62
164 188 95
159 184 72
162 185 72
158 181 76
160 183 84
152 176 67
158 182 62
157 179 57
156 179 88
156 179 67
156 178 72
152 175 51
160 182 76
157 179 88
157 180 82
137 159 94
120 144 115
103 128 99
85 113 113
78 107 106
89 116 126
85 112 125
93 119 124
100 126 145
82 110 124
97 123 136
92 119 145
95 121 144
107 133 145
89 116 136
85 112 143
93 120 151
92 119 133
91 119 156
84 112 147
102 128 152
99 125 151
104 130 164
90 117 150
89 118 149
92 118 139
82 111 139
90 117 150
106 131 149
97 124 151
102 128 155
82 111 150
97 124 158
81 112 150
89 117 152
85 114 152
75 105 138
78 108 147
89 117 167
88 116 153
84 113 159
76 107 160
75 106 156
71 103 162
73 104 147
66 98 153
66 98 146
72 102 146
62 96 142
76 105 144
69 101 143
68 99 143
71 102 142
68 99 129
69 101 148
67 99 131
63 97 144
70 102 139
60 95 137
60 95 144
64 97 140
59 93 123
58 92 123
60 94 131
62 96 136
62 95 125
60 94 136
58 92 124
62 96 131
58 93 124
59 93 137
59 94 135
58 92 124
59 94 128
60 95 137
60 95 131
61 96 141
61 95 130
60 94 136
59 94 135
59 93 129
60 95 139
61 96 142
60 95 137
60 95 139
60 94 139
61 95 136
60 95 136
59 93 128
60 94 134
60 94 125
61 95 137
60 95 141
61 95 142
60 95 137
60 94 131
62 97 144
61 95 143
60 95 130
61 96 137
60 95 142
61 97 145
59 93 128
60 95 137
60 95 141
60 95 141
61 96 141
58 93 121
61 96 137
61 96 142
61 95 134
58 92 124
59 93 128
59 93 130
60 94 142
60 95 136
59 93 135
59 93 130
59 94 129
59 94 129
60 95 140
61 95 134
60 95 131
58 92 126
60 95 139
59 94 131
58 93 118
60 94 129
58 92 126
59 94 125
59 93 128
60 94 131
59 93 122
58 92 121
59 94 124
59 93 126
60 94 129
57 90 113
58 92 110
57 90 114
58 91 120
58 92 122
59 93 118
58 91 115
58 92 114
59 92 122
58 91 107
58 92 115
57 90 118
58 92 118
58 91 120
56 90 102
58 91 110
67 96 103
84 107 99
86 109 86
89 110 60
110 127 51
118 131 25
119 135 0
116 130 0
111 128 0
115 130 0
110 123 0
125 141 0
122 137 0
115 127 0
107 121 0
125 139 0
123 136 0
126 141 0
128 144 0
131 146 0
121 135 0
133 149 0
122 137 0
125 137 0
126 141 0
129 144 0
127 141 0
117 130 0
132 147 0
134 149 0
129 145 0
126 140 0
135 151 0
134 149 0
133 149 0
132 148 0
126 139 0
129 142 0
146 162 0
139 154 0
126 140 0
138 154 0
129 143 0
144 158 0
134 149 0
124 138 0
135 150 0
128 141 0
138 151 0
138 152 0
143 158 0
138 152 0
135 150 0
142 156 0
129 144 0
141 155 0
131 145 0
135 149 0
142 156 0
136 150 0
137 154 0
138 153 0
141 153 0
144 159 0
140 154 0
140 155 0
141 154 0
136 150 0
139 153 0
147 160 0
144 157 0
140 153 0
145 160 0
140 153 0
151 166 0
149 163 0
148 164 0
143 156 0
148 160 0
152 167 0
144 159 0
146 160 0
150 164 0
146 161 0
146 163 0
150 163 0
147 162 0
151 166 0
147 160 0
148 162 0
145 159 0
147 161 0
149 163 0
154 169 0
153 169 0
153 168 0
156 170 0
156 170 0
153 169 0
145 160 0
155 172 0
157 171 0
157 172 0
157 168 0
154 171 0
146 160 0
155 169 0
158 174 0
152 168 0
158 174 0
152 165 0
155 171 0
145 159 0
154 170 0
152 168 0
158 175 0
154 168 0
156 172 0
157 172 0
156 172 0
158 175 0
158 177 0
154 171 0
159 173 0
158 178 0
163 178 0
160 175 0
159 174 0
162 180 0
158 176 0
161 178 0
161 178 0
164 182 0
162 177 0
161 178 0
156 173 0
158 175 0
161 178 0
164 182 0
157 175 0
163 182 0
159 177 0
161 179 0
160 178 0
163 181 0
165 183 0
160 179 0
162 178 0
154 171 0
160 181 0
164 184 0
161 179 0
162 180 0
168 188 0
166 185 0
163 182 0
165 184 0
166 185 0
167 188 0
163 184 0
164 185 0
166 187 0
171 195 72
171 194 57
175 199 76
170 194 62
170 195 62
171 195 72
172 196 62
174 198 84
172 196 76
169 193 62
172 195 67
171 195 92
168 192 51
172 197 80
171 195 80
168 192 67
168 192 67
170 195 72
172 197 76
167 191 67
172 197 84
171 194 57
169 193 84
166 190 92
171 194 76
168 193 92
169 193 51
164 187 44
166 190 76
170 195 72
168 192 72
163 188 67
165 189 88
167 191 57
168 191 51
166 190 72
162 186 84
162 186 62
162 186 92
170 193 57
168 192 80
160 184 76
169 193 72
162 186 80
166 191 88
169 193 76
167 192 72
166 189 80
166 190 57
161 185 67
170 194 84
162 186 57
161 185 67
165 188 57
162 186 62
167 191 84
163 187 76
157 182 72
162 186 67
165 188 44
166 190 80
156 179 72
159 182 44
164 186 67
158 182 62
162 185 57
161 185 51
157 180 84
155 178 72
163 185 67
161 185 92
157 180 67
158 181 80
158 181 92
161 184 67
158 181 84
159 182 51
154 177 76
161 184 102
157 180 84
160 183 67
151 174 72
151 173 67
157 179 62
143 166 57
143 164 88
145 167 97
131 153 107
96 122 103
83 111 125
89 116 129
84 113 128
81 110 124
90 117 134
83 111 124
86 114 128
79 108 134
95 122 126
98 124 143
82 109 132
87 115 137
95 122 134
89 116 148
92 120 159
98 124 143
97 123 155
90 118 146
94 121 145
95 121 145
110 134 159
94 122 139
97 122 149
102 129 150
91 117 138
101 127 154
101 127 146
92 120 155
90 118 147
89 117 156
86 114 151
86 114 156
77 106 153
89 117 157
79 109 157
80 110 160
84 112 145
75 105 149
63 98 157
71 101 141
77 105 152
75 104 148
63 95 130
71 102 147
69 99 148
67 100 149
68 100 144
71 102 149
68 100 146
73 104 142
62 97 139
62 95 137
68 100 132
59 92 116
62 95 135
64 97 136
67 98 119
60 94 124
60 94 129
61 95 129
62 96 133
62 96 130
61 95 124
61 95 129
59 93 133
59 94 122
59 94 124
59 93 129
58 93 129
59 93 121
61 96 143
61 96 149
61 96 134
58 93 117
59 93 131
61 95 137
60 94 135
61 96 144
60 94 131
61 96 144
61 96 139
60 94 139
61 96 143
58 93 124
60 94 137
59 93 131
60 94 135
60 94 140
61 96 140
60 94 126
62 97 142
58 92 128
61 96 140
61 96 145
59 94 125
60 94 133
58 92 122
61 96 133
60 94 131
60 95 130
60 95 134
62 96 144
61 95 140
59 93 125
60 94 134
58 92 129
59 93 122
59 94 122
59 93 121
59 94 134
59 93 121
60 95 130
59 93 125
59 94 131
59 93 130
58 91 115
58 92 121
58 93 124
59 94 136
60 94 129
59 94 130
58 92 120
57 90 110
56 89 118
59 93 130
61 96 133
60 94 125
57 90 111
58 91 124
58 92 122
61 95 133
58 92 118
60 94 128
58 92 124
60 94 126
60 94 134
58 92 122
58 92 114
57 90 115
59 93 130
56 89 111
57 90 117
57 90 120
58 92 118
56 87 100
56 89 103
58 91 115
57 89 101
66 95 100
70 96 84
84 105 70
104 121 47
99 114 47
107 122 18
117 131 0
108 122 0
111 125 0
125 139 0
112 127 0
117 131 0
128 142 0
116 131 0
105 117 0
115 127 0
116 128 0
122 138 0
123 137 0
130 146 0
122 136 0
120 135 0
120 132 0
132 147 0
122 138 0
135 148 0
133 149 0
136 151 0
118 131 0
121 135 0
121 134 0
123 137 0
127 144 0
129 142 0
128 143 0
132 147 0
130 144 0
123 138 0
136 151 0
130 144 0
134 148 0
130 146 0
140 155 0
132 147 0
137 153 0
135 148 0
137 155 0
131 144 0
130 143 0
119 133 0
135 153 0
140 156 0
138 153 0
131 146 0
137 151 0
141 155 0
142 156 0
141 157 0
143 159 0
130 143 0
139 153 0
130 145 0
137 153 0
145 159 0
141 156 0
146 161 0
144 160 0
145 159 0
145 158 0
131 147 0
139 151 0
144 156 0
137 152 0
136 150 0
139 151 0
151 166 0
134 147 0
152 166 0
145 161 0
137 150 0
145 159 0
147 162 0
139 152 0
148 164 0
146 159 0
144 157 0
139 153 0
152 167 0
146 162 0
143 154 0
152 166 0
147 162 0
150 164 0
153 167 0
158 175 0
144 158 0
149 162 0
153 169 0
150 164 0
152 167 0
153 168 0
153 168 0
151 166 0
146 160 0
154 171 0
157 173 0
150 164 0
157 175 0
157 170 0
155 170 0
150 167 0
151 166 0
152 165 0
159 173 0
146 160 0
154 169 0
158 175 0
147 164 0
162 179 0
155 172 0
162 179 0
157 173 0
157 172 0
154 168 0
155 172 0
160 174 0
162 181 0
158 176 0
156 173 0
152 168 0
158 173 0
163 180 0
161 178 0
160 175 0
158 175 0
161 179 0
165 183 0
159 177 0
163 180 0
163 183 0
160 177 0
156 172 0
164 182 0
158 177 0
162 181 0
166 185 0
165 185 0
162 180 0
162 180 0
163 181 0
163 182 0
164 183 0
163 182 0
160 180 0
167 184 0
166 188 0
163 182 0
163 181 0
158 176 0
162 181 0
165 185 0
160 178 0
164 184 0
171 195 62
171 195 62
174 197 57
172 196 62
171 196 62
168 192 62
168 193 76
172 196 80
169 193 76
173 197 76
171 196 105
171 195 62
168 192 72
169 193 51
171 194 72
169 193 80
164 189 95
170 195 99
168 192 44
170 195 84
164 188 72
167 191 76
172 195 76
167 191 51
169 193 72
170 195 84
169 192 67
165 188 51
174 199 92
165 190 67
169 192 57
162 186 67
166 191 72
161 185 76
164 189 84
167 192 76
165 189 67
168 193 84
168 192 80
168 193 88
167 191 72
161 185 67
163 187 57
160 184 62
162 187 51
164 189 92
161 184 84
165 188 84
162 186 84
167 193 88
163 188 84
161 185 80
168 192 88
162 187 80
160 184 72
161 184 44
162 184 67
160 185 62
162 186 57
163 187 84
163 186 44
165 189 84
157 181 67
160 185 95
161 184 62
161 185 76
161 184 62
154 177 62
156 180 67
165 189 76
153 175 57
159 182 44
160 184 84
158 181 84
159 182 67
153 175 72
152 174 67
155 179 84
156 178 72
155 178 92
160 182 76
152 174 76
151 173 84
152 174 80
158 181 62
150 171 70
148 170 54
136 158 82
121 144 90
101 127 129
82 111 117
86 112 121
93 119 138
75 104 113
98 124 142
93 120 141
100 126 133
87 115 132
90 117 142
95 121 131
79 108 128
88 115 138
98 123 148
89 116 145
82 109 131
104 130 153
93 120 142
94 121 147
99 125 145
109 134 151
94 122 155
105 130 153
89 117 136
96 123 148
89 116 137
99 125 162
84 114 147
103 129 157
84 114 139
87 115 150
93 119 152
86 115 150
94 122 152
85 113 148
78 108 151
77 107 154
76 106 156
72 104 153
81 109 156
77 106 153
72 102 155
77 105 145
70 100 144
71 101 146
74 104 153
71 101 141
69 101 152
69 101 153
71 103 136
73 104 140
72 102 144
62 96 138
65 98 120
66 98 120
60 94 130
60 94 130
65 98 134
62 96 139
62 95 119
62 95 122
57 91 121
61 95 127
59 93 132
62 96 123
59 93 120
61 96 141
58 93 122
58 91 128
60 94 136
59 94 117
60 94 133
60 94 131
61 96 144
59 93 134
61 96 140
60 95 133
61 96 143
61 97 144
60 94 134
60 95 143
60 94 137
60 95 133
60 95 143
58 93 131
61 95 135
59 93 128
60 94 133
61 96 141
59 93 126
62 97 145
59 93 125
60 95 135
59 93 122
57 91 115
61 95 128
61 95 131
61 96 144
61 96 141
60 95 134
60 94 133
61 96 150
60 94 131
60 94 133
60 94 137
60 95 125
59 93 124
62 97 145
59 93 120
60 94 133
59 93 126
61 95 135
60 94 131
58 93 121
59 93 115
59 93 129
59 94 126
59 93 120
57 91 111
58 92 129
58 92 124
59 93 115
59 93 128
59 92 124
59 93 117
59 94 126
58 92 121
58 93 114
58 91 105
58 92 126
59 93 117
58 92 108
57 90 105
57 91 110
59 93 134
57 90 103
59 94 129
56 89 108
58 92 118
57 90 110
56 90 105
58 92 125
56 89 108
58 91 114
57 90 111
58 91 117
57 90 113
55 87 105
72 99 92
87 108 76
94 113 62
101 116 40
112 126 31
118 132 0
109 121 0
108 124 0
126 142 0
122 136 0
111 126 0
117 133 0
117 130 0
127 141 0
123 136 0
115 129 0
119 133 0
124 138 0
115 130 0
124 140 0
124 139 0
122 137 0
133 149 0
125 138 0
117 130 0
125 138 0
129 145 0
134 151 0
131 146 0
132 145 0
124 137 0
131 148 0
139 155 0
128 143 0
133 148 0
139 155 0
128 142 0
133 148 0
136 151 0
143 159 0
130 144 0
134 151 0
135 152 0
134 149 0
144 159 0
133 149 0
145 162 0
140 155 0
134 149 0
131 143 0
132 146 0
144 159 0
144 159 0
132 147 0
139 153 0
141 155 0
136 151 0
131 146 0
139 153 0
141 155 0
143 159 0
144 156 0
140 157 0
136 149 0
133 146 0
135 151 0
146 162 0
146 159 0
144 158 0
135 148 0
137 152 0
139 153 0
138 152 0
135 149 0
141 154 0
148 165 0
148 163 0
145 158 0
140 153 0
142 156 0
145 160 0
148 168 0
142 155 0
137 154 0
146 161 0
152 164 0
146 162 0
140 154 0
145 160 0
148 162 0
157 173 0
152 164 0
139 152 0
151 167 0
154 170 0
151 168 0
150 164 0
156 172 0
153 166 0
156 172 0
152 168 0
154 169 0
157 173 0
151 167 0
149 165 0
148 163 0
154 170 0
149 163 0
165 182 0
152 168 0
153 168 0
151 165 0
150 164 0
156 174 0
157 176 0
153 168 0
148 165 0
154 170 0
153 169 0
161 178 0
160 177 0
157 175 0
157 174 0
157 174 0
156 171 0
164 180 0
162 180 0
157 170 0
153 169 0
160 176 0
155 171 0
157 173 0
159 176 0
162 180 0
158 176 0
162 180 0
165 183 0
162 179 0
159 177 0
159 177 0
169 185 0
161 177 0
158 176 0
162 180 0
155 171 0
158 173 0
161 179 0
165 185 0
162 181 0
164 183 0
162 180 0
162 181 0
165 184 0
162 180 0
164 184 0
162 179 0
164 182 0
170 189 0
166 186 0
156 174 0
167 187 0
165 184 0
166 187 0
168 192 57
170 195 76
165 190 62
171 195 57
172 196 80
165 189 72
173 197 76
167 191 80
171 195 72
167 191 51
170 195 76
172 196 76
172 196 84
174 198 92
173 197 76
167 191 67
169 193 67
167 190 57
167 191 67
169 192 51
169 193 67
169 193 72
170 194 84
165 189 80
170 194 95
168 192 67
168 192 67
166 190 72
167 191 80
166 189 62
167 192 80
168 193 95
170 193 80
163 187 67
173 197 76
163 188 62
168 192 44
165 189 62
158 182 67
164 188 72
165 189 80
166 189 67
166 190 72
169 193 88
161 187 95
158 182 62
167 191 84
164 188 67
164 188 72
158 183 57
164 187 72
164 188 88
165 189 67
160 184 72
163 187 72
158 183 84
166 189 72
163 188 80
166 190 80
161 185 80
164 188 76
160 184 67
164 187 84
170 193 67
154 176 57
161 184 84
161 185 80
155 179 80
158 182 95
158 181 62
158 181 76
153 176 44
152 176 84
165 189 84
161 185 92
151 174 72
158 180 67
156 180 82
156 179 88
156 178 67
157 180 76
150 172 72
152 174 57
153 176 76
152 175 76
146 168 72
146 168 72
137 159 67
132 155 103
112 136 99
94 120 126
79 108 120
87 114 122
90 117 126
91 118 118
83 111 124
98 125 152
82 111 124
92 118 142
91 118 122
95 122 154
92 118 116
107 132 143
101 127 139
76 105 133
84 112 138
90 116 137
101 126 147
91 118 147
98 124 147
90 116 132
90 118 141
99 126 150
87 114 141
88 115 146
103 128 145
96 122 147
93 119 146
96 122 157
94 122 156
86 114 145
80 111 159
97 122 149
85 113 156
88 116 152
80 111 145
76 106 150
84 111 151
80 109 156
78 108 150
77 106 147
80 109 158
79 105 145
69 100 147
75 103 142
69 101 146
71 102 145
65 97 142
61 95 141
71 102 135
64 97 139
66 97 135
60 93 128
68 101 140
67 98 136
65 96 110
65 98 124
60 94 129
60 94 120
61 94 125
62 96 131
63 96 110
60 94 128
58 92 120
61 94 129
59 94 126
58 92 121
58 92 117
58 92 118
59 93 120
61 96 140
59 93 131
59 94 128
62 97 147
60 94 121
59 93 122
59 94 133
62 97 139
60 95 135
61 96 144
61 96 139
59 94 129
61 96 142
61 96 146
59 94 121
59 93 121
60 95 140
60 94 134
60 94 136
60 95 136
60 94 124
60 95 134
59 93 128
59 94 130
60 95 125
59 93 126
59 94 131
58 93 120
59 93 129
60 95 130
60 95 133
59 93 126
58 92 115
60 94 126
60 94 136
61 96 139
58 92 122
60 94 121
60 94 136
59 93 125
59 94 122
59 92 124
59 93 129
59 93 121
58 92 121
59 93 131
58 92 124
61 95 131
59 94 129
58 93 128
60 95 126
57 90 118
59 93 125
58 92 117
60 94 124
58 92 133
57 91 110
59 93 120
59 93 126
58 92 114
59 93 114
57 91 117
57 90 111
58 92 122
59 92 128
59 92 126
58 91 121
58 91 120
56 89 110
57 91 122
57 90 110
56 89 110
57 90 113
57 90 114
56 89 111
55 87 97
66 93 82
86 108 88
90 107 67
102 117 51
103 119 18
116 130 0
110 125 0
112 128 0
99 112 0
106 120 0
114 129 0
119 134 0
124 137 0
124 139 0
123 137 0
121 135 0
123 139 0
124 139 0
117 134 0
126 141 0
121 136 0
128 140 0
125 140 0
129 143 0
116 132 0
136 149 0
131 148 0
128 142 0
125 138 0
125 140 0
128 144 0
123 138 0
134 152 0
123 139 0
118 132 0
124 136 0
128 142 0
122 137 0
131 145 0
129 143 0
133 147 0
141 154 0
137 152 0
133 149 0
133 147 0
141 158 0
134 148 0
147 162 0
131 147 0
132 147 0
138 153 0
137 155 0
127 142 0
135 152 0
130 145 0
139 152 0
135 148 0
148 163 0
146 162 0
141 154 0
142 159 0
138 155 0
144 158 0
145 161 0
145 160 0
143 159 0
139 155 0
138 154 0
140 152 0
144 161 0
142 156 0
144 157 0
145 160 0
135 148 0
141 156 0
142 156 0
145 162 0
145 162 0
142 159 0
143 159 0
144 156 0
148 163 0
150 166 0
142 157 0
148 163 0
146 160 0
145 160 0
143 157 0
145 162 0
155 169 0
146 162 0
150 166 0
148 163 0
154 170 0
153 169 0
148 162 0
150 164 0
148 166 0
154 170 0
146 163 0
158 173 0
151 165 0
156 171 0
150 165 0
152 166 0
152 169 0
155 173 0
155 170 0
153 169 0
156 173 0
156 172 0
161 178 0
157 174 0
153 170 0
155 170 0
160 177 0
159 174 0
155 171 0
157 174 0
153 168 0
156 175 0
156 173 0
161 180 0
157 173 0
160 175 0
163 180 0
155 171 0
155 172 0
156 172 0
159 177 0
161 179 0
160 177 0
161 175 0
157 176 0
156 173 0
162 180 0
164 183 0
159 176 0
160 178 0
163 181 0
159 177 0
164 183 0
166 186 0
169 188 0
163 181 0
157 176 0
160 178 0
158 173 0
167 188 0
163 181 0
159 177 0
159 176 0
164 183 0
167 187 0
161 180 0
165 186 0
166 185 0
168 187 0
160 179 0
157 176 0
169 189 0
165 184 0
167 186 0
164 184 0
171 195 51
173 197 88
171 195 80
172 196 80
171 195 72
169 192 72
167 192 67
171 195 72
169 194 80
170 195 92
170 194 67
169 193 67
173 197 62
172 196 95
170 194 95
171 194 67
170 194 57
170 193 57
170 194 62
167 192 84
169 194 88
167 191 80
168 192 88
173 197 80
168 191 67
169 193 76
164 188 67
171 196 80
170 195 80
164 188 76
167 191 76
167 191 51
169 192 57
166 190 57
167 191 67
172 196 84
173 198 84
167 193 80
163 187 57
166 191 80
162 186 57
165 190 76
171 195 72
169 194 80
162 187 72
163 187 76
169 194 95
168 192 72
164 189 72
166 190 51
164 188 76
165 188 44
170 194 84
161 185 84
161 184 80
165 190 76
162 186 72
162 185 44
161 185 62
162 185 67
164 188 95
164 187 76
163 187 76
163 187 84
160 183 62
160 184 51
159 182 51
156 179 44
160 184 72
163 187 72
161 184 84
157 180 67
157 181 72
153 175 67
155 179 76
151 174 62
154 177 62
160 183 84
153 175 62
158 180 84
151 174 76
146 168 57
154 176 76
156 178 44
153 176 84
149 171 88
150 172 62
146 167 60
139 161 67
124 147 74
99 124 100
93 120 122
101 127 135
93 120 131
97 123 126
99 125 140
91 118 135
79 108 133
93 120 134
86 112 106
91 118 126
96 122 140
95 122 133
97 122 128
95 122 138
93 120 142
77 106 134
99 125 136
80 110 153
102 129 148
95 122 148
100 126 140
97 124 132
96 123 143
100 125 141
87 115 148
97 124 155
84 113 138
79 109 154
95 122 141
96 121 151
88 115 144
88 116 160
81 109 149
68 101 147
77 107 152
89 116 152
72 103 146
74 105 151
74 104 153
66 99 148
91 115 147
79 107 148
81 107 152
68 100 154
75 104 142
62 96 131
68 99 128
72 101 135
60 94 134
64 96 123
64 98 128
70 101 130
68 99 124
65 97 129
58 92 122
66 99 126
64 97 134
70 101 124
63 96 125
58 92 122
60 95 133
59 94 128
58 93 117
60 95 131
59 94 130
59 94 128
58 92 121
58 92 118
59 93 129
60 95 130
59 93 122
59 93 120
59 93 122
61 95 133
58 92 126
59 94 129
59 94 131
60 94 129
60 95 133
59 94 133
62 97 151
61 95 140
58 91 135
60 95 135
58 91 118
59 93 118
58 92 125
60 95 129
60 95 131
60 95 134
59 93 125
57 91 117
61 95 128
59 94 134
60 95 126
59 93 118
59 94 121
58 92 126
59 94 129
58 93 125
60 94 134
60 95 135
58 92 122
61 96 131
59 93 125
60 95 131
59 94 129
58 92 122
58 93 125
58 91 118
60 95 126
59 93 130
59 93 126
59 93 125
59 93 122
60 94 126
58 91 110
59 93 125
57 90 113
59 94 118
59 94 126
57 91 110
58 92 113
59 93 121
59 93 124
60 94 129
59 93 121
60 94 125
57 90 108
59 93 122
58 92 120
60 95 128
58 91 114
59 92 114
58 92 117
56 89 107
57 89 115
58 92 114
58 92 120
57 90 110
57 90 113
57 90 118
57 90 105
56 88 99
73 100 94
95 115 80
95 115 70
103 118 31
114 129 0
118 134 0
120 135 0
113 127 0
122 136 0
122 137 0
117 133 0
118 134 0
114 128 0
115 129 0
123 136 0
119 135 0
121 137 0
124 140 0
130 147 0
122 136 0
125 142 0
133 147 0
129 146 0
129 145 0
131 148 0
124 140 0
121 137 0
113 126 0
121 136 0
124 140 0
131 145 0
131 147 0
135 151 0
130 145 0
133 148 0
131 148 0
131 144 0
127 144 0
125 139 0
139 157 0
139 155 0
139 154 0
142 158 0
138 153 0
134 149 0
132 146 0
139 152 0
133 150 0
132 147 0
140 155 0
131 146 0
134 150 0
142 157 0
134 150 0
135 147 0
145 160 0
138 152 0
141 159 0
147 164 0
141 158 0
143 158 0
143 160 0
143 159 0
144 159 0
130 145 0
134 149 0
140 155 0
145 159 0
148 163 0
138 153 0
147 164 0
139 154 0
151 167 0
140 155 0
151 168 0
142 156 0
146 161 0
144 159 0
141 155 0
136 150 0
153 167 0
141 157 0
145 158 0
152 166 0
148 164 0
153 168 0
149 166 0
148 163 0
148 163 0
154 171 0
153 167 0
146 162 0
151 165 0
142 159 0
151 167 0
147 164 0
150 165 0
152 166 0
154 171 0
151 167 0
154 171 0
158 173 0
157 174 0
148 166 0
157 172 0
146 163 0
151 167 0
151 166 0
162 181 0
148 165 0
162 180 0
151 166 0
154 170 0
150 166 0
157 174 0
153 167 0
158 173 0
157 173 0
158 176 0
159 177 0
153 169 0
155 173 0
153 169 0
160 177 0
163 180 0
161 178 0
160 177 0
160 177 0
161 180 0
158 176 0
153 169 0
163 181 0
163 181 0
159 176 0
161 182 0
159 177 0
153 168 0
163 182 0
162 182 0
166 186 0
157 174 0
160 178 0
161 180 0
161 178 0
165 182 0
164 185 0
163 182 0
158 176 0
163 183 0
167 184 0
162 181 0
163 183 0
162 182 0
167 187 0
164 183 0
165 185 0
165 184 0
168 187 0
165 183 0
167 185 0
164 183 0
162 182 0
166 186 0
161 179 0
166 186 0
173 197 88
172 197 92
173 197 76
169 194 76
171 195 67
173 197 76
169 193 36
170 194 67
174 199 72
173 198 84
163 188 67
170 194 51
168 192 84
171 195 67
167 191 25
169 194 84
170 194 72
168 193 92
167 191 67
170 195 67
170 194 76
170 195 92
169 194 80
173 198 88
166 189 57
171 195 72
167 193 108
168 192 62
169 193 88
165 190 80
166 191 76
163 187 67
171 196 84
167 191 62
166 191 67
170 194 72
168 193 88
165 189 88
172 196 67
166 189 84
162 186 67
165 189 76
165 189 84
164 188 62
164 189 67
156 179 51
162 186 76
163 187 80
160 185 51
162 187 84
167 190 84
168 191 80
171 194 67
165 188 84
164 187 76
165 189 76
166 188 62
161 185 72
167 191 99
164 187 84
163 185 72
162 186 84
159 182 62
160 184 80
160 183 62
159 182 84
159 183 95
162 185 62
159 182 74
162 184 51
162 186 80
156 178 67
165 189 72
163 186 72
164 187 88
159 181 67
158 181 80
158 182 72
150 173 57
152 175 80
153 177 86
153 176 88
155 178 84
152 174 80
150 172 92
149 171 67
150 174 76
149 171 84
151 173 76
139 162 86
131 153 78
101 125 102
89 116 121
93 120 129
101 126 137
85 112 119
92 118 131
90 117 123
95 122 123
89 115 103
91 116 115
104 129 139
87 114 138
94 121 145
100 126 126
96 122 136
85 113 138
94 120 137
102 127 130
91 117 127
99 125 143
93 118 142
87 115 136
104 129 156
97 123 136
101 128 141
91 119 154
86 114 139
93 120 141
86 114 128
93 120 136
97 122 146
85 113 142
83 112 148
91 119 156
78 107 144
86 113 147
96 122 149
84 111 154
77 104 146
85 112 153
76 105 148
80 106 144
74 101 138
84 111 141
65 97 141
65 99 149
67 99 135
69 99 135
64 98 134
68 99 133
76 105 125
65 97 115
62 94 116
66 97 121
67 98 127
65 97 133
59 94 131
60 93 115
59 94 135
64 97 130
59 92 117
61 95 130
58 92 123
59 93 122
61 95 117
58 93 122
58 93 113
58 92 124
58 92 126
59 93 125
59 93 120
57 91 114
59 93 122
60 94 124
59 93 121
58 93 111
61 95 131
59 94 126
60 95 134
61 95 134
60 94 130
58 93 117
59 93 123
59 93 124
59 94 128
59 93 125
60 95 134
60 95 122
58 93 117
58 92 126
58 91 122
59 94 134
58 92 126
59 93 129
58 92 124
59 94 128
60 94 133
59 93 126
60 94 125
58 92 128
59 93 114
59 93 129
57 91 125
59 93 125
60 95 134
60 94 129
59 93 133
61 95 133
59 94 128
57 91 121
58 92 120
59 93 122
58 92 125
60 94 126
58 93 124
59 94 120
59 93 125
59 93 121
58 92 120
58 92 111
59 93 117
57 91 115
58 92 121
58 93 120
59 93 124
59 93 120
58 92 122
58 91 111
58 93 114
58 92 124
57 91 117
58 92 124
58 91 113
58 91 111
57 90 107
59 92 125
58 92 115
57 90 108
57 90 105
58 91 105
55 87 97
54 85 90
58 89 107
75 100 97
82 103 76
101 120 62
103 120 36
117 134 18
128 142 0
109 123 0
99 113 0
105 119 0
113 127 0
107 123 0
121 136 0
122 138 0
113 129 0
119 136 0
121 135 0
120 137 0
135 150 0
122 138 0
129 146 0
127 142 0
130 147 0
127 143 0
125 140 0
131 146 0
125 143 0
128 144 0
131 147 0
128 146 0
133 151 0
132 148 0
140 158 0
134 150 0
139 156 0
131 148 0
130 148 0
132 147 0
127 143 0
131 146 0
133 150 0
126 141 0
129 143 0
139 154 0
133 149 0
127 141 0
131 148 0
139 155 0
132 148 0
140 155 0
134 148 0
136 152 0
139 156 0
137 154 0
137 151 0
135 152 0
137 152 0
141 155 0
140 155 0
141 157 0
137 151 0
137 150 0
143 159 0
145 163 0
148 165 0
130 143 0
141 159 0
145 163 0
140 156 0
143 159 0
142 157 0
144 159 0
150 162 0
143 160 0
149 165 0
143 158 0
143 159 0
135 148 0
149 163 0
135 149 0
142 156 0
152 168 0
145 161 0
132 144 0
148 165 0
151 167 0
143 159 0
145 160 0
151 168 0
155 172 0
150 167 0
144 157 0
146 163 0
151 166 0
155 172 0
152 168 0
141 156 0
145 160 0
157 175 0
151 168 0
142 157 0
145 160 0
155 172 0
152 169 0
153 167 0
153 169 0
151 166 0
151 167 0
150 165 0
152 168 0
154 169 0
148 166 0
153 170 0
154 170 0
151 168 0
153 168 0
155 171 0
160 177 0
158 176 0
162 178 0
159 175 0
156 174 0
162 179 0
158 176 0
158 175 0
156 173 0
154 170 0
158 177 0
160 177 0
160 177 0
156 173 0
165 185 0
160 177 0
153 169 0
157 173 0
161 180 0
154 170 0
156 173 0
166 184 0
160 176 0
161 181 0
162 183 0
159 177 0
159 177 0
165 184 0
166 185 0
162 181 0
168 188 0
165 183 0
161 179 0
166 186 0
165 183 0
166 185 0
163 182 0
163 183 0
166 187 0
162 183 0
165 184 0
161 180 0
164 182 0
165 185 0
160 179 0
166 187 0
167 186 0
167 186 0
167 187 0
166 185 0
174 198 62
172 195 76
172 196 72
170 195 67
172 196 67
170 195 92
172 197 80
173 198 88
167 191 62
171 195 57
173 196 84
168 192 57
168 192 57
165 188 57
169 194 76
170 194 72
170 194 57
167 191 57
169 194 76
171 196 88
171 195 84
167 190 72
171 194 57
165 189 62
169 194 76
166 191 95
166 191 62
166 190 72
168 192 57
167 190 72
170 195 88
168 192 62
168 192 76
168 192 76
171 196 84
166 191 95
170 194 67
160 184 67
166 189 95
170 193 57
166 190 84
166 190 67
162 186 80
168 192 67
162 187 95
168 192 84
163 188 84
162 187 92
162 186 44
166 191 76
166 190 72
168 192 72
163 187 72
162 186 67
158 183 72
164 189 92
163 186 62
163 186 67
167 190 76
165 188 92
160 184 84
163 187 99
159 183 62
153 176 62
159 183 76
156 179 62
157 180 62
161 184 76
159 182 76
158 182 72
161 184 72
159 182 67
155 179 84
160 183 95
156 179 72
157 180 72
160 183 99
150 173 44
153 176 72
152 174 44
151 172 44
155 177 88
157 180 67
143 165 67
148 170 62
150 172 76
142 164 57
152 173 51
142 163 72
146 167 78
134 156 92
118 142 110
95 121 108
91 118 110
91 117 122
82 111 111
102 127 137
92 117 128
95 121 143
87 114 128
97 123 135
79 108 117
97 124 134
103 127 140
86 114 133
92 118 124
100 125 129
104 130 135
99 124 148
102 128 143
109 133 154
96 122 143
104 129 133
98 125 147
106 131 148
93 120 142
82 110 130
94 120 128
101 127 142
82 111 138
83 112 145
91 119 147
90 118 153
77 107 140
83 110 139
93 119 152
78 105 150
77 107 151
91 117 146
83 109 145
78 106 151
74 103 144
76 103 137
76 104 145
79 104 145
80 107 141
68 99 137
68 100 142
66 98 134
63 97 131
78 108 134
71 101 134
66 98 128
70 101 130
65 98 138
63 97 130
64 97 121
62 96 122
61 95 129
61 94 121
65 98 120
58 91 115
62 94 113
60 93 120
61 95 125
62 95 131
60 93 113
59 93 121
60 95 130
58 93 118
59 93 121
60 95 140
60 94 129
58 92 120
58 92 107
59 94 126
59 93 126
59 94 128
59 93 125
59 93 126
59 94 126
58 92 126
57 91 119
59 93 121
59 93 120
59 94 125
59 93 130
59 94 137
60 94 130
59 94 128
59 94 124
60 94 129
57 90 108
58 92 121
60 94 124
60 95 125
58 92 120
59 93 126
59 93 117
57 91 124
59 92 120
58 92 114
59 93 121
58 92 122
60 94 128
60 94 136
58 92 114
59 93 117
59 92 120
60 94 125
57 91 117
58 92 120
60 94 128
59 93 120
58 93 120
60 94 135
58 92 114
57 91 115
57 90 111
58 92 120
59 93 121
58 92 115
57 91 122
58 92 125
58 92 117
58 92 114
57 91 105
59 92 129
58 91 120
58 92 120
58 91 111
57 90 108
58 91 115
58 93 110
54 87 107
56 89 113
56 89 113
54 86 103
58 91 110
57 90 110
58 91 115
55 87 105
62 92 108
76 102 90
81 103 72
105 123 60
99 114 36
104 118 0
104 117 0
120 136 0
121 136 0
113 129 0
119 135 0
124 140 0
129 147 0
124 140 0
111 125 0
116 130 0
110 125 0
123 136 0
125 141 0
121 136 0
127 142 0
126 141 0
125 142 0
119 135 0
134 152 0
121 136 0
138 154 0
132 148 0
138 153 0
122 137 0
122 138 0
137 154 0
116 132 0
120 136 0
137 150 0
132 146 0
135 151 0
136 153 0
127 145 0
135 153 0
132 148 0
138 154 0
135 151 0
135 151 0
131 147 0
131 144 0
146 164 0
136 153 0
137 154 0
137 154 0
135 150 0
133 149 0
138 152 0
142 158 0
132 146 0
134 149 0
136 151 0
147 163 0
139 155 0
138 152 0
141 156 0
143 159 0
135 151 0
141 157 0
146 165 0
138 153 0
138 155 0
136 153 0
145 161 0
141 156 0
142 156 0
146 162 0
145 159 0
145 160 0
148 163 0
141 157 0
150 167 0
150 167 0
142 156 0
140 153 0
147 164 0
149 163 0
149 164 0
150 167 0
151 168 0
150 166 0
149 167 0
144 157 0
143 159 0
147 160 0
143 159 0
153 170 0
153 167 0
144 158 0
153 166 0
158 173 0
151 169 0
153 168 0
147 164 0
148 164 0
153 169 0
151 168 0
158 174 0
153 170 0
152 167 0
155 173 0
147 164 0
152 166 0
147 162 0
153 169 0
154 170 0
155 172 0
148 166 0
152 169 0
158 175 0
156 171 0
160 177 0
157 173 0
157 173 0
163 181 0
156 172 0
159 176 0
157 177 0
160 177 0
154 172 0
157 175 0
162 178 0
160 175 0
163 182 0
155 170 0
155 173 0
159 176 0
162 179 0
162 181 0
162 180 0
164 182 0
163 181 0
156 174 0
166 184 0
160 178 0
162 182 0
162 179 0
161 177 0
164 184 0
161 180 0
161 177 0
159 177 0
165 184 0
160 176 0
164 182 0
161 180 0
165 185 0
162 180 0
162 181 0
161 180 0
164 185 0
161 182 0
164 183 0
166 185 0
166 185 0
165 186 0
163 183 0
160 181 0
164 185 0
166 183 0
168 189 0
161 180 0
165 186 0
171 195 80
172 197 67
166 190 92
170 194 51
172 196 76
172 196 72
169 193 88
168 192 57
170 193 67
173 197 72
171 195 80
169 193 76
168 193 72
171 196 80
171 196 92
167 192 80
170 194 72
166 190 76
168 193 72
168 192 62
168 192 72
168 192 72
171 195 88
170 193 67
171 195 76
169 193 88
169 193 51
168 193 92
168 193 76
169 194 88
165 190 76
167 192 95
168 192 80
164 189 80
168 193 88
159 184 84
165 189 72
166 190 44
168 193 80
163 187 57
162 186 51
166 190 88
167 191 72
166 190 72
162 186 72
164 188 51
164 187 72
166 190 84
166 190 67
166 189 88
167 190 72
165 189 67
167 192 99
166 190 72
163 187 102
157 180 67
165 189 99
160 184 67
161 184 76
161 185 76
154 177 72
164 187 67
158 181 84
159 183 72
160 183 80
165 187 36
161 184 62
158 182 76
157 180 72
153 176 62
164 188 67
157 179 76
159 181 84
148 171 67
153 175 67
157 179 72
147 170 57
156 178 84
157 179 92
153 176 72
152 174 80
152 174 84
155 177 80
150 172 84
157 179 67
144 167 80
147 168 62
151 173 57
148 170 80
149 170 76
151 173 100
134 156 92
115 138 111
90 115 105
95 121 117
99 124 118
85 112 113
95 120 123
88 114 124
83 112 124
106 132 146
93 119 124
96 121 118
94 120 139
90 116 131
82 111 127
86 113 137
90 117 132
93 120 149
92 118 119
103 127 141
94 120 134
96 121 132
97 122 130
99 124 128
92 118 115
90 118 131
92 118 125
98 124 148
95 120 151
87 116 141
92 119 160
80 109 138
80 108 126
89 116 147
93 118 141
86 114 154
94 119 147
71 102 136
71 102 143
82 107 136
78 105 144
75 104 151
79 106 153
78 107 143
78 105 133
75 103 141
71 101 140
63 95 141
78 106 138
69 101 133
67 98 129
69 101 140
63 95 121
69 101 128
67 98 123
63 96 122
63 96 109
57 91 109
63 95 127
58 91 113
58 92 113
60 93 114
61 95 132
66 98 117
57 90 115
58 92 124
57 91 113
59 94 126
59 93 125
59 93 114
58 92 113
57 91 114
59 94 121
59 94 128
56 90 108
58 92 125
59 93 124
58 92 114
58 92 121
61 95 135
59 93 130
59 93 122
57 91 117
58 92 122
57 92 110
58 92 124
60 94 124
61 95 133
59 93 129
59 93 129
59 93 127
59 93 126
59 92 114
59 94 120
59 94 129
59 93 120
59 93 122
59 93 113
58 93 125
59 93 124
58 92 117
58 91 117
59 93 120
58 92 117
59 94 128
57 91 118
59 94 131
58 92 118
59 94 124
58 92 113
59 93 122
57 91 115
59 93 128
59 93 130
59 93 122
58 91 117
58 92 114
58 91 114
60 94 128
58 91 117
58 92 108
57 90 100
59 93 118
58 91 121
57 90 105
57 91 121
58 92 114
58 92 118
57 90 110
58 92 110
57 90 124
58 91 108
56 89 108
58 90 114
58 92 113
56 90 102
56 89 103
57 90 105
56 89 100
55 87 97
66 94 82
74 100 90
92 112 65
81 100 51
109 126 47
118 133 25
108 123 0
117 132 0
113 128 0
111 127 0
115 131 0
116 131 0
116 133 0
112 127 0
115 131 0
114 126 0
113 128 0
118 133 0
118 134 0
127 141 0
116 132 0
128 144 0
126 143 0
110 125 0
121 136 0
132 149 0
116 129 0
120 137 0
117 133 0
127 143 0
139 156 0
132 147 0
126 141 0
129 146 0
125 140 0
132 147 0
143 161 0
133 151 0
137 152 0
144 162 0
137 154 0
138 153 0
130 146 0
134 151 0
139 156 0
138 154 0
143 161 0
139 155 0
144 161 0
137 152 0
140 158 0
135 151 0
144 163 0
134 147 0
144 159 0
126 142 0
136 153 0
134 149 0
139 151 0
138 155 0
144 161 0
142 159 0
142 158 0
138 155 0
140 156 0
135 149 0
138 154 0
146 162 0
144 162 0
143 161 0
143 159 0
134 149 0
142 160 0
144 161 0
147 162 0
143 159 0
152 169 0
153 170 0
139 154 0
145 161 0
144 163 0
149 165 0
146 161 0
152 167 0
143 160 0
154 170 0
149 164 0
153 171 0
140 156 0
152 167 0
150 166 0
144 162 0
151 167 0
151 167 0
153 169 0
152 170 0
153 167 0
146 164 0
155 170 0
149 166 0
153 171 0
150 167 0
151 165 0
161 178 0
148 163 0
159 177 0
150 167 0
156 173 0
154 173 0
154 171 0
151 167 0
148 163 0
158 175 0
158 176 0
162 181 0
148 162 0
155 171 0
155 173 0
157 175 0
156 175 0
149 166 0
160 177 0
153 167 0
158 175 0
157 174 0
157 173 0
160 178 0
157 175 0
164 181 0
156 174 0
163 179 0
159 177 0
153 170 0
159 175 0
159 176 0
154 173 0
157 175 0
157 173 0
164 183 0
154 173 0
166 186 0
161 179 0
159 179 0
160 177 0
152 172 0
165 182 0
167 186 0
163 184 0
166 186 0
158 177 0
161 178 0
164 182 0
159 176 0
165 184 0
164 184 0
163 181 0
165 185 0
165 185 0
168 188 0
166 186 0
163 182 0
163 183 0
166 184 0
164 184 0
162 182 0
167 188 0
165 186 0
166 187 0
160 179 0
172 197 72
172 196 72
170 194 88
170 194 76
169 193 67
168 192 76
172 196 88
165 190 80
170 194 51
170 193 72
169 194 72
164 188 84
173 197 67
171 195 57
168 191 62
168 192 44
166 190 51
167 191 62
165 190 72
169 193 84
168 192 57
170 195 84
167 191 80
168 192 67
165 190 36
163 187 36
170 195 80
168 193 76
165 187 57
161 185 51
170 194 72
167 191 84
167 191 62
169 193 62
166 190 62
171 196 92
166 189 57
168 192 67
165 190 80
168 192 72
169 192 76
162 186 76
166 190 51
166 191 80
167 191 88
163 186 72
169 191 76
162 186 72
164 188 88
170 194 92
168 192 80
164 188 95
164 187 76
166 190 88
166 189 95
161 185 80
169 191 84
161 184 67
161 185 92
162 187 80
162 185 76
155 178 84
174 197 105
161 184 36
165 188 88
160 183 76
157 181 67
165 188 99
153 176 84
159 182 67
157 180 88
151 173 76
155 178 80
155 177 67
159 182 84
150 173 72
151 175 67
152 175 84
161 184 88
156 179 62
154 177 72
155 177 62
146 168 62
150 171 80
148 171 80
157 179 76
146 167 62
144 165 67
153 174 57
139 160 67
153 174 84
142 164 74
133 155 109
112 135 86
98 123 122
83 110 99
101 126 128
94 120 134
90 116 121
88 114 128
91 118 128
83 109 117
95 120 127
82 109 107
87 114 132
91 117 127
92 119 111
98 123 137
98 124 139
104 128 130
90 116 135
95 120 139
100 124 137
101 126 137
102 127 131
91 118 134
104 128 141
99 125 133
98 125 134
96 122 143
95 122 144
94 121 163
91 118 145
88 117 138
103 127 151
88 115 152
93 119 159
84 113 156
76 106 137
83 110 140
91 116 154
92 114 140
93 116 147
77 103 145
87 110 143
81 107 142
75 105 145
65 98 129
66 98 135
77 106 144
64 96 124
69 100 122
70 100 118
66 98 132
66 97 128
62 96 134
67 98 133
67 100 129
60 93 123
60 93 118
56 90 113
59 93 131
61 93 114
58 92 110
61 95 124
61 94 122
57 90 117
60 95 133
57 91 118
58 92 126
59 94 122
58 92 118
59 93 118
59 93 123
58 92 108
59 93 120
58 92 114
56 89 107
58 92 120
57 90 119
58 92 120
58 92 113
58 92 117
57 91 118
58 92 125
59 93 115
58 91 118
60 94 129
59 94 129
59 93 124
59 93 118
58 91 117
60 94 126
58 93 128
59 93 124
59 93 120
58 92 117
60 94 126
59 93 118
58 92 114
60 94 122
59 93 121
59 93 126
59 93 122
60 94 121
58 92 117
59 93 120
60 95 135
58 92 120
60 95 131
58 92 120
59 93 126
57 91 114
59 93 122
57 90 110
58 92 120
59 92 124
58 92 118
58 91 108
59 93 122
56 89 108
56 90 108
57 90 114
57 90 102
58 91 121
58 92 114
57 90 105
56 89 105
55 87 103
57 91 110
55 88 103
58 91 121
56 90 100
59 93 128
56 89 103
56 89 108
53 85 88
57 90 99
57 90 107
57 89 103
65 94 110
87 109 76
89 108 65
105 122 44
99 115 36
113 131 18
120 134 0
104 121 0
116 133 0
113 127 0
119 134 0
119 137 0
113 127 0
121 137 0
117 133 0
126 143 0
124 140 0
119 134 0
120 136 0
126 140 0
112 127 0
124 136 0
125 141 0
131 147 0
126 143 0
119 136 0
122 136 0
123 137 0
114 129 0
126 141 0
129 146 0
130 148 0
136 154 0
132 149 0
135 150 0
128 145 0
126 143 0
132 148 0
130 147 0
136 150 0
125 140 0
131 147 0
136 152 0
143 159 0
129 144 0
136 152 0
137 153 0
143 159 0
136 152 0
143 162 0
135 151 0
132 148 0
135 151 0
129 144 0
139 154 0
136 152 0
144 161 0
136 153 0
138 154 0
139 153 0
150 170 0
136 152 0
141 158 0
152 169 0
146 164 0
145 162 0
144 160 0
145 160 0
139 155 0
139 156 0
140 157 0
142 160 0
146 163 0
144 158 0
150 167 0
144 160 0
149 166 0
148 164 0
148 164 0
157 174 0
153 169 0
146 162 0
147 162 0
145 160 0
146 161 0
152 166 0
150 166 0
141 154 0
149 165 0
146 164 0
152 168 0
156 174 0
148 164 0
150 165 0
151 167 0
146 160 0
154 169 0
151 167 0
151 167 0
151 167 0
148 163 0
149 165 0
153 170 0
152 170 0
156 172 0
149 165 0
157 175 0
155 171 0
153 171 0
152 171 0
154 172 0
152 169 0
148 162 0
150 166 0
154 171 0
157 174 0
154 171 0
150 166 0
158 174 0
163 181 0
155 173 0
150 169 0
161 178 0
157 175 0
154 172 0
153 169 0
154 173 0
157 174 0
162 181 0
161 177 0
159 175 0
157 174 0
157 174 0
162 181 0
159 177 0
164 183 0
163 181 0
161 178 0
157 175 0
158 176 0
163 183 0
153 169 0
160 176 0
156 176 0
155 174 0
160 179 0
165 183 0
159 177 0
162 181 0
161 180 0
161 179 0
164 182 0
164 184 0
166 186 0
159 175 0
163 181 0
163 180 0
167 186 0
160 181 0
163 181 0
161 182 0
162 182 0
163 183 0
164 182 0
165 184 0
164 184 0
164 185 0
167 185 0
163 181 0
166 186 0
172 196 72
172 196 57
171 195 88
170 194 84
168 193 51
170 195 92
171 195 76
167 191 62
171 195 57
171 195 72
166 191 80
167 191 67
168 192 62
171 195 67
169 193 62
171 196 76
169 193 72
169 193 76
172 197 80
172 197 95
168 193 80
167 191 84
170 195 76
168 192 88
166 190 57
168 193 76
167 192 72
168 192 72
164 188 62
167 191 80
169 193 72
171 195 72
165 190 67
168 193 80
164 188 80
169 193 92
164 188 88
168 191 72
170 193 99
164 188 57
164 188 72
159 183 88
164 188 67
168 192 99
167 192 76
163 186 88
167 190 67
162 186 99
167 192 108
164 188 102
169 192 88
164 187 80
162 185 95
167 190 80
161 184 76
164 186 92
164 188 76
157 180 62
163 187 92
165 189 92
160 184 88
166 188 84
159 181 62
159 183 67
163 186 99
162 185 80
157 180 88
165 188 84
156 179 80
152 175 72
159 182 88
156 178 72
155 178 80
151 172 80
159 181 92
161 183 67
151 174 80
150 172 76
149 172 67
161 183 92
150 172 57
160 182 67
155 177 57
150 172 67
148 169 88
145 167 67
151 173 84
142 163 72
149 169 57
145 166 88
144 165 86
147 168 57
131 153 62
129 152 86
99 124 103
89 115 107
86 112 115
91 118 130
98 124 124
90 117 122
94 120 122
87 114 134
96 122 136
91 117 125
85 113 124
81 109 119
92 118 115
98 123 134
96 122 133
83 110 121
104 127 137
81 109 121
82 109 130
95 121 132
101 126 134
105 130 131
98 124 139
104 129 142
101 125 146
96 122 127
90 118 144
85 113 141
95 122 139
95 119 134
88 115 134
77 106 137
96 122 152
88 114 139
91 115 154
75 103 142
80 106 141
91 115 149
84 108 135
78 104 134
80 106 140
83 109 143
74 101 132
73 102 141
68 97 133
69 100 135
67 98 137
70 101 134
67 99 130
70 99 121
72 101 119
64 95 119
59 93 128
60 93 124
61 95 122
62 92 101
63 94 106
56 90 110
66 99 118
58 92 111
59 94 125
58 92 107
58 92 121
58 93 124
61 95 131
59 92 122
58 92 121
58 92 113
58 91 113
57 90 119
58 91 103
59 93 122
58 92 124
58 92 118
58 92 120
58 92 119
58 91 117
60 94 128
57 91 117
59 93 122
57 91 113
59 93 128
59 93 131
58 91 111
59 93 125
58 92 126
60 94 122
60 95 128
57 90 108
60 94 121
58 92 118
58 92 122
60 94 128
60 94 130
59 93 125
57 91 120
57 90 114
59 94 130
56 90 102
59 93 122
58 92 117
58 92 117
59 92 110
57 91 117
57 91 111
58 92 122
59 93 121
59 93 130
58 92 115
58 92 113
58 92 120
57 90 103
58 93 121
58 92 115
57 90 107
55 88 102
58 92 118
58 91 117
58 92 124
58 92 115
58 91 113
58 91 117
58 91 115
57 91 111
53 85 90
56 89 100
58 91 114
57 90 107
57 90 110
57 90 110
58 91 115
55 88 97
56 88 100
56 88 99
59 90 97
76 102 86
76 99 88
89 108 62
80 100 57
92 107 36
107 121 0
110 125 0
109 125 0
121 134 0
109 123 0
105 120 0
110 127 0
102 117 0
116 131 0
113 128 0
116 132 0
121 137 0
121 136 0
130 144 0
107 123 0
126 140 0
128 143 0
109 125 0
116 132 0
126 140 0
122 137 0
125 141 0
126 142 0
124 142 0
130 147 0
129 147 0
127 143 0
136 152 0
130 146 0
129 148 0
121 137 0
130 146 0
131 148 0
132 149 0
136 153 0
127 145 0
134 151 0
132 148 0
136 152 0
136 151 0
132 147 0
135 152 0
136 153 0
134 152 0
133 148 0
135 152 0
138 153 0
139 155 0
142 158 0
137 154 0
143 160 0
135 150 0
145 161 0
143 157 0
134 151 0
133 149 0
137 153 0
152 169 0
139 155 0
147 162 0
144 161 0
141 159 0
138 153 0
153 169 0
147 162 0
141 156 0
142 158 0
150 167 0
139 155 0
138 155 0
150 168 0
140 158 0
143 159 0
142 158 0
144 159 0
145 160 0
151 169 0
151 167 0
153 169 0
144 159 0
144 160 0
150 169 0
148 165 0
143 159 0
152 170 0
148 164 0
141 158 0
149 166 0
144 160 0
146 162 0
153 172 0
150 166 0
156 174 0
152 170 0
143 158 0
153 173 0
148 165 0
156 171 0
144 159 0
153 170 0
152 168 0
146 161 0
154 171 0
161 178 0
152 167 0
153 166 0
155 171 0
150 164 0
154 170 0
156 173 0
157 175 0
157 174 0
151 167 0
160 179 0
153 170 0
157 174 0
156 175 0
156 173 0
157 177 0
158 174 0
155 172 0
156 174 0
158 175 0
165 184 0
157 175 0
156 173 0
161 177 0
162 182 0
161 180 0
159 176 0
157 175 0
151 168 0
157 176 0
158 177 0
158 177 0
160 177 0
161 181 0
164 183 0
159 179 0
162 181 0
158 176 0
162 180 0
164 182 0
162 183 0
158 181 0
163 181 0
162 182 0
165 186 0
160 177 0
162 181 0
159 179 0
161 180 0
162 183 0
168 189 0
163 182 0
164 183 0
165 184 0
160 181 0
167 186 0
163 183 0
167 189 0
168 188 0
166 184 0
164 184 0
163 181 0
166 186 0
171 195 72
170 194 57
169 193 57
167 191 57
167 191 72
167 191 57
172 196 88
172 196 80
171 195 62
170 194 72
172 197 95
167 190 67
167 191 62
169 193 25
170 195 76
167 191 62
171 195 88
166 190 62
167 191 67
163 188 84
173 197 76
170 194 76
169 193 57
170 194 62
169 193 88
165 189 51
168 193 80
165 189 95
166 190 62
167 191 76
168 193 72
166 190 92
167 191 80
164 189 72
166 189 67
171 194 99
167 191 80
166 189 76
167 191 76
167 191 80
169 192 92
169 192 76
160 183 57
169 192 95
167 191 88
166 190 84
168 192 84
164 187 80
165 188 105
164 187 92
167 191 95
166 189 80
157 180 72
157 180 72
165 189 92
161 185 88
163 187 76
160 183 99
167 191 88
161 185 76
165 189 76
160 182 67
162 185 102
162 185 80
162 184 72
165 188 95
154 178 72
161 185 95
154 177 44
154 177 76
162 184 80
157 181 84
153 176 67
152 176 84
158 179 67
157 180 84
150 173 84
155 178 95
147 169 86
152 174 67
152 174 92
152 174 80
147 169 76
156 178 72
151 173 76
153 175 72
148 170 92
138 159 76
148 169 88
145 166 76
140 161 84
144 166 84
139 159 67
137 159 88
124 147 65
107 130 102
87 114 121
82 109 108
91 117 124
98 123 115
89 115 123
89 116 123
83 109 118
103 129 134
91 118 134
86 113 127
94 119 129
72 102 115
100 125 140
99 124 137
107 131 137
96 121 129
84 112 107
98 123 135
108 131 140
99 124 141
98 123 142
93 120 136
100 126 136
99 124 137
95 122 141
101 126 131
89 115 135
88 115 137
100 125 147
87 114 147
80 109 144
89 116 154
90 115 146
81 109 144
86 109 136
87 111 134
77 103 133
96 117 142
83 108 140
81 108 141
76 102 126
68 99 121
68 98 133
71 101 127
67 100 131
71 101 118
69 100 116
68 99 124
63 94 115
66 97 120
64 97 122
68 98 118
66 97 116
66 97 110
62 94 117
60 92 114
61 95 122
60 93 113
61 94 108
58 91 109
60 92 110
57 91 110
58 91 115
60 94 129
58 92 111
59 94 122
58 92 108
59 92 120
57 91 107
55 88 96
56 89 105
58 92 124
58 92 117
59 93 120
58 92 120
60 94 125
59 94 132
58 92 121
60 94 121
58 91 117
60 94 122
59 92 128
60 94 120
57 91 110
57 91 117
58 93 113
59 93 118
58 92 115
58 92 121
59 94 122
58 92 124
57 91 110
56 89 108
58 92 107
59 94 131
57 91 110
58 93 122
57 90 110
58 92 110
60 94 129
58 92 114
60 95 121
58 92 121
59 92 125
58 91 120
57 92 113
58 92 120
57 91 108
59 93 124
58 92 118
57 90 113
59 93 122
59 93 113
59 93 118
58 92 110
58 92 114
58 91 114
57 90 107
57 90 124
58 92 114
57 90 111
57 91 113
55 88 108
56 89 103
59 92 117
56 89 94
55 88 102
56 88 99
54 87 94
56 89 110
59 92 111
55 87 102
62 90 86
73 95 78
86 105 62
95 110 31
80 96 25
98 113 0
112 126 0
107 121 0
108 122 0
112 127 0
114 128 0
103 118 0
117 135 0
124 137 0
120 137 0
122 138 0
124 140 0
119 135 0
124 140 0
110 126 0
124 140 0
122 139 0
127 143 0
128 143 0
122 136 0
129 147 0
125 141 0
124 139 0
130 146 0
124 138 0
139 155 0
118 134 0
126 143 0
126 142 0
125 140 0
118 133 0
132 149 0
133 151 0
140 159 0
142 160 0
125 142 0
134 149 0
134 152 0
130 146 0
130 149 0
139 156 0
132 150 0
134 150 0
128 145 0
140 154 0
136 152 0
132 148 0
131 147 0
144 161 0
130 148 0
140 157 0
135 150 0
140 158 0
142 158 0
142 160 0
147 164 0
130 146 0
141 160 0
141 159 0
141 158 0
141 159 0
143 160 0
145 162 0
141 157 0
139 157 0
152 172 0
137 153 0
147 163 0
145 162 0
143 160 0
143 161 0
154 173 0
148 167 0
149 167 0
146 162 0
145 161 0
144 161 0
149 167 0
147 166 0
148 163 0
152 170 0
146 164 0
146 162 0
148 164 0
154 171 0
147 163 0
146 163 0
156 175 0
154 173 0
148 166 0
145 160 0
157 173 0
154 171 0
149 166 0
152 171 0
155 172 0
154 169 0
148 164 0
151 167 0
161 180 0
149 163 0
153 170 0
155 171 0
159 176 0
155 171 0
149 166 0
160 177 0
155 174 0
157 175 0
150 167 0
159 177 0
157 176 0
160 177 0
155 171 0
158 174 0
155 174 0
159 178 0
152 168 0
157 174 0
154 171 0
160 177 0
163 183 0
159 176 0
164 182 0
154 172 0
161 179 0
161 180 0
157 175 0
160 178 0
159 176 0
157 176 0
163 183 0
161 178 0
165 183 0
163 183 0
158 178 0
164 183 0
161 180 0
157 175 0
164 185 0
157 177 0
162 182 0
163 181 0
163 183 0
156 174 0
161 180 0
162 183 0
165 185 0
162 182 0
158 176 0
162 180 0
162 181 0
163 183 0
167 186 0
166 186 0
167 188 0
161 178 0
169 190 0
165 184 0
164 183 0
161 181 0
167 186 0
160 181 0
160 178 0
160 180 0
165 184 0
164 183 0
168 191 62
171 195 67
167 191 67
171 195 80
171 195 57
170 193 84
171 195 80
166 190 80
169 192 57
172 196 80
172 196 62
171 194 72
165 190 62
169 193 62
169 193 67
167 192 67
171 195 51
172 196 102
170 195 76
171 195 88
166 189 51
169 193 76
171 195 95
171 195 76
171 195 76
171 194 67
167 190 76
170 194 84
170 193 80
165 189 99
169 193 76
163 187 72
168 193 95
171 195 84
170 194 84
162 186 57
168 191 76
163 187 76
166 189 92
162 186 76
175 198 102
169 193 84
163 187 72
172 196 108
167 190 105
163 187 76
165 189 95
166 189 114
170 193 108
166 188 88
167 189 88
162 186 95
167 190 92
163 187 72
164 187 76
163 186 99
163 187 88
163 186 92
159 181 57
163 187 99
160 182 92
158 181 67
166 189 99
158 181 67
159 182 95
158 182 88
162 184 99
159 182 84
154 177 62
156 179 62
160 184 88
158 181 95
163 186 88
163 186 88
157 179 70
161 184 99
153 176 76
151 173 72
154 177 88
153 176 92
156 178 72
156 178 92
146 166 67
155 176 80
151 173 76
149 171 67
143 166 65
147 169 67
158 179 70
152 173 72
146 166 84
142 163 57
152 173 80
142 164 70
132 153 90
114 136 85
116 140 107
101 125 115
86 114 113
90 115 120
86 113 122
79 106 115
96 122 141
85 112 118
89 115 132
83 109 100
102 127 131
89 115 135
93 119 129
90 117 115
94 119 128
91 118 131
105 130 117
89 116 113
105 129 146
96 121 129
107 132 146
97 123 131
109 133 148
97 122 148
93 119 137
85 113 138
101 126 142
94 121 136
100 125 142
75 105 138
89 116 148
90 114 138
93 117 142
87 114 133
87 113 142
85 109 138
87 110 140
91 112 138
88 111 141
82 107 139
73 102 130
79 104 122
85 109 136
70 101 129
64 97 136
65 96 132
72 103 133
65 97 122
81 108 111
70 101 115
67 97 115
67 98 113
66 97 110
65 97 121
58 92 114
63 94 110
60 93 114
60 91 103
65 96 110
62 95 111
60 93 110
61 94 111
58 92 118
59 93 120
60 94 121
59 93 124
58 92 115
59 92 118
58 91 117
59 93 110
56 89 108
60 94 124
58 92 115
59 93 125
59 93 125
56 90 110
60 95 133
60 94 120
59 93 118
60 95 131
58 93 113
58 92 121
57 90 100
58 91 114
57 90 113
58 92 108
58 92 118
58 91 113
58 92 115
59 93 117
58 92 122
57 91 110
58 92 115
57 90 107
58 92 115
58 92 108
59 93 115
58 91 114
59 93 122
56 90 97
58 92 114
57 90 111
60 94 124
58 92 113
58 92 114
57 91 111
58 93 117
58 91 120
58 92 122
59 93 125
58 91 121
57 91 111
59 93 115
58 92 110
56 89 108
57 91 121
58 91 111
56 88 107
58 91 113
56 90 125
57 90 105
56 89 102
55 88 102
58 92 115
57 91 113
56 88 105
54 86 95
53 85 88
56 88 103
53 84 82
58 88 88
65 92 92
92 113 72
96 114 36
103 119 40
110 124 31
109 126 0
106 122 0
103 120 0
117 133 0
114 129 0
115 132 0
129 144 0
117 133 0
106 120 0
122 138 0
117 133 0
115 133 0
120 137 0
110 125 0
131 147 0
113 129 0
111 125 0
123 138 0
130 145 0
117 135 0
128 145 0
126 143 0
131 148 0
121 137 0
129 144 0
129 145 0
125 141 0
126 142 0
132 147 0
130 148 0
128 144 0
128 145 0
136 153 0
130 147 0
145 162 0
129 145 0
138 156 0
129 145 0
130 148 0
139 156 0
133 151 0
139 155 0
130 146 0
129 145 0
129 148 0
139 155 0
136 148 0
130 147 0
133 148 0
135 152 0
143 158 0
139 157 0
145 163 0
141 159 0
138 155 0
138 156 0
138 157 0
147 164 0
140 155 0
136 152 0
144 159 0
135 152 0
136 152 0
143 161 0
142 159 0
143 160 0
137 153 0
144 161 0
151 168 0
143 160 0
150 166 0
139 155 0
145 162 0
150 168 0
139 155 0
143 161 0
146 164 0
145 162 0
149 164 0
145 160 0
148 164 0
147 164 0
148 164 0
148 164 0
152 168 0
153 172 0
155 172 0
154 171 0
152 170 0
151 166 0
149 163 0
150 167 0
151 167 0
152 169 0
147 165 0
161 181 0
151 169 0
149 166 0
150 166 0
147 163 0
152 168 0
153 170 0
155 172 0
152 170 0
157 174 0
157 175 0
148 166 0
161 179 0
162 177 0
160 177 0
159 176 0
153 168 0
160 179 0
159 178 0
153 171 0
152 170 0
158 176 0
156 174 0
157 175 0
159 175 0
152 169 0
157 175 0
154 172 0
155 174 0
157 175 0
156 175 0
153 169 0
157 175 0
164 184 0
155 172 0
158 174 0
163 181 0
160 179 0
161 178 0
155 174 0
160 179 0
157 174 0
156 173 0
163 184 0
162 181 0
160 175 0
166 184 0
164 182 0
157 174 0
171 191 0
162 180 0
164 185 0
164 181 0
160 179 0
158 178 0
164 183 0
168 185 0
161 180 0
165 184 0
162 181 0
160 181 0
163 182 0
159 180 0
161 180 0
159 178 0
159 179 0
167 187 0
162 180 0
167 186 0
163 183 0
162 183 0
161 181 0
162 182 0
168 191 62
173 197 92
172 196 102
170 194 76
167 191 62
173 197 76
169 193 57
169 193 80
167 191 76
168 192 57
169 194 76
169 194 80
171 195 76
170 194 67
171 196 72
175 199 92
167 191 62
169 193 76
166 191 72
168 192 80
168 192 76
169 194 67
162 186 57
168 193 80
171 195 57
172 196 102
167 190 76
168 193 92
168 193 76
172 196 102
167 191 84
167 190 76
167 192 76
169 192 84
164 187 67
166 189 72
166 190 102
165 189 76
163 187 76
166 190 88
169 193 84
164 188 95
163 185 76
165 188 92
166 190 84
166 190 111
167 191 99
169 191 99
172 195 108
165 189 72
168 190 102
168 191 80
167 192 102
157 180 95
161 184 113
160 183 95
166 189 88
160 183 88
165 188 88
158 181 88
165 189 88
162 186 84
161 182 92
164 186 105
153 175 84
152 174 76
162 185 80
159 182 92
163 185 67
156 178 72
163 185 88
160 184 84
165 188 102
159 181 99
156 178 111
152 175 76
152 175 72
151 172 67
156 177 84
157 178 99
147 168 62
158 180 72
149 171 25
158 180 80
149 172 62
147 170 92
151 172 76
140 162 102
152 174 76
142 163 80
149 171 67
137 157 80
141 162 76
137 157 67
138 158 82
129 150 95
124 146 105
95 119 103
94 120 118
77 104 99
78 107 103
88 114 126
80 108 119
86 112 115
89 115 129
91 118 137
89 114 118
95 121 131
91 117 115
92 117 125
94 120 128
107 130 127
107 132 136
106 129 118
110 133 140
103 128 121
100 125 124
101 126 126
90 116 116
96 121 139
100 125 126
74 105 134
92 118 151
95 121 140
79 108 135
89 117 154
80 108 141
85 112 131
89 114 137
85 111 133
89 113 134
73 99 129
97 119 141
85 109 136
85 108 131
89 111 131
77 103 131
90 112 133
70 101 133
68 98 130
66 96 125
77 105 125
63 93 105
61 94 126
77 107 134
68 99 117
65 97 108
65 95 117
69 97 107
67 97 105
59 92 113
60 93 107
62 95 114
62 95 117
65 97 117
61 94 105
63 95 103
57 91 108
57 90 106
57 91 118
58 92 113
57 90 114
59 94 125
60 95 129
57 91 110
59 93 121
58 92 129
56 90 102
59 93 128
59 93 114
57 91 120
58 91 118
57 91 111
57 91 110
60 94 129
57 90 113
58 92 118
59 93 121
58 92 118
59 93 115
58 92 113
59 93 120
59 93 124
58 92 110
59 93 126
57 91 105
57 91 110
58 91 115
58 92 117
57 91 122
60 94 121
58 92 118
58 91 115
58 91 117
57 91 114
58 92 114
58 92 122
57 90 113
58 91 110
58 92 118
57 90 111
57 91 100
57 91 117
57 90 103
56 90 102
58 91 114
58 91 125
57 90 108
60 94 115
57 90 102
57 91 122
57 90 105
58 91 126
57 90 111
56 89 110
58 91 111
57 91 114
57 90 120
57 91 108
55 87 97
56 89 102
55 87 99
55 87 115
56 89 100
56 88 94
68 96 95
79 100 76
81 100 70
92 109 36
91 106 31
105 120 25
112 126 0
110 124 0
114 129 0
98 113 0
113 127 0
116 129 0
105 121 0
116 131 0
114 129 0
101 115 0
127 142 0
120 135 0
117 132 0
121 137 0
117 135 0
103 120 0
115 131 0
128 146 0
109 125 0
118 135 0
138 155 0
120 135 0
136 152 0
123 140 0
134 153 0
130 147 0
133 149 0
122 139 0
138 155 0
124 140 0
129 148 0
136 151 0
138 152 0
125 140 0
129 147 0
137 155 0
140 159 0
131 146 0
135 151 0
132 148 0
137 153 0
133 151 0
141 159 0
132 149 0
129 144 0
134 151 0
130 146 0
141 157 0
142 159 0
135 153 0
138 155 0
138 155 0
145 164 0
140 158 0
144 163 0
134 151 0
143 159 0
142 160 0
139 157 0
134 147 0
144 162 0
148 169 0
140 155 0
141 157 0
144 158 0
146 163 0
140 156 0
142 158 0
140 157 0
145 162 0
144 162 0
151 167 0
146 162 0
143 159 0
146 166 0
147 162 0
144 159 0
148 166 0
152 168 0
153 170 0
151 169 0
153 170 0
154 172 0
152 170 0
146 162 0
150 169 0
153 169 0
153 171 0
145 161 0
151 169 0
151 168 0
145 162 0
149 168 0
152 168 0
151 169 0
148 165 0
141 155 0
154 170 0
153 171 0
153 170 0
151 170 0
163 181 0
152 169 0
153 173 0
148 163 0
150 167 0
153 171 0
153 170 0
146 163 0
153 169 0
158 176 0
153 170 0
152 169 0
158 175 0
154 171 0
153 172 0
159 176 0
159 179 0
153 169 0
162 182 0
157 172 0
155 172 0
158 177 0
152 168 0
156 174 0
159 176 0
155 171 0
160 180 0
158 177 0
163 180 0
160 176 0
159 176 0
162 180 0
164 181 0
163 182 0
158 178 0
161 179 0
163 183 0
164 184 0
165 183 0
159 178 0
161 180 0
160 178 0
163 181 0
163 182 0
156 174 0
165 184 0
162 180 0
162 182 0
164 182 0
164 181 0
157 176 0
163 183 0
160 178 0
153 172 0
166 185 0
161 181 0
160 180 0
162 182 0
159 178 0
159 178 0
164 184 0
164 184 0
161 179 0
162 182 0
162 182 0
162 182 0
166 186 0
163 183 0
167 192 76
171 195 62
168 192 67
166 190 57
171 195 80
170 195 57
167 192 57
164 189 76
169 193 72
168 191 67
167 190 57
169 194 67
171 196 99
173 197 67
171 195 67
172 196 80
172 195 72
170 195 76
164 188 67
163 187 44
173 197 80
168 192 76
168 193 84
171 195 92
167 191 76
167 192 88
166 191 84
169 192 84
168 192 84
168 193 92
163 186 67
170 193 88
170 192 88
174 198 84
171 196 92
166 189 80
168 193 108
170 194 95
171 195 102
169 193 99
167 190 84
171 194 108
170 194 99
164 187 92
161 185 88
161 184 95
164 187 88
169 193 95
161 185 102
168 192 111
163 187 72
165 188 72
165 189 99
168 191 99
168 191 95
165 187 99
154 177 80
163 186 88
161 184 99
161 185 84
161 184 99
162 185 88
170 193 111
167 190 76
154 177 95
164 187 92
155 179 76
154 176 80
164 186 99
160 182 92
159 181 62
159 181 88
163 186 92
159 182 80
157 179 92
160 182 92
161 183 72
154 175 88
150 172 99
150 171 76
156 179 84
154 176 88
151 174 62
157 180 84
146 168 95
154 176 92
152 175 80
148 169 67
150 172 72
142 163 62
144 165 84
147 166 95
137 157 67
142 162 76
139 160 67
136 156 67
133 154 91
120 140 86
87 113 92
81 108 111
107 130 121
86 113 114
87 113 107
91 118 114
87 114 118
88 114 116
92 119 129
90 116 103
94 120 118
78 106 124
89 116 120
95 120 127
86 113 122
96 121 139
97 122 139
95 120 127
95 122 133
101 127 144
96 122 130
106 129 132
97 122 130
92 118 125
90 117 132
95 122 133
94 120 144
77 105 131
100 124 145
91 116 133
92 117 144
95 118 143
80 108 126
88 112 141
86 110 138
87 111 129
83 108 132
79 103 131
85 109 121
80 105 132
81 105 124
73 101 125
78 104 123
75 103 113
75 105 127
70 100 121
59 93 114
65 96 104
65 96 119
71 99 102
72 102 111
64 96 107
61 92 99
63 93 103
64 96 107
63 94 105
61 92 100
59 92 110
63 95 114
59 91 103
57 90 118
57 91 110
56 90 114
58 92 112
58 92 117
58 92 113
57 90 110
57 90 107
59 93 114
58 92 118
57 91 102
57 90 111
59 92 114
57 91 113
57 91 105
58 92 122
58 92 120
57 90 114
57 90 107
58 93 115
58 92 120
57 90 100
58 91 118
60 94 129
57 91 105
56 90 110
57 91 111
58 91 105
59 93 128
59 92 120
58 91 121
60 94 129
59 93 120
56 89 113
59 93 114
57 91 113
58 91 115
58 91 110
57 91 108
55 88 100
59 93 120
58 91 113
57 91 111
59 93 118
58 92 115
56 89 103
56 90 114
60 94 126
57 90 107
56 89 110
57 90 120
57 90 114
57 90 108
57 90 110
58 91 118
54 86 90
55 87 110
57 90 114
53 84 99
57 90 107
56 89 103
56 89 92
56 88 105
54 87 94
54 85 86
59 89 88
57 85 78
80 101 65
85 105 51
95 113 51
104 121 18
107 120 25
102 116 0
105 120 0
98 113 0
103 117 0
113 131 0
116 129 0
126 141 0
111 127 0
118 132 0
109 122 0
106 122 0
109 126 0
114 130 0
127 143 0
123 141 0
125 141 0
122 138 0
128 144 0
129 146 0
119 136 0
129 147 0
132 147 0
127 145 0
133 150 0
131 150 0
124 141 0
131 147 0
133 149 0
127 145 0
134 153 0
125 143 0
134 149 0
125 140 0
136 153 0
133 150 0
127 143 0
135 154 0
124 141 0
135 152 0
140 158 0
132 149 0
134 152 0
141 158 0
137 154 0
128 145 0
143 161 0
140 159 0
133 151 0
142 158 0
143 159 0
136 154 0
144 162 0
145 159 0
145 161 0
146 164 0
137 154 0
150 168 0
141 159 0
143 160 0
139 153 0
138 152 0
148 165 0
143 159 0
145 161 0
142 161 0
149 165 0
146 164 0
146 162 0
142 160 0
149 167 0
153 172 0
151 170 0
147 163 0
146 163 0
139 156 0
147 162 0
143 159 0
148 164 0
150 168 0
153 170 0
149 167 0
144 161 0
142 159 0
145 163 0
147 164 0
153 171 0
153 172 0
149 166 0
153 169 0
146 163 0
156 173 0
147 163 0
148 166 0
156 172 0
151 169 0
150 166 0
155 170 0
153 171 0
151 170 0
158 174 0
156 174 0
157 174 0
148 164 0
156 173 0
149 167 0
149 167 0
149 167 0
156 173 0
158 176 0
155 172 0
150 169 0
152 170 0
155 174 0
155 171 0
152 169 0
155 174 0
150 167 0
153 171 0
158 178 0
160 177 0
159 178 0
160 178 0
158 176 0
155 171 0
165 183 0
154 173 0
153 170 0
161 180 0
158 179 0
158 176 0
156 175 0
152 170 0
161 180 0
155 172 0
154 174 0
162 182 0
160 178 0
157 177 0
158 177 0
162 180 0
157 175 0
164 183 0
161 178 0
156 174 0
163 183 0
163 182 0
156 176 0
161 181 0
157 175 0
160 179 0
161 180 0
160 177 0
161 181 0
160 182 0
164 184 0
168 188 0
161 179 0
158 178 0
165 186 0
164 183 0
165 184 0
159 178 0
167 188 0
162 182 0
161 180 0
164 183 0
165 185 0
164 184 0
161 180 0
163 184 0
170 193 62
170 194 72
168 192 88
170 194 57
171 195 88
168 193 84
170 194 84
170 194 67
168 192 84
169 193 51
165 189 62
166 190 80
168 192 62
169 193 72
171 195 72
173 196 62
169 194 80
169 193 88
171 194 57
172 196 84
170 194 80
167 192 84
171 196 102
167 191 84
175 198 105
166 190 72
169 193 62
165 189 84
169 193 88
169 193 76
167 191 76
167 191 72
170 193 99
171 195 72
171 195 108
168 192 95
165 189 102
169 193 108
167 190 84
166 189 84
165 189 95
169 192 92
162 184 105
168 192 99
166 190 102
169 192 114
163 187 72
167 191 92
165 189 92
163 186 108
162 184 84
163 186 92
166 189 99
163 185 95
159 182 67
167 190 105
163 186 88
156 179 76
161 183 88
163 186 99
160 183 76
167 191 105
162 184 99
155 178 84
161 183 84
158 179 88
169 191 111
161 183 84
161 183 84
157 180 95
159 181 95
161 182 88
148 170 76
164 187 92
158 181 84
157 179 80
159 181 84
154 176 95
157 179 80
152 173 88
150 172 72
153 174 72
156 178 62
146 167 57
148 170 72
139 160 76
143 164 57
143 164 62
144 165 80
145 167 70
147 168 88
144 164 57
147 168 92
135 155 51
136 157 88
146 166 72
138 159 82
127 148 76
101 123 99
99 123 96
98 123 120
94 119 122
111 134 142
99 124 125
98 123 129
94 119 129
82 109 113
93 118 125
106 130 133
93 119 117
94 120 131
102 128 113
92 118 132
101 126 138
87 114 120
112 135 119
96 122 123
105 129 126
94 119 122
89 116 144
99 124 126
97 123 139
86 114 125
93 120 149
88 116 126
89 113 136
85 113 140
87 114 131
84 110 131
85 110 122
91 117 138
79 106 131
91 115 149
89 110 130
85 109 132
87 111 122
88 110 116
82 107 119
75 102 123
79 102 122
74 101 119
76 105 126
75 105 117
73 101 121
76 105 113
71 100 114
73 102 112
65 96 108
73 103 113
64 96 113
58 90 99
61 93 103
61 93 94
58 91 105
57 91 115
63 95 113
59 91 103
58 92 122
59 93 121
58 92 110
57 91 107
57 90 113
58 92 120
57 91 117
59 93 120
57 90 107
59 93 120
58 93 113
58 92 111
57 90 115
59 93 116
57 90 103
57 91 105
58 91 105
58 92 103
57 90 110
57 91 103
59 93 121
57 91 95
56 89 102
59 94 111
59 93 118
57 90 113
58 92 121
57 90 108
57 90 120
58 92 111
59 93 118
58 91 122
57 91 108
57 90 100
57 90 103
59 93 120
59 92 114
56 89 102
57 91 108
57 91 115
57 91 105
57 91 113
58 92 115
58 92 113
58 92 115
56 89 102
57 90 110
56 89 111
57 91 108
57 91 114
57 90 99
58 91 110
57 89 110
58 92 114
57 91 105
56 88 99
57 89 117
58 91 115
56 89 117
56 89 114
55 88 97
54 86 100
54 86 94
55 87 103
58 87 88
68 95 86
77 101 88
79 101 54
98 116 54
101 116 36
97 113 18
97 112 0
105 119 0
114 129 0
105 121 0
114 129 0
118 133 0
114 130 0
107 122 0
110 127 0
118 134 0
113 127 0
112 129 0
115 130 0
116 133 0
113 129 0
118 137 0
121 139 0
118 135 0
123 140 0
125 142 0
126 143 0
129 146 0
131 148 0
112 129 0
127 145 0
117 132 0
136 152 0
123 141 0
120 137 0
136 153 0
135 153 0
133 150 0
130 148 0
130 148 0
136 152 0
130 148 0
145 162 0
130 147 0
132 148 0
138 154 0
126 142 0
130 148 0
140 159 0
138 156 0
141 159 0
128 144 0
146 165 0
140 156 0
138 155 0
134 152 0
141 157 0
146 163 0
139 158 0
143 161 0
140 158 0
139 155 0
140 157 0
140 157 0
138 156 0
134 152 0
143 159 0
139 157 0
142 159 0
140 156 0
144 162 0
135 152 0
141 157 0
141 160 0
142 156 0
152 169 0
155 173 0
140 156 0
144 162 0
146 163 0
150 167 0
145 161 0
147 164 0
142 159 0
146 163 0
148 165 0
147 164 0
150 168 0
139 158 0
140 160 0
144 161 0
143 161 0
149 166 0
149 166 0
155 172 0
146 164 0
150 167 0
146 164 0
155 170 0
147 164 0
163 182 0
158 176 0
151 169 0
149 165 0
149 165 0
155 172 0
151 169 0
156 173 0
152 170 0
157 176 0
155 173 0
155 174 0
158 177 0
155 172 0
159 177 0
158 175 0
152 169 0
155 173 0
148 166 0
149 168 0
155 172 0
155 173 0
150 165 0
158 176 0
160 178 0
154 173 0
159 176 0
159 178 0
156 174 0
161 181 0
157 176 0
155 173 0
161 180 0
147 164 0
162 180 0
157 174 0
163 180 0
158 175 0
159 178 0
157 175 0
163 182 0
163 182 0
157 177 0
157 176 0
160 180 0
161 181 0
164 184 0
165 182 0
161 179 0
162 180 0
159 177 0
163 184 0
161 180 0
159 176 0
162 182 0
164 183 0
161 182 0
166 186 0
158 175 0
165 185 0
164 183 0
165 183 0
162 179 0
161 179 0
165 184 0
166 186 0
168 188 0
165 184 0
162 182 0
167 187 0
166 187 0
162 183 0
163 183 0
165 183 0
168 186 0
162 181 0
165 183 0
166 186 0
168 193 80
173 197 76
170 194 84
171 195 80
174 198 95
173 197 80
168 192 57
169 194 92
169 193 88
166 191 67
170 195 62
170 194 67
171 195 80
170 193 80
168 192 105
167 192 67
171 194 67
171 195 76
173 197 92
164 188 57
167 192 72
171 194 88
167 192 92
168 192 105
172 195 80
165 189 92
171 195 102
164 188 80
171 194 92
170 193 76
168 192 102
168 191 76
167 191 72
171 194 67
169 193 95
169 192 88
170 194 88
168 192 92
164 187 102
171 193 88
165 188 102
168 190 62
170 194 102
171 195 111
169 191 88
165 188 92
167 191 117
164 188 88
167 190 105
164 187 88
165 188 92
162 186 114
165 188 88
163 186 108
171 195 88
166 189 88
165 187 97
160 183 88
164 186 88
163 186 80
164 187 67
163 185 114
165 188 92
158 181 92
168 190 105
152 174 72
162 184 102
160 184 88
164 187 114
163 186 92
160 184 84
151 172 57
155 177 88
154 175 102
156 178 84
154 176 88
157 179 95
157 179 84
155 178 76
145 167 84
153 174 99
160 181 114
154 176 84
149 171 99
156 178 88
144 165 72
148 170 84
141 162 80
150 172 95
152 174 67
152 173 62
140 161 86
143 163 54
149 170 67
141 160 80
141 161 62
134 154 36
135 155 67
123 144 95
119 141 103
99 122 95
104 127 125
109 133 131
79 106 113
90 116 108
88 114 121
94 119 115
88 114 114
88 114 110
107 130 139
82 109 113
99 124 131
94 119 133
86 112 128
86 113 128
101 126 131
110 133 142
95 120 112
91 116 123
93 118 111
91 117 122
97 121 139
102 127 140
92 119 133
106 130 140
102 126 144
95 119 135
95 119 121
102 124 142
98 121 145
100 120 136
93 115 138
93 119 139
100 119 129
83 107 112
81 105 124
80 104 114
74 102 122
85 111 128
65 95 131
77 105 122
71 100 115
66 96 116
71 101 111
69 99 111
71 101 107
71 101 111
66 96 101
64 95 107
77 106 108
60 92 100
65 96 110
63 94 118
58 92 120
58 91 99
58 90 100
60 93 107
55 88 103
60 92 99
56 89 111
58 92 120
57 90 99
57 90 110
56 89 100
58 92 115
58 91 110
57 90 111
56 89 92
57 90 108
58 92 113
59 92 120
57 90 112
58 92 107
58 92 102
56 88 97
58 92 121
58 91 118
57 90 108
59 93 115
59 94 122
58 91 113
58 92 117
56 89 108
57 91 113
55 88 97
58 92 121
56 90 105
57 90 113
58 92 108
56 89 102
56 90 99
57 91 118
58 91 118
56 90 115
56 89 108
56 90 97
59 93 120
57 90 113
56 89 99
58 91 120
58 92 108
59 93 128
57 91 100
57 90 111
58 91 113
59 93 120
57 91 114
58 92 110
59 93 115
57 91 107
58 92 110
55 87 97
55 87 94
54 85 90
57 90 95
54 86 97
55 87 95
57 90 100
51 82 74
56 88 100
56 85 94
77 101 76
75 99 67
78 97 62
96 114 51
102 115 25
106 120 25
103 117 0
116 130 0
111 125 0
106 121 0
121 137 0
103 119 0
117 133 0
104 119 0
115 130 0
111 128 0
126 142 0
121 138 0
114 132 0
116 132 0
119 136 0
130 147 0
120 134 0
122 138 0
114 130 0
113 129 0
121 136 0
128 147 0
125 142 0
114 131 0
125 142 0
120 137 0
135 151 0
133 150 0
128 144 0
132 149 0
127 144 0
129 148 0
131 148 0
127 144 0
134 152 0
119 135 0
139 157 0
134 152 0
141 158 0
134 151 0
138 154 0
135 152 0
135 151 0
136 154 0
137 155 0
139 157 0
142 159 0
144 162 0
145 164 0
142 160 0
141 158 0
133 149 0
141 156 0
139 157 0
133 148 0
145 163 0
144 161 0
140 157 0
145 163 0
139 158 0
140 156 0
152 169 0
141 158 0
144 161 0
133 149 0
143 162 0
145 160 0
146 165 0
151 169 0
145 163 0
143 159 0
148 165 0
150 168 0
147 164 0
136 152 0
151 168 0
154 171 0
152 170 0
140 158 0
149 167 0
143 159 0
151 169 0
138 154 0
148 166 0
150 168 0
146 164 0
156 174 0
154 174 0
147 165 0
149 166 0
148 165 0
155 173 0
151 169 0
155 174 0
144 162 0
152 170 0
152 168 0
153 170 0
146 165 0
155 173 0
147 165 0
152 170 0
146 162 0
158 174 0
158 175 0
154 172 0
150 168 0
157 176 0
156 177 0
152 171 0
155 173 0
159 176 0
146 163 0
157 176 0
160 178 0
159 178 0
151 167 0
155 174 0
156 173 0
155 173 0
158 180 0
158 176 0
152 170 0
154 173 0
160 178 0
163 182 0
160 180 0
163 179 0
156 176 0
156 173 0
159 179 0
162 181 0
160 178 0
162 181 0
158 176 0
159 179 0
162 181 0
155 176 0
161 180 0
159 179 0
158 176 0
163 181 0
164 184 0
163 181 0
157 176 0
163 185 0
166 183 0
163 182 0
161 180 0
170 188 0
161 180 0
164 184 0
162 182 0
162 181 0
166 185 0
164 184 0
163 184 0
163 181 0
161 180 0
164 185 0
163 182 0
164 182 0
167 188 0
162 180 0
162 183 0
163 182 0
163 182 0
166 186 0
163 185 0
161 183 0
170 190 0
170 192 0
164 186 0
170 194 72
170 194 88
170 194 72
170 195 80
168 192 88
166 190 62
168 193 51
168 194 92
169 193 76
169 193 67
172 195 72
167 191 72
170 194 62
170 193 72
169 193 95
165 189 62
170 194 76
170 194 84
169 193 84
166 190 80
171 195 84
170 195 84
171 195 72
170 193 76
170 194 102
169 192 92
168 192 99
170 192 80
171 195 88
167 190 95
170 195 108
168 192 62
172 196 92
172 196 102
167 191 102
173 196 125
164 188 105
171 194 105
170 194 76
159 183 88
169 193 92
166 190 114
166 188 102
171 195 114
167 191 102
168 192 88
162 184 102
171 194 99
161 184 92
160 182 95
164 187 84
165 187 95
168 190 102
167 190 84
165 188 114
165 187 95
161 184 72
157 181 95
162 185 95
161 185 102
166 189 92
163 185 88
165 188 102
165 187 111
164 187 99
169 190 108
158 181 99
164 186 99
163 186 92
164 187 88
158 180 88
168 190 117
161 183 102
166 187 114
144 167 95
161 184 105
154 175 76
150 172 84
158 180 92
161 182 95
151 172 95
149 170 92
162 183 111
146 167 92
143 164 88
151 172 88
150 172 72
152 174 84
145 166 76
142 163 72
142 163 76
139 160 76
148 169 88
145 165 102
138 159 67
137 157 67
136 155 57
138 158 67
133 153 94
117 137 84
116 138 86
87 112 94
99 123 128
92 115 114
83 109 97
93 118 111
87 113 111
90 116 107
108 132 136
104 129 133
110 134 136
94 120 117
97 121 134
97 122 124
102 126 124
96 122 127
97 123 131
91 117 115
89 115 120
89 115 131
87 114 120
95 120 115
80 109 125
108 131 143
90 116 126
106 128 144
88 114 120
89 114 130
91 116 129
86 109 123
102 123 138
89 112 127
98 119 129
89 113 132
90 112 114
87 111 116
90 114 118
90 111 98
82 109 123
74 103 124
76 102 93
74 102 114
65 95 105
75 105 118
71 100 121
80 107 115
72 100 100
69 100 107
64 95 110
70 99 107
64 95 107
60 93 118
66 96 97
61 93 104
77 106 113
65 95 99
58 90 102
57 90 97
58 92 102
55 88 100
59 93 120
56 89 99
58 92 115
58 91 114
55 88 99
57 91 113
58 92 111
58 92 124
58 92 114
58 91 110
56 89 94
56 89 86
57 90 102
57 91 114
56 90 103
57 91 107
58 92 117
58 92 105
58 91 100
58 91 113
57 91 110
59 93 117
57 90 111
58 92 118
58 92 108
56 89 107
58 92 114
57 91 115
57 91 103
58 91 117
57 91 115
57 90 102
59 93 117
56 89 105
54 86 95
57 90 114
57 91 111
56 89 108
54 86 94
56 89 107
56 90 99
57 90 110
58 92 115
56 89 110
57 90 105
56 89 113
57 90 108
56 89 97
57 90 108
57 90 111
56 89 102
57 90 105
55 87 100
56 89 100
55 88 100
57 90 105
56 89 94
54 86 94
56 86 95
68 96 90
71 94 72
79 99 60
78 94 51
97 115 40
99 116 47
115 130 0
109 125 0
112 127 0
110 126 0
114 131 0
110 125 0
108 122 0
110 124 0
122 139 0
111 125 0
115 132 0
103 119 0
120 137 0
113 129 0
115 133 0
121 139 0
116 133 0
114 133 0
113 129 0
123 140 0
128 145 0
123 140 0
117 133 0
135 153 0
130 148 0
124 142 0
119 136 0
118 134 0
129 146 0
129 146 0
137 156 0
136 152 0
127 145 0
136 153 0
133 149 0
136 153 0
134 153 0
123 141 0
134 152 0
136 154 0
138 157 0
133 150 0
125 143 0
138 155 0
135 150 0
152 169 0
144 161 0
132 149 0
140 157 0
132 148 0
136 154 0
141 158 0
137 154 0
149 167 0
142 159 0
141 158 0
139 156 0
136 154 0
147 166 0
140 157 0
136 153 0
139 158 0
143 161 0
137 155 0
149 169 0
146 165 0
141 158 0
150 169 0
145 163 0
147 167 0
141 158 0
148 167 0
146 163 0
148 164 0
147 165 0
145 164 0
147 165 0
149 167 0
145 162 0
139 157 0
146 163 0
151 168 0
143 162 0
145 164 0
152 171 0
155 173 0
148 165 0
144 160 0
148 167 0
151 168 0
156 175 0
158 175 0
151 169 0
151 168 0
158 175 0
149 168 0
156 174 0
147 164 0
150 166 0
146 165 0
159 180 0
151 170 0
154 172 0
147 162 0
153 172 0
156 174 0
155 174 0
151 169 0
154 173 0
153 173 0
150 167 0
151 169 0
154 173 0
160 178 0
152 170 0
155 173 0
154 172 0
152 170 0
163 182 0
156 174 0
154 173 0
158 178 0
159 178 0
153 170 0
147 165 0
161 182 0
156 174 0
154 172 0
160 179 0
162 180 0
149 167 0
156 174 0
157 177 0
156 173 0
162 181 0
156 175 0
157 174 0
165 183 0
163 183 0
165 185 0
162 180 0
163 182 0
163 181 0
157 176 0
157 178 0
161 179 0
160 179 0
160 180 0
160 180 0
165 182 0
163 181 0
155 174 0
162 183 0
161 178 0
161 180 0
161 182 0
160 179 0
166 186 0
162 183 0
161 180 0
161 180 0
166 185 0
165 183 0
164 184 0
167 188 0
164 183 0
165 184 0
162 181 0
166 186 0
165 184 0
169 190 0
166 187 0
167 187 0
164 183 0
162 182 0
171 195 76
170 194 62
168 192 76
166 190 67
168 191 51
169 193 88
172 195 62
168 193 72
171 195 67
169 193 62
173 197 76
173 197 88
169 192 76
164 188 51
176 200 105
171 194 92
169 193 84
172 195 88
170 194 72
170 194 95
165 188 72
170 192 80
166 190 80
167 192 84
172 195 76
169 193 80
173 195 92
173 196 80
168 192 95
169 192 84
172 195 84
172 194 99
172 195 114
166 188 84
170 194 99
165 189 99
166 190 111
174 198 111
169 192 84
167 190 67
167 190 105
167 190 88
164 188 99
163 186 92
164 187 67
167 190 114
159 183 72
170 193 84
168 191 99
160 184 80
169 192 76
163 185 95
159 183 92
161 184 105
165 188 95
168 190 108
162 184 80
162 184 67
165 187 105
165 188 107
161 184 80
155 178 84
162 184 105
161 184 84
163 184 97
163 185 97
161 184 102
156 179 80
162 185 95
161 183 99
164 186 105
154 177 84
153 175 95
160 182 99
162 183 105
158 180 108
156 178 67
160 182 88
158 179 92
151 172 92
153 174 105
159 180 120
156 177 92
152 173 72
149 170 88
148 169 88
155 176 95
146 168 76
151 173 108
138 158 80
150 170 84
144 165 88
148 168 84
137 157 88
139 158 57
140 161 67
147 167 80
133 153 92
132 150 80
120 139 60
121 140 102
108 129 92
92 115 97
93 118 121
86 112 110
91 116 115
103 126 122
92 117 118
82 109 112
82 107 94
95 120 131
92 118 118
88 115 124
100 125 122
93 118 126
108 133 126
99 124 134
100 125 130
96 123 125
108 132 135
105 129 122
101 125 126
91 117 119
95 120 131
87 114 121
101 125 134
97 121 126
97 122 135
89 113 122
103 124 133
95 119 125
93 115 114
97 121 138
77 104 123
95 118 131
80 104 119
81 106 110
90 114 122
87 108 114
84 109 111
75 102 110
79 106 126
77 105 123
67 96 105
74 103 113
69 98 105
65 95 111
72 101 105
68 99 115
74 99 86
65 96 94
69 99 102
65 94 97
64 96 102
60 93 118
59 91 102
56 89 101
62 95 113
62 95 114
60 92 94
57 90 100
59 92 115
56 89 107
58 91 107
57 90 99
58 91 120
56 90 103
58 92 120
59 93 122
57 91 102
57 90 110
57 91 107
56 88 100
56 89 99
58 91 111
56 90 97
57 91 107
56 89 94
58 91 105
56 90 108
58 91 110
56 90 107
56 88 100
56 90 110
58 92 111
57 91 105
58 92 118
56 89 117
56 89 114
59 93 122
55 88 97
57 90 114
56 90 100
58 91 107
58 92 113
57 90 105
56 88 105
58 92 117
57 90 114
58 92 123
57 90 105
58 91 117
57 90 114
55 88 97
54 87 84
56 88 102
56 89 99
57 89 102
55 86 92
56 89 100
57 91 111
56 89 111
54 85 88
55 88 103
54 85 95
57 89 107
61 90 90
54 81 82
77 100 65
77 96 47
85 104 62
85 102 54
97 112 31
101 117 0
95 110 0
101 116 0
115 132 0
101 115 0
106 121 0
120 134 0
120 135 0
103 116 0
109 126 0
108 123 0
110 124 0
122 138 0
119 137 0
117 132 0
124 140 0
124 140 0
128 144 0
122 137 0
127 144 0
118 136 0
121 138 0
118 135 0
112 128 0
137 154 0
126 143 0
130 146 0
132 149 0
129 146 0
125 143 0
131 148 0
124 139 0
128 146 0
142 159 0
133 150 0
126 144 0
130 148 0
123 139 0
135 153 0
128 146 0
125 141 0
132 150 0
130 149 0
136 153 0
136 154 0
134 152 0
134 153 0
131 148 0
141 159 0
136 154 0
134 151 0
132 149 0
139 155 0
146 166 0
141 156 0
138 157 0
142 160 0
140 159 0
145 164 0
132 149 0
145 165 0
140 159 0
147 166 0
150 170 0
148 168 0
137 154 0
145 163 0
140 157 0
146 165 0
144 161 0
148 162 0
148 168 0
151 168 0
143 161 0
145 162 0
150 169 0
153 171 0
149 165 0
145 162 0
147 166 0
145 163 0
148 165 0
150 167 0
145 162 0
152 170 0
153 171 0
152 171 0
147 164 0
145 164 0
150 167 0
155 172 0
152 169 0
148 165 0
149 168 0
148 166 0
152 171 0
159 178 0
157 174 0
155 173 0
151 167 0
157 177 0
153 172 0
158 178 0
154 173 0
151 170 0
155 172 0
152 167 0
155 174 0
153 173 0
157 175 0
159 177 0
153 170 0
156 172 0
154 172 0
154 170 0
148 166 0
162 181 0
155 174 0
159 180 0
156 175 0
156 174 0
159 178 0
160 179 0
157 177 0
158 176 0
156 174 0
158 174 0
161 178 0
155 173 0
162 181 0
158 175 0
160 177 0
158 177 0
160 179 0
157 175 0
163 182 0
165 182 0
158 178 0
159 176 0
160 178 0
158 177 0
162 181 0
163 182 0
154 172 0
163 182 0
157 175 0
160 181 0
163 181 0
166 187 0
165 184 0
162 182 0
159 179 0
168 186 0
163 184 0
163 181 0
163 183 0
152 173 0
163 184 0
163 184 0
160 180 0
166 186 0
162 181 0
161 181 0
161 180 0
160 179 0
163 184 0
159 180 0
165 185 0
165 184 0
168 187 0
165 185 0
164 184 0
162 183 0
164 183 0
168 189 0
166 187 0
170 191 0
171 196 84
166 190 72
170 193 67
170 194 80
176 199 72
170 193 76
169 193 72
168 192 76
170 194 76
169 192 57
172 195 72
173 196 72
174 197 80
170 194 80
170 193 84
170 194 88
170 194 88
170 194 92
168 193 80
175 199 105
167 190 84
170 194 72
169 192 84
169 192 88
169 194 95
170 193 111
168 192 95
173 196 117
165 190 84
173 197 92
170 194 105
169 192 80
167 191 84
169 193 92
162 186 88
167 190 76
165 190 92
166 189 88
173 197 102
167 192 84
170 194 102
168 192 95
170 193 122
172 194 95
166 190 102
162 184 108
169 192 88
169 192 102
168 192 84
164 187 102
166 188 120
165 188 103
167 190 105
167 190 99
162 184 92
160 183 99
167 189 92
154 177 76
163 185 100
160 183 88
163 185 84
165 188 105
170 193 107
164 186 111
162 185 88
163 186 92
166 189 92
164 186 108
157 179 108
165 187 99
168 189 128
156 177 72
151 172 102
161 183 88
160 183 80
160 182 99
163 183 122
152 175 105
152 173 105
148 169 76
159 181 108
152 174 72
148 169 92
157 179 92
158 178 102
149 171 76
149 171 92
144 164 76
143 164 62
145 166 92
149 169 99
144 164 92
145 166 80
134 156 62
141 161 80
142 162 80
140 159 72
132 152 62
144 163 92
134 154 80
138 157 102
120 140 92
95 117 100
99 123 107
99 122 115
86 111 105
90 113 118
91 115 114
99 123 115
97 120 114
87 113 122
98 122 108
92 118 133
90 115 122
91 116 103
95 118 126
100 124 118
81 108 110
114 137 129
99 124 130
103 127 121
93 117 107
100 124 117
99 124 128
90 115 122
91 116 119
88 114 105
99 121 125
92 116 129
103 124 118
89 113 105
101 123 122
93 113 112
80 106 120
86 111 122
90 116 124
95 116 115
97 118 113
97 119 120
86 110 106
89 114 112
77 104 114
74 101 109
83 109 101
70 99 100
64 95 107
86 113 103
76 104 97
79 106 90
68 96 92
71 99 86
64 95 97
71 100 99
63 93 99
63 94 110
60 91 102
59 93 118
60 92 106
58 90 105
56 89 92
58 91 109
58 91 113
56 89 95
57 90 99
56 90 99
58 93 115
57 90 105
57 91 107
56 89 102
57 91 108
56 89 103
57 90 111
55 87 102
58 92 110
56 90 105
55 88 90
57 91 113
57 90 111
57 90 107
60 95 128
56 89 105
55 87 97
58 92 111
57 91 100
57 91 110
57 91 117
58 92 114
57 90 113
58 92 107
60 94 128
58 92 115
57 90 102
57 90 111
55 88 97
57 90 110
55 88 102
56 89 103
55 87 103
57 90 103
56 88 103
56 88 103
56 89 103
57 90 111
57 89 107
54 86 90
55 87 94
56 88 95
55 87 97
54 86 92
56 88 103
56 88 94
55 88 97
54 86 100
55 88 100
54 82 82
63 90 82
75 98 80
87 110 65
83 102 47
98 114 36
92 107 18
94 109 18
105 119 0
99 115 0
85 103 0
95 111 0
106 122 0
112 128 0
99 115 0
111 126 0
111 127 0
113 130 0
128 145 0
105 121 0
111 126 0
111 127 0
114 131 0
122 139 0
120 136 0
115 130 0
121 138 0
110 125 0
115 131 0
127 145 0
128 143 0
129 147 0
122 137 0
128 146 0
123 139 0
119 134 0
122 142 0
128 146 0
129 147 0
126 141 0
119 137 0
124 142 0
137 154 0
133 150 0
124 140 0
129 146 0
129 148 0
134 153 0
132 152 0
140 156 0
127 141 0
134 150 0
146 166 0
130 147 0
138 154 0
140 157 0
137 155 0
130 149 0
139 158 0
148 166 0
135 152 0
140 159 0
149 167 0
139 157 0
150 169 0
145 164 0
136 154 0
144 163 0
138 155 0
139 156 0
136 153 0
131 149 0
143 159 0
140 158 0
141 158 0
139 158 0
148 165 0
143 161 0
153 170 0
146 165 0
147 164 0
147 167 0
145 162 0
149 166 0
147 164 0
142 159 0
141 158 0
153 169 0
152 171 0
149 169 0
153 170 0
152 171 0
154 173 0
143 161 0
147 166 0
147 164 0
151 166 0
152 171 0
148 167 0
156 176 0
150 169 0
155 173 0
146 162 0
145 163 0
154 172 0
150 169 0
149 167 0
145 163 0
158 177 0
156 176 0
150 168 0
157 177 0
151 168 0
156 174 0
156 176 0
156 175 0
149 168 0
151 169 0
154 172 0
155 174 0
156 175 0
150 169 0
157 175 0
152 170 0
150 166 0
152 169 0
152 170 0
159 179 0
158 175 0
160 179 0
151 170 0
152 170 0
158 176 0
155 173 0
156 175 0
155 174 0
160 179 0
159 177 0
163 182 0
161 181 0
158 178 0
162 179 0
156 175 0
160 180 0
161 180 0
163 183 0
160 180 0
157 178 0
162 180 0
160 180 0
161 178 0
163 182 0
158 176 0
164 184 0
157 175 0
165 182 0
164 182 0
154 174 0
161 182 0
160 179 0
164 183 0
161 179 0
164 184 0
158 175 0
169 188 0
160 179 0
160 180 0
159 178 0
164 182 0
159 177 0
168 189 0
163 182 0
165 185 0
163 183 0
158 178 0
165 187 0
161 182 0
163 183 0
168 187 0
159 179 0
165 184 0
167 189 0
161 181 0
156 175 0
165 186 0
167 186 0
168 192 62
168 192 76
174 198 88
171 195 72
169 192 72
167 190 67
170 195 84
167 191 76
166 190 84
170 194 80
171 195 84
170 194 105
171 195 72
171 195 84
173 197 67
168 192 62
170 194 92
173 197 92
169 194 102
171 195 76
169 193 92
171 194 99
166 190 67
171 194 95
173 196 102
170 193 92
170 193 88
164 188 88
171 195 67
174 197 84
171 194 95
169 193 95
166 189 95
168 191 99
167 192 92
171 194 95
170 194 95
174 196 99
166 190 111
163 187 76
165 189 102
172 196 88
170 193 111
168 192 92
159 182 88
167 191 102
174 197 95
172 194 108
173 195 95
160 184 95
166 191 110
164 187 99
164 188 80
168 191 105
161 184 82
163 186 84
161 185 80
163 186 108
162 186 88
164 187 92
157 180 72
163 185 80
155 178 95
158 180 92
157 180 108
159 182 97
160 183 105
157 180 92
164 187 102
155 177 95
159 182 108
157 179 80
161 183 102
167 188 117
161 184 108
158 180 105
163 184 114
164 187 102
160 182 92
154 176 108
153 174 102
148 170 105
152 174 72
153 173 102
157 177 114
152 173 99
143 164 67
155 176 105
146 167 88
145 165 102
148 168 80
149 168 95
152 173 102
143 163 84
134 153 88
136 155 88
144 163 99
139 159 99
136 156 95
135 155 92
128 147 57
127 145 84
118 138 80
105 126 97
83 107 84
101 125 110
94 116 90
94 118 107
95 119 114
91 116 120
90 115 118
82 107 88
89 115 110
93 117 121
85 110 110
109 133 141
97 123 118
91 117 102
87 114 121
95 120 119
102 125 129
102 127 117
92 117 121
87 111 110
100 124 131
95 119 121
98 123 114
96 120 126
91 114 125
91 113 116
87 111 104
94 116 112
100 124 121
87 111 134
107 128 119
100 120 104
96 120 109
96 118 91
95 120 114
86 109 115
87 112 115
89 113 98
82 108 107
82 108 97
74 101 100
66 97 110
66 95 103
77 106 107
82 108 92
75 104 100
70 98 85
67 97 107
66 96 100
61 93 115
60 92 103
63 92 87
57 88 81
55 87 88
59 93 114
56 90 103
60 92 105
57 90 116
56 90 110
59 93 113
55 88 90
56 89 102
55 88 99
57 90 108
56 89 109
57 90 108
58 91 107
57 90 105
56 90 107
57 90 110
56 89 97
56 89 92
56 89 100
55 87 97
58 91 110
59 92 124
57 90 99
57 90 108
57 90 113
57 90 111
57 90 100
56 89 100
55 88 105
53 85 80
56 89 100
57 90 107
57 90 110
59 92 112
58 91 117
58 92 110
54 86 94
56 88 105
56 90 105
56 89 92
56 89 99
56 89 99
56 89 97
57 91 102
53 85 97
56 88 102
56 90 99
57 90 107
55 88 99
56 88 99
55 87 94
55 87 88
55 88 100
55 87 111
57 87 90
65 92 99
72 96 78
77 98 54
76 94 44
81 100 51
94 109 36
103 119 18
101 116 0
103 119 0
101 116 0
94 111 0
114 128 0
111 127 0
118 134 0
107 121 0
109 125 0
92 108 0
99 115 0
117 135 0
105 121 0
112 130 0
124 141 0
107 124 0
106 122 0
124 142 0
119 136 0
119 138 0
114 132 0
132 149 0
121 140 0
119 136 0
125 142 0
124 142 0
128 145 0
127 145 0
123 141 0
133 151 0
119 137 0
126 144 0
125 142 0
123 138 0
124 140 0
129 146 0
132 150 0
129 146 0
131 147 0
130 150 0
126 143 0
124 140 0
134 152 0
134 152 0
143 162 0
141 160 0
136 154 0
136 154 0
136 152 0
136 153 0
137 156 0
140 158 0
135 153 0
135 151 0
148 167 0
141 162 0
136 155 0
143 162 0
147 165 0
144 165 0
142 161 0
139 157 0
138 155 0
137 154 0
131 149 0
142 159 0
143 160 0
144 161 0
150 169 0
139 157 0
143 161 0
142 160 0
145 163 0
141 160 0
147 164 0
150 169 0
145 164 0
147 165 0
142 159 0
141 157 0
147 164 0
148 165 0
144 162 0
146 165 0
146 164 0
146 165 0
150 167 0
144 162 0
147 164 0
145 165 0
144 161 0
149 166 0
151 169 0
145 164 0
153 169 0
153 172 0
150 167 0
155 173 0
154 174 0
155 173 0
153 171 0
151 171 0
148 167 0
156 176 0
154 170 0
150 168 0
152 169 0
154 173 0
148 164 0
150 170 0
155 174 0
156 176 0
154 173 0
153 172 0
159 176 0
157 177 0
153 171 0
155 175 0
152 168 0
162 180 0
154 173 0
160 179 0
156 174 0
151 170 0
154 172 0
151 169 0
161 182 0
152 171 0
161 179 0
154 173 0
152 171 0
153 174 0
159 177 0
161 181 0
160 178 0
154 172 0
158 177 0
154 173 0
162 182 0
161 180 0
168 187 0
160 182 0
161 181 0
157 175 0
163 183 0
159 178 0
160 179 0
159 177 0
162 181 0
160 181 0
161 181 0
165 185 0
160 179 0
161 181 0
156 176 0
163 184 0
161 181 0
160 181 0
166 185 0
165 185 0
163 182 0
166 186 0
164 183 0
159 178 0
159 178 0
161 181 0
169 189 0
164 183 0
163 183 0
164 184 0
168 188 0
162 181 0
162 182 0
168 190 0
163 182 0
162 182 0
163 183 0
164 185 0
167 189 0
164 185 0
171 195 80
172 196 72
169 193 72
175 199 105
169 192 76
171 196 92
167 190 67
172 196 84
171 196 76
171 195 102
169 193 84
176 199 102
168 193 76
172 196 88
168 193 88
166 190 95
169 192 88
175 198 76
170 194 99
172 196 114
166 190 95
165 189 57
169 193 95
175 199 122
172 195 111
171 194 88
166 190 88
172 196 102
171 195 122
172 195 99
173 196 95
176 199 117
166 189 92
169 192 111
165 188 95
168 191 102
170 194 117
168 191 92
170 194 102
163 187 72
167 191 80
167 189 92
173 196 95
165 188 67
165 188 102
164 188 99
161 184 99
163 187 111
163 186 84
165 189 99
169 192 102
165 188 100
166 189 92
167 189 92
164 187 88
165 189 76
162 184 95
165 189 95
161 185 114
165 187 88
163 185 92
161 184 95
161 184 88
158 179 92
166 188 95
170 193 114
163 184 84
155 178 92
153 175 92
162 185 88
156 178 84
155 177 84
158 180 80
153 175 99
161 183 117
152 174 76
157 179 84
152 174 105
158 181 102
138 160 57
165 186 99
146 168 72
159 180 95
149 169 99
147 168 99
156 178 99
151 172 102
148 168 88
147 168 88
140 161 92
154 175 84
152 172 105
147 169 88
144 164 80
150 170 99
140 159 95
133 153 80
145 165 84
135 154 80
135 154 88
124 142 57
123 142 36
123 141 78
119 139 82
110 130 94
98 121 92
92 116 118
92 118 111
90 114 111
87 112 110
93 117 118
93 118 117
84 109 103
108 130 125
87 113 113
79 105 95
96 120 110
82 110 120
98 123 114
101 126 128
107 130 126
92 117 118
88 113 110
80 107 118
94 118 118
88 114 116
103 127 134
94 120 122
106 127 112
97 119 117
112 135 110
106 127 117
98 120 107
98 122 111
94 116 115
107 129 109
108 131 99
98 120 97
95 118 107
99 119 105
92 115 105
86 110 107
83 107 96
85 109 102
76 104 110
86 111 90
75 102 84
69 97 96
69 100 100
69 97 95
73 100 92
72 101 94
66 95 97
66 96 95
66 96 99
57 89 95
59 90 97
58 88 67
55 88 95
58 92 110
56 88 97
57 89 113
56 88 95
55 88 102
56 90 99
57 91 105
57 90 108
55 88 94
54 85 90
54 87 86
55 87 95
59 92 114
57 91 107
55 87 94
56 90 110
54 87 78
57 91 107
58 92 120
57 90 108
55 88 99
57 90 105
57 90 103
57 90 108
56 88 99
56 88 90
57 90 102
57 91 117
55 88 90
57 90 115
57 90 105
56 89 107
58 91 120
54 86 95
55 87 86
55 87 92
57 91 102
57 90 110
54 86 100
57 89 105
56 89 105
57 90 113
57 90 108
53 85 90
55 87 99
54 86 94
52 83 76
56 89 95
54 86 88
54 85 90
54 85 95
50 81 80
64 92 84
76 99 62
84 104 60
72 94 72
88 106 47
92 109 25
89 103 18
74 88 0
100 116 0
108 124 0
107 122 0
98 111 0
111 126 0
112 128 0
102 117 0
102 118 0
115 130 0
121 137 0
111 128 0
106 122 0
117 134 0
110 127 0
116 132 0
111 126 0
113 129 0
107 123 0
128 145 0
104 119 0
122 138 0
117 135 0
123 140 0
130 147 0
120 137 0
120 137 0
114 133 0
120 138 0
131 148 0
118 136 0
126 145 0
124 142 0
127 143 0
130 148 0
127 144 0
134 152 0
128 144 0
135 151 0
125 142 0
133 149 0
127 144 0
129 148 0
134 152 0
131 149 0
143 164 0
139 157 0
130 149 0
134 151 0
128 145 0
132 148 0
140 158 0
140 157 0
144 163 0
132 153 0
132 150 0
143 162 0
140 158 0
134 152 0
134 151 0
142 160 0
143 161 0
143 163 0
144 162 0
148 166 0
147 166 0
144 162 0
143 163 0
148 168 0
148 167 0
141 160 0
134 152 0
152 171 0
146 165 0
143 162 0
143 162 0
152 171 0
145 163 0
150 168 0
143 162 0
145 163 0
156 174 0
149 169 0
143 163 0
152 172 0
150 168 0
151 170 0
150 169 0
155 176 0
149 167 0
147 165 0
152 170 0
156 175 0
148 165 0
143 162 0
138 154 0
158 177 0
156 174 0
144 162 0
154 171 0
153 170 0
156 173 0
155 174 0
152 170 0
154 174 0
149 169 0
150 169 0
150 167 0
151 170 0
156 177 0
157 176 0
153 172 0
156 173 0
149 166 0
155 174 0
155 174 0
150 167 0
155 174 0
155 173 0
154 173 0
151 170 0
156 176 0
157 176 0
159 179 0
152 170 0
160 177 0
159 179 0
162 183 0
157 176 0
150 167 0
159 178 0
159 177 0
153 174 0
161 181 0
157 174 0
156 176 0
156 175 0
157 177 0
154 173 0
152 171 0
159 179 0
163 181 0
161 179 0
158 178 0
162 182 0
160 179 0
160 180 0
154 174 0
165 185 0
167 186 0
158 177 0
159 178 0
166 187 0
158 179 0
165 186 0
157 177 0
158 178 0
163 183 0
159 178 0
164 183 0
160 180 0
161 181 0
161 181 0
164 183 0
164 185 0
160 180 0
166 185 0
163 182 0
164 185 0
163 184 0
167 187 0
162 183 0
163 184 0
166 185 0
163 184 0
162 182 0
168 188 0
161 182 0
165 185 0
161 181 0
157 179 0
165 185 0
172 196 72
171 194 92
169 193 67
173 197 88
170 194 76
170 195 92
170 194 80
171 195 44
169 194 72
169 194 76
170 195 92
172 196 88
164 187 72
174 197 105
171 193 80
174 197 92
168 192 99
170 193 84
173 197 99
170 194 111
168 191 88
170 193 92
174 197 105
162 186 92
170 194 99
172 194 102
169 192 92
172 196 105
172 195 95
173 195 95
170 194 102
168 193 92
172 196 102
168 191 88
174 196 117
173 196 99
162 186 80
168 192 92
163 186 88
169 192 80
167 192 108
172 195 92
162 184 92
169 190 99
168 192 95
168 192 84
165 188 80
167 189 122
167 190 95
163 186 84
161 184 92
168 192 122
160 184 95
164 186 92
172 195 114
159 182 78
165 188 76
162 185 92
163 186 99
168 190 99
161 183 95
161 184 95
160 183 102
159 182 99
157 179 105
165 188 105
167 189 117
165 188 99
157 180 78
155 178 92
160 183 117
152 174 99
164 186 111
154 176 88
151 174 99
155 177 84
166 186 133
156 177 95
163 184 99
152 173 95
153 174 84
155 175 99
149 170 99
151 172 95
151 173 95
149 170 72
156 177 92
155 177 84
143 164 84
145 166 84
145 165 95
140 160 92
139 160 72
142 162 95
140 159 80
151 171 92
143 162 88
144 163 76
142 161 95
144 163 92
121 139 84
131 148 67
127 145 76
124 142 82
109 129 80
101 122 92
98 121 100
82 106 88
93 118 82
76 102 85
94 119 109
93 118 113
83 111 108
96 120 117
85 109 102
99 123 110
86 113 110
109 132 129
88 113 103
84 110 97
90 115 98
87 113 125
100 124 111
101 126 121
90 116 120
101 124 114
85 111 125
102 126 122
109 132 107
102 124 110
96 119 121
106 127 100
108 130 98
103 125 103
95 117 100
107 126 101
95 118 100
105 125 99
91 114 107
104 126 108
93 116 105
87 110 95
87 111 95
86 110 102
86 111 97
75 101 90
73 100 90
78 104 82
72 102 102
71 100 103
68 96 102
67 97 100
63 93 100
58 88 89
64 94 95
69 99 98
60 91 97
61 90 80
55 88 97
58 90 95
61 93 97
55 87 99
54 86 95
56 89 80
55 87 92
56 89 99
55 87 103
56 89 95
55 88 99
58 91 114
56 89 103
56 89 103
57 90 108
57 90 110
56 88 102
56 89 97
54 86 94
55 87 99
57 90 105
55 88 88
54 87 92
56 88 90
56 89 102
57 90 111
55 87 95
57 90 100
58 91 111
58 91 99
57 90 102
53 85 90
57 90 110
57 91 115
56 89 102
57 91 111
56 89 108
54 87 90
55 87 97
56 89 94
57 90 103
57 91 100
56 89 94
55 88 97
56 89 107
55 88 99
55 88 94
54 86 100
53 86 84
56 86 94
58 87 76
63 91 78
69 93 76
77 98 67
77 94 44
90 108 47
94 110 31
101 116 18
86 99 0
90 104 0
102 119 0
101 116 0
102 117 0
104 118 0
95 110 0
101 118 0
114 129 0
110 126 0
116 133 0
106 121 0
104 120 0
119 135 0
97 112 0
114 130 0
107 121 0
112 129 0
114 130 0
116 132 0
107 123 0
108 124 0
115 133 0
129 145 0
114 129 0
117 132 0
127 147 0
128 145 0
126 142 0
122 141 0
127 144 0
129 146 0
124 141 0
128 147 0
129 147 0
125 143 0
128 147 0
130 147 0
123 141 0
135 153 0
139 158 0
125 142 0
140 157 0
133 150 0
132 149 0
140 155 0
127 145 0
141 160 0
143 161 0
148 167 0
140 158 0
135 155 0
138 156 0
140 159 0
134 153 0
140 158 0
146 163 0
139 157 0
136 154 0
147 166 0
144 162 0
146 166 0
142 158 0
147 165 0
141 159 0
134 153 0
137 155 0
138 157 0
141 160 0
138 157 0
139 158 0
137 154 0
148 166 0
139 156 0
138 157 0
146 167 0
142 159 0
153 172 0
155 175 0
151 172 0
150 169 0
147 165 0
149 168 0
147 165 0
136 153 0
157 176 0
148 167 0
151 170 0
148 166 0
151 169 0
154 174 0
149 168 0
150 168 0
139 156 0
148 164 0
151 171 0
147 164 0
147 163 0
153 170 0
153 170 0
143 162 0
152 170 0
158 176 0
152 172 0
156 176 0
162 181 0
153 172 0
151 170 0
151 168 0
157 175 0
157 176 0
158 179 0
157 177 0
156 176 0
153 172 0
157 177 0
158 176 0
159 179 0
151 169 0
156 172 0
154 174 0
161 181 0
154 173 0
158 178 0
155 171 0
161 181 0
152 170 0
155 173 0
162 181 0
158 179 0
154 173 0
160 178 0
163 184 0
154 174 0
159 179 0
159 177 0
159 179 0
163 182 0
160 180 0
162 182 0
160 180 0
162 181 0
168 189 0
158 178 0
159 178 0
162 181 0
162 182 0
158 177 0
162 182 0
165 185 0
162 183 0
163 184 0
160 179 0
161 181 0
160 180 0
154 172 0
161 180 0
162 181 0
163 183 0
159 177 0
164 185 0
164 185 0
164 186 0
164 185 0
162 182 0
163 184 0
165 184 0
165 186 0
167 189 0
165 186 0
161 180 0
165 187 0
166 185 0
164 185 0
169 189 0
165 185 0
169 189 0
166 186 0
166 185 0
161 179 0
160 180 0
168 188 0
163 184 0
162 181 0
167 192 72
172 195 72
172 196 57
173 196 76
171 195 72
172 196 67
173 196 80
170 193 92
166 190 76
171 196 88
170 193 62
168 191 95
169 191 72
166 190 92
172 195 84
167 191 67
172 195 95
173 196 102
174 197 111
170 194 80
166 190 72
170 194 92
166 190 95
169 191 80
172 195 76
172 196 105
167 190 80
172 196 102
174 196 92
167 191 102
169 191 76
168 192 80
173 196 99
173 195 128
169 192 88
166 189 99
164 186 84
164 188 92
164 187 88
164 187 84
171 194 111
166 189 88
164 187 76
164 188 88
166 190 105
165 189 99
164 187 88
166 190 88
160 182 80
162 185 80
162 186 92
161 183 99
166 190 111
164 187 95
163 186 108
162 184 95
168 191 102
166 189 108
150 173 80
155 178 72
162 184 103
165 188 103
156 178 92
160 182 84
159 182 95
161 183 88
159 182 80
162 185 102
158 180 95
162 184 108
160 183 90
170 192 117
158 180 88
155 177 88
167 188 76
154 175 108
159 181 105
152 175 84
156 177 111
161 182 111
163 185 108
156 177 102
152 173 88
155 176 92
145 167 95
159 180 117
145 165 84
143 164 102
144 165 72
154 174 95
146 167 95
154 175 84
154 176 105
138 159 67
144 165 72
128 148 76
137 156 72
142 161 95
131 150 80
137 156 92
137 156 72
128 145 76
134 152 84
129 147 62
116 134 76
113 131 92
107 127 95
109 128 92
102 124 105
86 110 99
94 119 105
98 122 121
95 118 116
89 113 114
88 113 102
90 116 113
81 107 101
97 120 112
99 123 111
92 119 110
103 128 125
100 124 117
105 129 122
102 127 130
102 125 118
98 123 121
104 124 97
118 139 114
111 131 115
104 127 110
104 125 121
103 123 94
101 124 97
100 122 103
106 127 95
102 125 110
107 129 100
105 127 95
97 119 99
109 129 99
91 115 99
92 115 94
95 118 99
81 108 111
90 114 102
68 96 100
81 107 97
80 105 98
76 102 88
75 103 108
73 100 90
70 98 94
62 92 94
72 99 72
61 91 80
58 87 70
60 91 94
60 92 92
60 91 95
56 88 94
56 88 94
56 89 92
55 88 92
57 90 105
55 87 97
56 90 100
56 89 95
54 87 90
55 88 85
55 88 92
57 89 102
56 89 100
55 88 90
53 85 102
55 88 103
56 90 99
55 88 95
54 87 80
56 89 103
57 90 95
54 85 90
55 87 97
55 88 95
57 90 107
57 90 99
55 88 82
54 86 95
55 87 92
54 86 92
54 86 76
56 89 103
57 89 110
56 88 94
56 88 99
55 87 100
53 84 94
57 90 99
54 86 100
56 89 103
54 85 84
56 88 99
55 87 94
55 87 103
54 86 103
53 84 88
54 84 78
56 86 86
75 99 80
72 96 74
93 113 54
81 101 60
87 103 25
91 110 44
101 118 18
98 113 18
99 113 18
99 115 0
105 122 0
102 117 0
105 122 0
102 117 0
111 127 0
106 122 0
116 132 0
106 121 0
98 113 0
108 123 0
111 127 0
107 123 0
120 136 0
118 135 0
121 137 0
114 131 0
119 137 0
121 138 0
119 137 0
109 124 0
119 137 0
117 136 0
119 138 0
118 136 0
121 139 0
120 137 0
122 140 0
117 134 0
120 139 0
125 144 0
125 142 0
133 152 0
125 143 0
125 141 0
129 146 0
140 157 0
128 146 0
132 150 0
131 150 0
137 156 0
139 157 0
129 146 0
142 161 0
133 150 0
136 156 0
136 155 0
126 143 0
131 148 0
133 153 0
130 148 0
133 151 0
132 149 0
129 145 0
140 159 0
140 157 0
138 156 0
142 162 0
146 166 0
140 159 0
143 163 0
143 163 0
147 166 0
137 153 0
133 151 0
146 162 0
136 154 0
138 157 0
149 168 0
142 161 0
146 165 0
144 163 0
146 164 0
137 154 0
145 164 0
152 171 0
147 164 0
147 165 0
150 169 0
153 174 0
149 167 0
152 170 0
149 168 0
154 173 0
140 158 0
144 162 0
145 164 0
146 164 0
150 170 0
147 165 0
154 173 0
152 171 0
145 163 0
145 160 0
150 168 0
157 177 0
157 178 0
145 163 0
146 164 0
151 169 0
157 175 0
156 176 0
148 166 0
155 175 0
153 171 0
152 171 0
151 171 0
152 171 0
156 175 0
156 173 0
148 166 0
156 176 0
152 171 0
156 176 0
152 169 0
156 175 0
159 178 0
158 177 0
158 179 0
152 170 0
153 172 0
152 172 0
160 180 0
160 180 0
156 175 0
154 172 0
160 178 0
153 173 0
161 182 0
155 171 0
166 185 0
162 185 0
160 181 0
159 180 0
157 177 0
163 184 0
160 179 0
155 173 0
157 176 0
162 182 0
158 179 0
161 181 0
161 179 0
161 181 0
156 176 0
160 181 0
162 181 0
160 180 0
166 185 0
161 181 0
161 181 0
162 181 0
164 184 0
158 177 0
161 181 0
163 184 0
164 184 0
161 181 0
167 186 0
164 183 0
168 187 0
165 184 0
161 181 0
162 181 0
158 178 0
166 186 0
162 183 0
164 183 0
160 179 0
160 181 0
159 179 0
164 184 0
165 186 0
164 184 0
163 184 0
162 181 0
162 184 0
165 185 0
163 183 0
165 186 0
161 181 0
165 186 0
167 187 0
163 185 0
171 195 84
168 193 62
174 197 76
167 190 80
165 188 80
174 198 88
173 196 92
172 196 76
167 191 99
170 194 84
168 192 80
171 195 102
169 193 102
173 197 80
169 193 99
175 199 108
170 193 84
169 193 105
175 197 95
169 192 95
167 191 88
173 196 105
168 191 84
169 193 76
172 196 102
166 189 84
172 195 76
169 193 102
163 187 108
166 189 84
168 192 95
167 191 99
165 188 84
171 195 80
173 195 105
166 189 102
170 194 114
168 192 105
167 191 84
168 192 99
169 193 95
161 185 99
167 189 88
166 190 88
163 187 92
165 189 105
164 188 92
162 185 72
165 189 102
167 192 125
172 194 114
163 186 99
167 190 88
167 190 88
161 184 84
163 185 76
162 185 100
165 188 111
163 186 108
166 190 92
157 179 88
162 186 80
169 191 111
160 182 72
165 188 95
159 182 111
158 181 88
160 182 90
159 181 92
159 181 84
158 180 105
160 182 95
157 180 103
161 182 92
156 177 80
161 183 92
164 186 114
153 175 95
151 173 88
158 180 99
156 178 105
159 180 105
158 179 111
151 171 99
150 171 99
149 170 95
155 175 105
149 171 84
153 175 92
133 153 88
144 163 111
152 171 102
145 165 88
151 170 95
143 163 92
142 161 92
133 152 62
134 154 95
126 145 72
127 146 76
139 157 95
118 137 51
134 151 108
122 139 67
126 143 72
131 149 99
115 133 82
110 130 103
102 123 115
108 129 115
95 119 105
101 124 108
96 120 99
83 108 108
84 109 103
90 114 113
92 116 100
85 111 106
96 120 110
93 118 108
94 119 112
84 111 105
101 124 103
90 115 111
108 131 110
95 120 108
84 110 110
100 122 95
108 128 101
107 127 94
113 133 95
108 127 83
109 131 97
113 135 97
102 123 95
110 130 105
101 123 102
102 125 97
102 125 94
100 122 92
100 122 90
88 110 112
90 115 100
77 101 97
83 109 95
75 102 103
79 104 76
75 101 86
75 101 80
76 102 80
70 98 83
64 93 102
57 87 80
64 93 67
61 89 94
64 94 86
67 96 80
70 98 82
52 84 76
54 86 86
53 84 87
57 89 94
54 86 91
56 89 84
55 87 94
54 86 88
55 87 88
54 87 82
55 88 86
57 91 100
54 86 76
57 90 103
56 89 94
56 89 102
55 88 99
54 87 84
53 85 88
55 88 102
56 88 94
56 90 92
55 88 92
55 88 95
55 88 103
56 89 103
56 89 103
56 89 99
55 88 95
54 86 80
55 87 97
53 85 86
54 86 88
54 87 97
56 88 103
51 82 92
57 90 100
56 89 105
56 89 102
54 85 92
53 85 90
53 85 78
54 86 92
51 82 80
52 83 94
49 80 70
65 91 72
81 104 70
67 89 60
73 94 54
87 106 54
84 101 25
90 105 31
94 106 18
97 112 0
114 129 0
98 114 0
101 116 0
100 115 0
99 116 0
107 123 0
96 110 0
95 110 0
109 123 0
110 127 0
106 120 0
115 131 0
105 122 0
116 132 0
110 126 0
116 133 0
117 134 0
111 128 0
110 125 0
116 133 0
120 136 0
124 142 0
130 146 0
119 137 0
124 141 0
112 128 0
123 142 0
125 144 0
129 147 0
126 144 0
124 142 0
118 136 0
127 144 0
125 141 0
111 129 0
130 146 0
128 146 0
134 151 0
134 152 0
134 152 0
134 152 0
127 143 0
134 151 0
118 137 0
138 157 0
133 151 0
140 159 0
132 151 0
137 155 0
129 148 0
130 148 0
133 150 0
131 146 0
136 152 0
138 156 0
131 149 0
131 149 0
141 158 0
142 161 0
145 164 0
143 161 0
143 162 0
138 158 0
138 156 0
142 161 0
130 148 0
140 160 0
137 155 0
144 163 0
152 172 0
148 168 0
153 172 0
149 168 0
139 158 0
146 164 0
148 165 0
140 158 0
144 163 0
157 177 0
149 168 0
145 163 0
137 158 0
142 159 0
144 162 0
139 158 0
146 166 0
151 170 0
143 162 0
146 164 0
151 168 0
155 175 0
151 170 0
156 174 0
155 174 0
157 174 0
148 168 0
152 171 0
156 176 0
153 173 0
152 172 0
148 168 0
147 166 0
153 172 0
153 172 0
148 166 0
155 175 0
155 172 0
157 177 0
158 177 0
153 171 0
149 168 0
158 178 0
154 172 0
155 174 0
156 174 0
148 167 0
160 179 0
158 176 0
155 175 0
150 169 0
156 176 0
158 177 0
161 181 0
152 171 0
153 173 0
157 175 0
155 174 0
153 172 0
151 170 0
151 170 0
159 178 0
146 164 0
164 184 0
159 179 0
149 166 0
161 181 0
159 179 0
161 180 0
160 179 0
158 179 0
162 182 0
164 186 0
164 186 0
160 179 0
161 181 0
158 179 0
155 175 0
153 172 0
161 181 0
160 181 0
159 177 0
161 180 0
162 182 0
160 180 0
160 181 0
162 182 0
166 183 0
157 175 0
162 181 0
163 184 0
162 182 0
154 175 0
166 188 0
161 181 0
164 185 0
163 181 0
159 181 0
162 183 0
164 181 0
164 185 0
161 180 0
164 183 0
153 172 0
166 186 0
164 185 0
164 185 0
168 189 0
163 183 0
166 186 0
161 181 0
168 189 0
165 187 0
163 183 0
163 184 0
167 188 0
172 194 0
169 190 0
172 196 84
171 195 84
173 197 92
171 195 99
173 196 99
170 194 76
175 199 99
171 195 102
172 196 92
177 200 88
175 198 102
174 198 92
169 193 102
173 197 92
175 198 102
165 188 76
172 196 99
169 193 84
172 194 67
169 192 88
170 194 108
164 188 84
172 196 125
169 191 92
172 195 84
174 197 125
169 192 102
173 197 114
170 194 99
173 196 92
167 191 84
166 189 80
173 197 99
167 191 102
168 191 76
173 196 102
170 193 111
171 195 108
168 192 95
169 191 114
168 192 92
161 185 92
167 190 111
172 194 99
165 188 92
162 185 99
169 193 108
165 188 108
171 195 99
168 191 80
164 187 88
164 187 99
168 192 114
162 185 80
156 179 67
159 183 78
164 188 107
161 183 102
158 181 86
170 193 103
154 177 80
159 181 99
158 180 90
171 193 111
167 190 105
164 186 95
168 191 111
163 186 117
155 178 88
157 179 108
165 187 99
154 177 76
161 182 105
162 184 111
153 174 76
159 181 99
156 177 88
154 175 95
160 182 108
153 173 105
152 173 88
151 172 88
157 179 105
150 170 95
158 179 111
158 178 128
154 175 102
152 174 72
154 175 88
155 174 125
148 168 117
157 178 95
146 166 72
133 153 92
144 164 92
139 158 102
140 159 92
138 157 80
143 162 84
136 156 76
129 148 72
134 153 57
134 153 76
133 151 80
129 147 76
119 136 80
120 138 76
120 138 76
101 121 82
104 122 99
92 115 95
92 115 105
96 119 114
98 122 114
99 123 120
83 108 94
81 108 97
98 121 102
109 131 134
90 115 118
74 102 102
97 121 105
101 124 108
110 132 110
107 130 108
113 134 118
97 121 110
105 126 117
102 124 90
90 112 106
104 124 108
108 130 88
108 129 105
100 121 97
127 147 97
111 132 80
109 127 90
119 139 97
89 114 92
108 128 95
88 111 80
97 119 90
99 121 88
95 117 100
99 119 80
89 112 88
79 102 78
78 104 95
83 110 94
76 101 67
63 93 86
83 109 86
61 90 86
65 93 72
62 93 86
62 90 86
74 101 82
57 87 74
60 91 90
57 88 91
55 88 94
56 87 76
53 83 90
54 87 90
53 85 80
56 89 97
57 90 100
56 89 95
56 89 105
54 86 94
55 87 94
55 87 97
54 86 82
54 86 97
54 86 84
56 89 92
55 88 97
55 87 86
57 90 97
57 90 107
55 87 82
53 84 86
54 85 90
54 86 86
55 88 88
55 88 97
55 87 92
53 85 86
54 86 86
51 83 80
55 86 97
53 84 90
54 85 97
54 86 76
55 87 103
54 85 94
54 85 76
53 84 92
52 83 84
50 80 80
59 87 84
61 88 65
74 99 78
65 90 65
63 85 57
88 106 54
71 90 47
96 113 18
102 118 25
95 112 18
86 101 31
96 111 0
96 110 0
96 112 0
102 117 0
94 109 0
98 113 0
100 115 0
108 123 0
107 123 0
100 115 0
109 127 0
114 130 0
121 137 0
108 123 0
110 125 0
116 134 0
117 134 0
102 119 0
112 128 0
115 131 0
119 137 0
115 134 0
122 139 0
122 138 0
114 132 0
121 139 0
124 143 0
117 135 0
128 148 0
120 137 0
127 146 0
116 132 0
134 152 0
133 149 0
126 145 0
128 146 0
128 146 0
140 159 0
126 145 0
127 145 0
121 137 0
130 147 0
135 152 0
134 151 0
129 146 0
132 150 0
122 141 0
131 151 0
132 151 0
131 150 0
131 148 0
144 164 0
126 145 0
131 145 0
136 155 0
135 156 0
141 161 0
151 169 0
137 155 0
139 159 0
130 151 0
142 161 0
136 155 0
139 158 0
143 162 0
146 167 0
137 156 0
141 161 0
138 156 0
144 164 0
146 166 0
146 165 0
142 160 0
140 158 0
140 158 0
149 168 0
153 171 0
141 161 0
145 163 0
154 172 0
146 166 0
151 171 0
145 162 0
148 166 0
148 167 0
142 158 0
144 163 0
148 166 0
145 161 0
153 171 0
144 163 0
149 167 0
148 167 0
148 168 0
152 173 0
155 174 0
147 166 0
149 168 0
140 158 0
150 169 0
155 172 0
146 164 0
158 177 0
160 177 0
149 166 0
153 171 0
150 169 0
162 180 0
153 172 0
154 174 0
155 174 0
157 178 0
153 172 0
152 170 0
155 175 0
158 176 0
153 172 0
157 175 0
153 170 0
145 164 0
150 169 0
165 184 0
150 169 0
158 178 0
159 179 0
156 173 0
157 174 0
157 176 0
154 174 0
155 174 0
157 176 0
161 182 0
152 172 0
151 169 0
155 176 0
160 180 0
158 178 0
159 177 0
160 182 0
157 175 0
161 182 0
166 188 0
158 179 0
161 180 0
163 185 0
151 171 0
164 184 0
163 183 0
157 176 0
159 177 0
161 181 0
158 178 0
161 179 0
158 179 0
166 187 0
164 184 0
159 179 0
164 184 0
162 182 0
162 182 0
162 184 0
161 180 0
156 175 0
165 184 0
163 183 0
163 183 0
164 185 0
160 180 0
167 187 0
161 182 0
167 188 0
162 180 0
163 184 0
163 183 0
166 187 0
165 186 0
159 181 0
163 183 0
165 187 0
165 186 0
165 184 0
161 181 0
164 184 0
163 184 0
165 184 0
168 189 0
165 186 0
163 184 0
161 182 0
169 193 80
170 194 72
177 200 88
176 199 95
170 195 80
170 193 76
173 196 80
169 192 62
169 192 92
172 194 80
170 194 108
172 196 105
171 195 105
171 195 84
170 194 88
172 195 102
169 193 88
170 193 92
171 194 102
170 193 84
170 192 92
172 195 99
169 192 105
170 195 111
174 198 105
174 197 95
172 196 99
177 201 105
169 193 95
169 193 108
164 188 80
168 192 99
174 197 125
170 192 102
158 182 88
163 186 95
171 193 92
172 195 102
160 184 88
165 187 88
164 186 88
166 190 92
168 192 95
167 190 88
165 189 99
166 190 80
164 187 117
170 193 88
164 188 100
170 193 120
164 189 99
170 193 95
167 191 100
165 188 102
166 189 108
165 188 88
164 187 99
158 181 92
162 186 92
155 178 80
155 178 92
156 178 67
156 179 88
165 188 130
159 182 100
165 187 95
166 188 84
161 184 102
159 181 102
161 183 97
160 184 95
154 175 99
157 179 88
155 176 84
154 175 67
157 179 67
150 171 99
160 182 105
151 172 105
154 177 99
159 180 88
153 174 114
158 179 111
151 172 92
153 174 76
143 164 95
156 177 95
155 176 105
142 162 76
146 167 102
144 164 72
147 167 95
152 172 92
150 169 114
132 153 72
135 154 80
138 158 67
125 144 88
142 161 95
142 161 84
144 163 72
127 146 67
138 155 92
136 155 84
131 149 80
127 144 76
117 133 88
125 140 82
104 122 70
113 132 83
101 121 93
104 125 113
95 118 105
90 114 95
96 120 108
86 112 94
97 121 119
91 116 105
91 117 99
95 120 113
105 127 122
97 121 121
105 129 118
111 134 113
108 131 111
95 119 113
105 126 107
115 138 111
101 124 99
110 131 107
111 132 92
122 144 103
106 127 103
111 132 95
110 129 92
104 123 92
102 121 88
108 127 94
115 135 86
110 131 78
102 123 82
91 115 97
91 113 83
85 108 107
92 114 92
87 111 72
91 112 62
92 116 80
81 105 67
81 103 76
79 104 84
81 104 73
63 91 76
67 96 92
70 96 65
64 92 74
62 92 90
60 89 72
58 89 82
60 90 86
56 87 90
54 86 74
51 82 76
55 88 88
55 87 88
53 85 82
55 87 86
53 84 90
53 85 86
54 86 92
54 86 102
56 88 94
54 85 80
54 86 82
55 88 93
55 87 92
52 84 83
55 88 86
53 85 90
54 86 90
54 85 82
56 89 95
52 84 80
54 85 86
54 86 86
54 86 92
54 86 94
54 86 97
54 87 88
55 86 92
54 85 88
53 84 76
53 84 78
54 86 95
53 85 88
51 82 88
57 86 67
63 90 78
71 96 86
76 98 76
73 95 60
78 99 70
69 91 47
75 94 57
88 105 47
87 103 31
94 110 25
87 100 0
89 103 0
100 115 0
100 114 0
88 103 0
96 110 0
105 120 0
103 120 0
102 118 0
107 122 0
97 112 0
106 123 0
109 124 0
113 129 0
124 140 0
107 123 0
101 118 0
114 129 0
108 124 0
113 130 0
107 124 0
113 131 0
120 138 0
116 134 0
113 132 0
118 135 0
124 142 0
114 133 0
109 128 0
110 126 0
111 129 0
123 140 0
128 146 0
120 137 0
125 143 0
122 140 0
120 138 0
138 158 0
130 147 0
132 151 0
118 137 0
137 156 0
129 147 0
133 153 0
125 140 0
127 145 0
133 151 0
130 148 0
130 149 0
132 150 0
136 153 0
139 158 0
138 157 0
138 155 0
137 156 0
131 148 0
138 155 0
140 159 0
134 153 0
138 156 0
142 161 0
150 169 0
133 150 0
147 167 0
133 152 0
139 158 0
150 169 0
144 163 0
138 156 0
147 167 0
147 166 0
139 158 0
137 156 0
138 157 0
139 158 0
145 164 0
144 164 0
146 165 0
146 165 0
148 168 0
145 165 0
150 169 0
147 166 0
150 170 0
147 164 0
147 166 0
145 165 0
147 165 0
149 168 0
146 164 0
146 165 0
157 175 0
152 172 0
151 170 0
147 164 0
149 166 0
151 173 0
152 171 0
151 170 0
150 168 0
149 167 0
153 173 0
145 163 0
146 166 0
153 172 0
157 178 0
149 168 0
155 174 0
153 172 0
161 180 0
148 168 0
147 167 0
150 170 0
154 174 0
154 174 0
154 175 0
161 182 0
152 170 0
160 181 0
159 179 0
146 164 0
154 172 0
158 175 0
155 174 0
151 169 0
155 174 0
151 171 0
153 174 0
151 169 0
162 181 0
155 174 0
158 176 0
154 174 0
158 177 0
153 173 0
164 184 0
159 178 0
158 178 0
161 181 0
160 180 0
158 177 0
158 178 0
160 179 0
166 187 0
157 177 0
158 179 0
158 177 0
161 181 0
159 178 0
162 184 0
157 172 0
156 176 0
162 183 0
163 183 0
162 181 0
158 176 0
161 181 0
158 179 0
161 180 0
161 181 0
165 183 0
165 185 0
165 187 0
165 185 0
159 180 0
160 181 0
158 180 0
157 178 0
166 188 0
163 185 0
161 183 0
162 184 0
163 183 0
162 182 0
159 179 0
164 185 0
161 180 0
166 187 0
157 174 0
162 184 0
169 191 0
165 186 0
166 187 0
159 179 0
163 183 0
162 182 0
166 188 0
161 181 0
167 187 0
161 179 0
166 187 0
163 182 0
165 186 0
172 197 84
175 198 95
171 195 92
173 196 92
172 195 88
174 198 80
168 191 92
170 194 92
171 194 76
167 190 102
172 195 102
170 194 84
171 194 76
172 195 99
174 198 92
175 198 95
169 193 99
175 199 105
177 200 122
171 194 95
174 197 105
173 197 95
169 192 105
165 188 67
171 194 111
169 192 72
171 195 88
165 189 95
170 193 102
170 194 99
158 181 80
170 194 105
168 192 76
161 185 95
177 200 117
162 185 80
172 196 114
168 191 95
168 192 105
172 194 105
162 186 99
167 190 102
158 181 92
169 192 99
166 189 88
167 191 107
166 189 105
168 191 99
165 188 84
166 189 92
168 192 108
164 187 86
163 187 99
166 189 102
166 189 92
167 190 94
164 187 118
163 186 105
159 184 102
161 184 102
169 192 125
164 187 80
160 182 72
164 187 117
161 184 102
163 185 84
161 183 120
161 185 108
164 185 108
159 181 102
161 183 120
161 184 102
156 178 84
158 180 88
144 166 88
161 183 99
152 174 105
156 178 99
159 180 108
164 185 105
160 182 99
167 188 122
163 184 111
157 179 108
154 175 99
163 184 125
153 173 117
147 168 88
149 170 84
159 180 108
159 178 105
152 171 102
144 164 92
149 169 108
144 164 84
140 159 105
146 165 92
139 159 76
145 163 88
146 166 95
151 170 95
136 155 88
126 145 51
134 152 105
127 144 84
138 156 92
116 132 80
123 140 80
121 138 84
126 143 92
126 143 100
101 121 94
103 125 105
108 127 124
91 115 117
95 117 108
97 122 114
95 121 115
86 112 95
93 118 115
96 120 100
97 122 100
111 134 111
97 121 96
105 128 100
100 122 108
86 109 100
101 123 86
109 132 103
101 122 113
107 128 84
121 139 88
115 135 94
121 141 86
115 135 84
120 140 84
111 132 95
107 127 92
116 136 80
106 128 86
113 134 88
101 124 70
103 123 80
106 127 72
96 119 74
94 117 90
90 113 74
84 107 78
94 116 72
87 110 76
88 110 80
76 99 74
84 105 62
80 102 51
67 94 74
61 88 74
76 100 70
70 96 54
66 94 74
58 87 72
55 85 74
56 87 76
56 87 70
55 87 90
52 84 65
52 84 78
52 84 76
54 86 94
54 86 82
54 86 88
49 78 65
54 86 90
53 85 86
53 85 86
53 84 80
54 86 80
53 85 79
53 85 94
55 87 102
51 81 78
51 82 72
55 87 80
53 84 82
54 85 99
54 86 82
52 84 76
52 84 76
51 82 67
53 84 80
54 84 80
52 83 84
51 81 80
52 82 90
54 84 88
74 99 90
77 102 72
59 82 72
74 95 60
79 98 25
74 94 44
69 89 31
93 111 40
84 100 25
93 108 25
92 109 0
101 117 0
102 117 0
98 112 0
94 107 0
99 114 0
99 115 0
103 118 0
98 114 0
115 131 0
98 114 0
97 114 0
118 135 0
107 121 0
100 119 0
105 120 0
114 131 0
115 132 0
117 135 0
114 131 0
110 126 0
123 139 0
107 122 0
119 135 0
124 142 0
116 135 0
117 134 0
115 131 0
120 137 0
123 142 0
133 150 0
128 147 0
127 145 0
120 138 0
129 146 0
118 137 0
123 143 0
137 154 0
123 142 0
125 142 0
115 133 0
114 131 0
130 149 0
128 146 0
139 157 0
133 152 0
125 143 0
131 149 0
133 152 0
135 155 0
133 151 0
135 153 0
140 159 0
136 155 0
129 147 0
139 157 0
132 152 0
138 157 0
132 150 0
149 169 0
139 157 0
132 153 0
134 151 0
139 157 0
139 158 0
139 157 0
132 152 0
139 158 0
130 148 0
140 158 0
138 158 0
144 163 0
136 155 0
142 161 0
141 162 0
150 170 0
136 155 0
143 161 0
141 162 0
143 161 0
146 165 0
140 158 0
149 169 0
151 171 0
150 169 0
152 172 0
147 165 0
148 167 0
154 173 0
146 163 0
140 158 0
149 169 0
150 170 0
157 176 0
152 172 0
151 170 0
147 167 0
155 175 0
148 169 0
145 164 0
151 172 0
154 172 0
154 173 0
144 163 0
149 170 0
148 165 0
147 165 0
151 169 0
153 172 0
150 166 0
162 180 0
155 174 0
153 171 0
158 176 0
157 175 0
154 172 0
156 175 0
155 175 0
150 168 0
157 175 0
160 180 0
153 172 0
151 170 0
162 182 0
157 175 0
160 178 0
162 182 0
158 178 0
154 174 0
154 174 0
157 175 0
155 174 0
155 174 0
160 180 0
162 183 0
154 173 0
159 178 0
156 177 0
163 183 0
155 176 0
154 175 0
156 175 0
160 180 0
160 182 0
158 177 0
158 178 0
160 179 0
158 179 0
161 181 0
158 177 0
164 183 0
163 185 0
164 184 0
161 181 0
161 181 0
161 180 0
162 182 0
165 186 0
155 174 0
163 184 0
164 184 0
162 183 0
165 186 0
160 182 0
164 185 0
159 177 0
160 179 0
165 185 0
163 182 0
166 186 0
165 183 0
164 184 0
159 177 0
161 181 0
164 184 0
166 187 0
165 186 0
161 183 0
162 184 0
160 180 0
161 180 0
166 185 0
165 185 0
164 185 0
166 187 0
169 191 0
170 191 0
168 189 0
164 185 0
166 185 0
167 188 0
167 189 0
168 190 0
170 189 0
166 187 0
162 181 0
172 195 57
171 195 95
177 200 88
169 192 84
171 195 84
165 189 80
167 192 111
174 198 95
173 196 72
174 197 99
169 192 95
173 196 105
174 197 102
174 197 108
170 193 95
172 196 114
170 193 95
172 195 99
172 195 84
171 195 92
170 194 99
173 197 95
171 194 108
163 186 92
169 192 122
167 190 80
164 188 92
167 191 80
169 193 99
175 198 99
165 189 67
171 195 99
169 193 117
167 190 92
171 194 102
171 195 120
168 192 84
171 195 102
173 196 88
168 192 105
164 187 84
168 192 80
171 194 99
163 186 99
168 191 108
165 188 80
165 188 80
163 186 95
161 185 80
166 188 76
166 190 92
155 178 72
161 184 92
168 190 88
167 189 108
158 181 105
166 190 105
162 185 111
165 189 97
158 181 102
162 184 90
162 185 76
154 177 94
165 188 100
164 187 111
162 186 88
167 190 84
150 172 88
161 183 111
154 176 78
164 185 105
162 184 88
158 180 102
167 189 108
155 177 84
159 181 114
159 181 105
154 176 105
153 174 99
167 188 120
160 181 95
146 166 95
155 176 84
157 178 88
156 177 108
152 172 80
150 171 84
142 163 108
151 173 102
158 179 92
144 165 92
151 171 95
145 165 92
156 176 111
138 158 80
146 164 95
138 157 95
148 168 80
143 162 92
152 171 99
139 159 95
135 154 84
140 159 76
128 146 90
130 148 84
116 135 67
123 141 72
128 145 76
123 140 76
119 137 94
105 120 65
110 128 74
103 123 99
102 122 110
88 111 103
82 105 104
100 123 115
100 123 113
94 118 92
90 114 94
87 112 102
97 121 88
91 117 103
109 132 120
110 133 100
106 126 113
95 118 94
109 129 108
90 113 99
101 121 92
112 132 84
121 141 84
109 130 84
124 145 80
123 142 82
117 135 84
104 127 90
115 136 74
107 128 76
102 124 72
102 125 82
104 126 78
89 110 72
104 126 78
86 110 92
87 110 80
74 99 74
86 110 72
84 106 72
95 116 65
79 101 62
86 106 70
88 108 54
79 100 54
96 117 70
77 98 67
68 91 60
71 94 62
77 101 57
78 102 83
62 89 78
48 77 67
55 84 65
53 82 84
50 80 78
51 81 72
54 86 88
50 81 67
54 86 86
51 82 84
51 81 76
52 83 82
54 85 80
55 87 97
54 85 86
54 86 84
53 85 78
51 81 76
52 83 78
54 86 88
53 85 84
53 84 84
54 86 102
51 79 76
52 83 72
50 80 76
55 84 97
55 84 74
60 85 57
67 91 86
68 93 74
63 86 67
79 101 51
73 94 51
81 99 44
71 91 31
78 95 36
94 111 51
89 106 47
88 104 31
92 107 18
93 108 0
87 102 0
100 114 0
95 111 0
100 114 0
87 100 0
90 104 0
95 110 0
100 115 0
121 137 0
99 115 0
113 130 0
95 112 0
101 117 0
110 127 0
108 125 0
109 124 0
112 130 0
113 128 0
110 128 0
108 124 0
113 131 0
119 137 0
114 129 0
115 131 0
109 125 0
123 140 0
127 146 0
117 132 0
113 130 0
124 142 0
121 138 0
126 141 0
124 142 0
116 133 0
131 148 0
131 149 0
117 134 0
132 149 0
128 146 0
110 128 0
124 141 0
112 128 0
127 145 0
131 149 0
132 151 0
131 148 0
132 149 0
131 149 0
142 162 0
140 159 0
129 145 0
139 157 0
135 153 0
135 155 0
142 160 0
143 160 0
137 155 0
136 154 0
142 163 0
129 146 0
143 162 0
143 161 0
140 160 0
139 159 0
143 162 0
130 149 0
142 160 0
140 157 0
132 153 0
140 158 0
148 166 0
145 164 0
136 155 0
134 153 0
142 161 0
143 163 0
138 157 0
144 164 0
144 164 0
139 158 0
144 163 0
149 169 0
141 161 0
137 156 0
146 165 0
146 165 0
150 168 0
143 162 0
143 164 0
146 165 0
148 166 0
142 160 0
139 159 0
154 174 0
148 168 0
151 171 0
149 168 0
157 175 0
148 167 0
146 164 0
145 163 0
151 170 0
147 165 0
150 172 0
153 173 0
147 167 0
146 167 0
152 170 0
146 165 0
155 175 0
157 177 0
154 172 0
152 170 0
151 169 0
159 179 0
152 171 0
155 174 0
153 172 0
149 169 0
157 175 0
160 180 0
153 174 0
153 173 0
155 177 0
153 172 0
157 176 0
155 174 0
156 176 0
164 183 0
153 174 0
157 177 0
147 167 0
157 178 0
151 168 0
159 180 0
154 174 0
161 180 0
153 173 0
159 180 0
160 180 0
155 174 0
160 179 0
161 181 0
160 180 0
153 173 0
161 182 0
160 180 0
159 178 0
162 180 0
160 181 0
161 182 0
158 178 0
159 181 0
162 183 0
163 183 0
159 179 0
161 182 0
161 182 0
161 180 0
160 180 0
159 178 0
162 183 0
159 180 0
163 183 0
158 178 0
166 186 0
163 182 0
156 179 0
162 181 0
161 183 0
164 185 0
167 186 0
166 187 0
160 179 0
161 179 0
160 179 0
166 187 0
162 184 0
160 181 0
166 187 0
159 180 0
163 181 0
168 191 0
161 182 0
167 187 0
160 180 0
163 185 0
164 183 0
163 184 0
163 182 0
166 188 0
165 185 0
169 190 0
164 185 0
163 183 0
166 187 0
166 186 0
161 180 0
172 195 84
177 200 102
174 197 88
174 198 114
169 193 88
169 193 88
168 191 80
171 195 95
176 199 108
168 191 62
171 194 114
170 193 76
167 190 92
166 189 67
171 195 84
168 191 84
170 194 84
176 198 102
172 194 102
172 195 102
170 193 102
170 193 76
166 190 72
178 201 111
173 197 80
169 192 102
171 194 114
171 195 111
165 189 84
162 186 95
167 190 80
169 193 105
168 191 117
170 193 92
168 192 105
162 186 108
168 193 114
168 191 88
165 188 92
167 191 105
170 193 102
167 189 108
169 192 100
164 187 84
169 192 111
167 191 105
166 189 90
164 187 84
163 186 102
167 191 117
167 191 92
159 183 117
168 191 99
160 183 102
168 192 95
162 184 84
158 182 65
160 182 82
162 185 88
166 189 95
162 184 92
170 193 117
161 185 117
164 186 102
165 188 102
157 180 100
164 187 105
165 188 111
166 188 105
160 182 117
163 184 88
158 181 102
158 180 88
160 183 95
160 182 88
156 178 107
158 179 95
159 181 105
160 181 108
157 178 99
163 183 105
157 178 95
151 172 84
152 173 84
152 173 76
158 179 108
154 176 95
155 176 92
152 173 102
150 171 80
159 179 111
154 174 114
144 163 95
159 180 117
144 163 108
144 162 108
153 171 114
143 163 76
124 143 84
146 166 102
147 165 99
137 157 67
135 154 84
143 160 92
119 137 72
135 151 105
127 144 72
136 153 88
126 143 76
106 123 62
126 143 92
122 139 84
110 128 84
108 127 82
97 116 62
98 121 99
85 106 92
100 123 107
85 110 99
101 125 100
99 123 108
97 120 99
88 113 103
100 123 100
106 128 118
95 118 88
114 134 94
100 121 94
110 131 86
116 136 95
120 141 62
122 143 90
120 140 62
126 144 72
118 137 70
120 139 72
129 147 72
124 141 70
105 127 76
121 141 76
104 124 67
101 122 76
102 123 88
104 124 78
103 126 72
101 121 54
82 105 55
99 120 54
90 112 62
96 116 62
95 115 51
88 107 51
96 114 36
98 116 40
77 97 54
89 110 62
83 102 44
82 101 40
84 102 44
82 102 57
80 100 47
79 102 65
77 98 65
59 83 62
65 91 76
63 89 67
64 88 62
61 88 70
54 82 72
59 85 60
57 85 70
60 86 62
55 84 88
55 84 86
53 81 76
59 85 62
60 86 80
67 94 86
58 85 60
54 84 76
61 89 67
67 90 51
57 85 76
68 92 67
55 80 70
72 97 65
67 92 74
74 95 60
68 89 60
81 102 60
71 92 54
81 100 51
69 89 40
88 106 36
87 104 36
84 102 44
84 100 36
86 101 0
85 99 0
93 109 0
106 120 0
89 103 0
97 112 0
96 112 0
95 111 0
92 108 0
95 110 0
99 115 0
102 116 0
101 115 0
114 131 0
110 127 0
104 120 0
109 127 0
106 122 0
104 119 0
97 115 0
118 134 0
109 125 0
102 118 0
111 128 0
117 135 0
117 133 0
122 137 0
101 118 0
120 138 0
118 135 0
115 133 0
117 134 0
121 138 0
122 141 0
127 144 0
109 127 0
121 139 0
124 144 0
128 146 0
127 144 0
119 136 0
119 136 0
132 150 0
125 143 0
134 152 0
119 136 0
121 138 0
121 140 0
131 150 0
135 153 0
122 140 0
122 141 0
133 152 0
128 144 0
142 162 0
129 149 0
132 149 0
131 150 0
135 153 0
134 154 0
130 150 0
145 165 0
136 157 0
132 151 0
139 158 0
143 162 0
141 160 0
139 157 0
134 152 0
139 157 0
147 166 0
134 152 0
139 157 0
143 163 0
140 158 0
143 161 0
143 162 0
145 164 0
145 165 0
149 169 0
143 162 0
145 165 0
148 170 0
151 172 0
135 153 0
146 166 0
140 161 0
148 169 0
143 161 0
149 167 0
147 165 0
153 172 0
147 167 0
144 164 0
154 173 0
155 175 0
146 167 0
142 161 0
148 169 0
151 170 0
148 169 0
137 156 0
150 170 0
149 170 0
150 169 0
147 167 0
153 171 0
147 167 0
155 175 0
148 168 0
150 170 0
145 165 0
147 167 0
154 172 0
152 172 0
151 170 0
157 179 0
152 172 0
151 170 0
152 173 0
153 173 0
151 170 0
153 174 0
152 170 0
153 172 0
152 172 0
153 171 0
159 178 0
155 173 0
159 180 0
155 174 0
158 176 0
154 175 0
151 171 0
152 170 0
154 175 0
163 184 0
158 178 0
156 175 0
154 174 0
160 178 0
152 171 0
159 179 0
154 174 0
155 175 0
152 171 0
159 179 0
161 180 0
152 171 0
161 180 0
163 184 0
163 182 0
153 173 0
163 184 0
157 176 0
162 182 0
158 178 0
161 182 0
159 179 0
153 173 0
163 183 0
160 180 0
161 182 0
160 180 0
163 184 0
161 183 0
163 182 0
156 177 0
163 184 0
161 182 0
167 188 0
159 180 0
160 181 0
167 187 0
167 187 0
160 182 0
165 185 0
162 182 0
163 183 0
165 186 0
165 186 0
170 192 0
164 186 0
166 187 0
161 181 0
162 181 0
162 181 0
162 183 0
163 183 0
165 186 0
165 186 0
168 190 0
167 190 0
161 181 0
161 182 0
164 186 0
164 185 0
167 188 0
162 181 0
164 184 0
160 181 0
166 187 0
160 181 0
173 196 102
174 197 76
169 192 62
172 196 92
173 196 102
174 198 117
172 195 102
173 197 92
172 195 84
173 196 114
168 192 88
172 194 95
171 195 105
166 190 84
166 189 72
168 191 88
171 194 95
170 193 76
176 199 108
166 190 88
174 196 95
172 195 102
176 199 99
171 195 95
171 194 84
171 194 88
172 196 105
173 196 114
167 190 80
171 194 99
169 192 80
169 192 92
171 194 99
170 194 120
164 188 99
161 184 80
164 186 99
160 183 84
164 189 105
170 194 95
165 189 88
164 187 108
165 188 99
167 190 95
165 187 107
168 192 120
164 187 95
162 185 92
166 190 92
162 185 92
164 187 99
166 190 102
170 193 114
164 187 108
169 192 111
159 183 88
164 188 95
158 180 76
155 178 84
166 190 102
163 186 95
168 191 120
168 190 99
160 184 110
160 182 105
162 185 102
159 183 97
162 184 97
153 176 72
158 181 99
159 181 97
157 180 80
157 178 102
158 183 80
159 180 105
146 169 84
156 179 99
156 178 105
154 176 92
152 173 105
157 178 111
162 184 102
150 172 95
146 167 95
150 170 84
158 179 92
157 178 95
156 176 108
149 170 84
150 169 105
150 170 95
149 169 99
146 165 92
147 166 111
145 164 76
143 163 102
144 164 92
144 164 95
152 171 95
151 170 99
148 166 92
135 153 92
148 167 84
128 145 88
142 160 76
130 147 72
134 151 108
138 155 95
113 129 76
122 138 72
131 148 94
103 119 72
110 124 72
106 124 65
99 117 44
94 114 67
87 108 90
78 100 82
95 117 94
102 125 108
89 113 105
94 118 94
91 116 97
100 124 90
102 124 97
97 121 108
115 136 110
109 128 99
126 143 88
118 138 76
118 139 74
124 145 92
120 138 70
128 146 76
123 143 54
123 143 67
125 146 65
122 140 70
122 140 60
116 137 60
120 140 65
119 140 62
104 125 57
98 120 54
91 112 57
100 121 67
95 116 49
88 110 65
102 121 57
87 107 65
86 106 47
87 107 54
89 109 74
88 106 31
94 111 40
94 110 44
83 100 25
77 95 44
90 108 36
69 87 31
74 91 31
75 94 40
73 93 51
95 112 31
80 100 54
73 90 36
64 84 44
68 88 51
68 89 57
73 92 51
74 93 40
73 94 65
76 98 80
76 98 44
73 93 51
77 96 36
63 86 74
84 104 60
74 95 51
71 90 40
77 97 51
78 96 40
73 92 47
81 100 25
85 104 54
84 102 47
73 89 44
71 87 31
69 85 31
90 106 36
75 92 36
72 87 18
87 103 18
79 92 0
81 95 0
71 87 18
82 97 0
102 118 0
93 108 0
83 99 0
78 94 0
88 103 0
85 101 0
99 115 0
95 109 0
94 110 0
107 123 0
103 119 0
100 118 0
93 109 0
93 108 0
113 130 0
96 112 0
113 130 0
105 122 0
104 120 0
112 127 0
111 128 0
110 125 0
113 131 0
124 142 0
119 136 0
108 126 0
115 131 0
108 125 0
114 130 0
107 125 0
115 131 0
118 137 0
117 137 0
119 136 0
117 136 0
128 145 0
110 129 0
128 145 0
131 148 0
122 140 0
127 147 0
115 132 0
123 141 0
124 142 0
121 140 0
130 147 0
130 149 0
122 141 0
125 143 0
133 151 0
126 144 0
131 150 0
130 147 0
130 149 0
130 150 0
132 151 0
143 163 0
134 152 0
140 158 0
125 145 0
136 155 0
133 152 0
142 160 0
128 148 0
142 164 0
143 163 0
137 155 0
140 157 0
138 158 0
136 155 0
145 164 0
134 152 0
150 170 0
145 165 0
140 161 0
146 166 0
135 154 0
140 158 0
152 171 0
141 162 0
149 168 0
146 166 0
144 164 0
137 157 0
142 162 0
149 168 0
156 177 0
149 170 0
146 168 0
148 168 0
143 161 0
150 171 0
149 169 0
145 163 0
151 170 0
153 173 0
152 171 0
150 171 0
147 167 0
149 167 0
145 163 0
153 174 0
149 168 0
151 172 0
154 177 0
150 169 0
150 171 0
148 167 0
150 169 0
154 173 0
153 173 0
153 173 0
150 171 0
152 174 0
150 168 0
151 171 0
158 177 0
157 178 0
159 179 0
154 176 0
155 173 0
153 172 0
151 171 0
155 173 0
152 171 0
160 180 0
153 174 0
159 180 0
157 179 0
161 181 0
152 173 0
160 180 0
153 172 0
155 173 0
158 177 0
157 177 0
154 175 0
162 181 0
162 183 0
158 178 0
161 182 0
159 179 0
159 179 0
157 177 0
161 181 0
161 180 0
153 173 0
154 174 0
162 180 0
163 184 0
159 179 0
161 181 0
159 179 0
160 180 0
158 179 0
158 176 0
160 180 0
158 178 0
161 181 0
157 177 0
159 178 0
161 182 0
159 178 0
161 181 0
161 181 0
165 186 0
162 182 0
167 188 0
166 186 0
165 185 0
160 182 0
161 182 0
164 184 0
162 182 0
164 185 0
159 180 0
161 183 0
168 188 0
166 186 0
160 179 0
164 186 0
167 188 0
162 182 0
164 185 0
168 189 0
164 186 0
164 184 0
169 189 0
163 184 0
167 188 0
163 183 0
161 181 0
168 188 0
165 187 0
161 181 0
161 180 0
162 182 0
166 187 0
162 182 0
166 187 0
163 185 0
168 188 0
167 189 0
171 195 76
173 197 95
173 196 88
173 196 95
174 198 88
170 194 84
173 196 99
170 192 99
172 196 76
178 201 117
172 196 92
169 193 57
173 196 95
166 191 99
172 196 84
165 189 102
176 199 108
177 201 120
167 191 92
168 191 88
173 197 117
172 195 95
166 189 88
168 191 84
169 193 95
168 191 95
169 191 95
170 193 72
166 190 84
168 192 99
169 192 95
166 189 102
165 188 95
167 191 80
163 186 95
170 193 99
164 187 102
168 191 95
173 197 99
167 191 95
159 182 80
166 190 108
162 185 88
164 187 95
165 188 92
169 192 84
163 186 99
165 189 99
164 187 95
166 188 95
166 189 92
166 190 107
165 187 102
165 188 108
163 186 99
172 195 117
170 193 95
160 182 90
160 183 100
162 185 92
159 181 102
159 182 78
166 190 88
161 183 88
163 186 99
161 182 97
166 188 114
163 186 108
162 184 114
159 180 99
161 184 120
159 183 102
156 178 102
156 179 100
148 170 67
162 184 105
154 176 95
151 172 102
155 177 102
153 174 84
154 176 76
163 185 114
161 183 111
157 178 92
155 175 108
154 175 99
152 173 111
145 165 88
154 175 120
147 168 99
143 164 80
147 168 92
139 160 76
147 166 99
147 168 95
146 165 95
150 169 105
149 168 95
139 156 102
138 157 99
146 165 102
131 151 72
149 167 95
136 154 88
143 161 108
131 148 62
127 145 67
126 144 80
133 149 92
120 137 62
122 138 84
118 133 62
123 139 86
117 133 78
109 125 92
116 134 108
92 112 67
101 119 86
102 122 84
94 116 86
98 120 92
102 125 102
84 109 88
96 120 105
109 132 102
110 130 97
94 118 86
110 131 97
127 145 74
118 135 70
114 132 70
114 135 70
125 143 62
117 139 54
120 138 72
118 137 76
113 133 76
114 133 51
118 138 57
120 141 70
115 134 54
112 131 54
108 129 47
112 133 60
106 126 72
99 119 60
105 123 44
101 122 65
99 120 51
93 113 65
90 109 44
97 116 51
97 115 36
110 128 40
82 100 31
94 111 25
101 118 18
90 105 18
94 110 0
104 119 18
85 101 0
93 109 0
94 111 31
82 97 0
87 103 25
80 94 25
87 102 25
80 97 36
82 98 0
85 101 36
69 83 36
78 95 36
78 95 36
84 101 51
91 107 25
75 93 31
80 95 31
72 88 18
86 103 40
68 86 54
95 111 18
75 90 18
83 99 36
76 92 40
86 100 18
88 103 0
81 97 25
77 90 0
85 100 0
90 104 0
86 100 0
89 103 18
95 110 0
99 114 0
91 106 0
84 100 0
99 114 0
93 107 0
92 107 0
109 125 0
85 103 0
92 107 0
98 114 0
106 121 0
93 108 0
105 123 0
108 123 0
105 121 0
109 125 0
95 110 0
103 120 0
100 116 0
107 122 0
109 126 0
109 125 0
106 122 0
112 129 0
97 113 0
111 128 0
118 136 0
117 135 0
110 127 0
121 139 0
119 137 0
109 128 0
120 139 0
124 140 0
118 137 0
118 136 0
128 147 0
122 140 0
121 139 0
130 149 0
132 150 0
126 144 0
119 137 0
126 145 0
124 142 0
110 129 0
128 147 0
133 153 0
119 136 0
128 149 0
126 146 0
128 148 0
129 147 0
139 158 0
134 153 0
135 154 0
138 157 0
127 146 0
142 161 0
138 156 0
136 155 0
138 156 0
127 144 0
132 151 0
137 155 0
132 152 0
133 151 0
136 154 0
141 159 0
145 164 0
140 159 0
135 153 0
134 154 0
141 157 0
134 153 0
140 160 0
138 156 0
152 171 0
145 165 0
147 169 0
146 163 0
138 159 0
144 165 0
146 168 0
146 164 0
138 158 0
141 161 0
145 164 0
142 161 0
134 153 0
150 169 0
149 168 0
147 166 0
141 161 0
147 165 0
159 177 0
147 166 0
152 172 0
150 171 0
145 165 0
155 174 0
154 173 0
152 171 0
147 167 0
147 165 0
149 171 0
159 178 0
153 174 0
151 172 0
155 176 0
154 174 0
144 164 0
146 166 0
158 179 0
149 168 0
152 172 0
161 181 0
151 171 0
157 178 0
149 168 0
154 175 0
155 174 0
156 175 0
151 171 0
154 174 0
159 180 0
156 176 0
154 175 0
152 171 0
147 166 0
145 164 0
154 174 0
155 174 0
158 178 0
161 180 0
154 174 0
155 176 0
159 178 0
157 176 0
157 177 0
160 179 0
160 180 0
159 179 0
158 177 0
164 183 0
161 179 0
160 181 0
153 174 0
155 175 0
152 172 0
157 178 0
154 173 0
157 177 0
157 176 0
162 182 0
165 186 0
162 183 0
157 177 0
159 179 0
166 186 0
157 177 0
161 182 0
164 184 0
161 182 0
160 179 0
161 181 0
164 186 0
160 180 0
159 179 0
159 180 0
158 178 0
161 183 0
163 184 0
161 183 0
160 180 0
167 188 0
154 174 0
158 177 0
159 180 0
165 185 0
163 183 0
164 182 0
161 180 0
156 175 0
163 186 0
159 179 0
162 181 0
161 182 0
163 185 0
164 186 0
162 182 0
166 186 0
165 184 0
161 182 0
167 189 0
162 182 0
167 189 0
165 186 0
164 186 0
170 189 0
167 188 0
163 184 0
162 182 0
169 191 0
166 186 0
168 189 0
169 191 0
170 194 84
174 197 72
172 195 62
173 195 105
172 195 88
171 194 99
165 189 80
177 200 99
175 199 117
175 198 105
172 195 102
173 196 114
173 196 92
171 194 108
178 201 111
174 196 102
171 194 99
168 192 95
170 193 99
174 197 102
171 194 114
170 193 114
168 192 95
169 193 92
169 193 102
170 194 111
170 193 99
169 193 84
166 190 99
170 192 95
170 194 108
167 190 99
168 192 99
165 188 72
160 184 80
164 187 76
166 189 88
165 188 92
167 190 88
166 190 80
159 183 92
165 187 99
172 195 117
168 192 99
170 192 92
166 190 88
165 188 92
163 186 84
172 195 117
166 189 105
161 184 88
163 186 97
163 186 105
159 183 92
172 195 105
162 185 108
161 185 88
159 182 92
164 187 88
166 189 92
159 182 95
159 183 92
168 190 111
163 186 105
156 179 88
164 187 110
159 181 86
158 182 100
161 183 120
154 177 99
156 180 103
158 181 88
154 176 80
161 183 103
160 182 92
163 185 121
165 187 108
162 184 114
150 172 92
159 181 111
152 173 99
167 188 120
156 178 95
147 168 99
156 177 105
162 182 128
150 171 88
147 168 88
160 182 108
146 166 84
149 170 102
154 175 95
152 173 105
148 168 80
140 159 99
139 158 88
147 166 80
139 159 76
149 168 99
140 160 84
144 163 88
151 170 105
142 160 102
133 151 95
134 152 88
147 165 114
129 147 72
136 153 105
127 145 72
120 137 62
127 144 57
118 134 72
115 130 67
123 139 67
119 136 74
107 123 67
106 123 97
105 122 84
104 121 94
113 132 99
98 120 80
94 117 86
100 124 107
91 115 99
101 124 87
96 120 82
110 131 84
114 136 90
114 137 70
111 130 65
130 149 92
124 143 76
126 144 67
123 143 72
126 145 70
137 155 51
121 141 54
131 152 65
131 151 51
113 133 57
116 135 51
105 121 47
110 131 47
112 131 47
107 125 44
103 124 57
105 123 51
99 119 54
111 129 57
117 136 36
84 103 47
103 121 40
98 115 40
99 115 25
100 117 25
98 115 36
105 122 18
94 109 0
92 108 18
90 104 0
92 108 0
82 99 25
85 100 0
98 114 0
93 107 0
102 117 0
91 108 18
95 110 25
96 110 18
81 97 0
73 88 0
86 101 0
77 92 18
95 109 0
92 107 18
91 105 18
94 109 36
79 93 0
97 111 0
80 93 0
86 101 18
79 94 0
93 109 0
85 100 0
90 105 0
70 84 0
85 99 0
86 102 0
87 103 0
84 100 0
87 101 0
93 108 0
78 92 0
92 107 0
83 98 0
98 114 0
91 105 0
92 107 0
93 108 0
107 122 0
104 120 0
94 112 0
107 122 0
100 117 0
106 124 0
92 107 0
105 120 0
108 125 0
117 133 0
106 124 0
97 115 0
98 113 0
100 117 0
113 130 0
110 127 0
116 132 0
114 131 0
108 124 0
116 133 0
113 130 0
113 130 0
113 129 0
114 132 0
110 127 0
118 136 0
125 141 0
125 142 0
109 126 0
124 142 0
127 144 0
113 131 0
129 146 0
121 139 0
119 136 0
123 141 0
117 135 0
108 126 0
131 149 0
133 151 0
127 146 0
133 150 0
132 147 0
124 142 0
120 138 0
130 149 0
133 151 0
132 152 0
122 142 0
137 157 0
121 140 0
128 145 0
131 151 0
133 152 0
128 146 0
133 153 0
128 148 0
142 162 0
131 151 0
143 163 0
135 154 0
140 158 0
139 157 0
145 166 0
141 160 0
144 163 0
139 159 0
142 161 0
139 158 0
142 162 0
140 162 0
132 152 0
144 163 0
137 157 0
138 156 0
151 169 0
147 168 0
140 159 0
140 159 0
141 161 0
140 160 0
141 161 0
151 169 0
149 167 0
143 162 0
157 177 0
143 162 0
149 169 0
150 170 0
150 171 0
154 173 0
152 172 0
153 173 0
155 174 0
147 166 0
145 164 0
145 165 0
156 174 0
151 172 0
154 172 0
149 168 0
158 179 0
147 166 0
147 168 0
152 171 0
147 168 0
151 171 0
158 178 0
150 170 0
155 175 0
148 167 0
160 181 0
156 176 0
149 168 0
155 176 0
156 175 0
154 173 0
156 177 0
151 169 0
156 178 0
150 170 0
158 178 0
151 169 0
150 172 0
155 174 0
159 178 0
164 185 0
155 176 0
152 170 0
161 182 0
158 177 0
156 174 0
157 176 0
160 177 0
155 175 0
156 174 0
160 181 0
161 180 0
162 183 0
156 174 0
159 180 0
161 181 0
159 180 0
153 173 0
159 179 0
157 177 0
164 182 0
160 181 0
157 177 0
155 174 0
163 182 0
163 182 0
160 180 0
159 179 0
161 181 0
159 182 0
161 181 0
158 178 0
161 183 0
158 178 0
162 182 0
160 182 0
158 178 0
161 183 0
163 184 0
163 185 0
162 181 0
159 180 0
164 184 0
162 182 0
167 187 0
161 182 0
164 184 0
159 179 0
162 182 0
160 179 0
165 185 0
162 182 0
163 183 0
166 185 0
161 182 0
161 183 0
163 183 0
167 188 0
155 174 0
161 182 0
164 185 0
162 182 0
166 186 0
168 188 0
160 182 0
165 186 0
164 186 0
164 186 0
163 184 0
171 192 0
165 187 0
163 182 0
172 194 0
170 191 0
164 185 0
174 197 102
177 200 102
178 200 108
168 192 95
170 193 80
175 199 111
175 199 111
176 200 111
175 198 105
176 198 102
169 192 76
172 196 105
172 196 92
171 194 92
172 194 80
173 195 99
174 197 114
171 195 99
174 197 114
172 195 84
169 192 84
168 191 88
172 195 92
173 196 102
174 198 92
168 191 84
171 194 92
167 191 80
174 198 95
165 189 105
174 198 105
172 195 95
173 197 111
167 191 99
171 194 111
161 185 72
173 196 105
168 193 114
169 193 120
164 188 105
173 196 108
164 187 95
168 192 114
166 189 99
168 191 72
171 195 88
168 191 99
171 194 120
160 184 80
160 183 88
169 192 92
166 189 92
162 186 72
165 189 95
163 186 97
161 184 92
162 185 62
167 189 102
158 181 92
160 184 95
162 185 80
166 189 94
168 191 92
161 183 108
157 179 74
160 183 94
153 175 88
163 185 76
160 182 95
164 187 108
146 169 86
159 181 105
158 180 90
161 183 102
156 177 84
155 177 78
162 183 92
163 185 100
152 175 88
164 186 114
163 185 111
148 170 76
153 174 76
161 182 95
149 170 99
151 172 105
156 175 102
153 175 99
149 169 95
155 175 102
147 166 108
154 175 88
161 181 117
153 174 105
159 178 114
148 167 88
141 161 84
150 170 102
149 169 99
139 157 105
138 157 95
145 163 92
137 156 88
128 147 88
141 160 84
140 157 80
129 147 84
128 145 67
117 135 51
132 149 72
128 145 80
119 136 76
125 141 76
106 122 51
111 126 51
110 126 67
112 128 62
104 121 57
113 129 90
110 128 92
91 111 72
112 132 84
93 115 78
91 114 57
97 119 78
109 127 99
105 125 62
115 134 80
113 131 70
111 130 65
124 144 74
121 141 70
120 138 65
130 147 60
133 153 67
129 147 47
128 145 36
130 147 60
125 143 44
126 144 31
118 135 51
118 136 44
126 144 40
114 132 44
114 132 60
110 128 44
101 120 44
112 131 25
109 128 31
95 112 18
107 124 25
109 127 0
106 122 25
103 119 36
121 137 0
97 113 0
99 117 0
77 92 0
97 113 0
96 112 0
88 101 0
102 118 0
107 123 0
92 107 0
79 93 0
93 108 0
100 116 0
124 140 0
90 104 0
87 103 0
95 111 0
82 96 0
81 95 0
97 112 0
92 106 0
92 106 0
85 99 0
101 116 0
92 106 0
107 123 0
86 101 0
94 109 0
93 108 0
99 114 0
89 102 0
93 108 0
92 105 0
101 117 0
106 122 0
95 110 0
85 100 0
92 107 0
95 109 0
97 112 0
103 119 0
87 103 0
94 109 0
95 110 0
101 117 0
98 114 0
111 127 0
92 109 0
103 121 0
95 113 0
96 113 0
107 122 0
114 130 0
118 136 0
104 121 0
110 128 0
96 113 0
111 128 0
99 117 0
112 130 0
113 131 0
116 134 0
126 144 0
121 138 0
126 144 0
108 125 0
122 139 0
116 134 0
116 134 0
115 134 0
122 139 0
119 138 0
121 140 0
123 140 0
124 141 0
129 148 0
124 142 0
127 147 0
124 141 0
131 149 0
115 132 0
119 138 0
126 144 0
128 147 0
129 148 0
125 144 0
139 158 0
116 134 0
131 150 0
130 150 0
138 156 0
127 147 0
133 154 0
141 160 0
131 149 0
132 151 0
134 151 0
135 154 0
138 157 0
133 151 0
129 147 0
138 158 0
136 155 0
142 161 0
138 157 0
128 147 0
143 164 0
137 156 0
146 164 0
132 151 0
137 157 0
135 155 0
147 167 0
140 160 0
134 153 0
143 162 0
136 155 0
143 163 0
139 160 0
146 166 0
146 167 0
139 159 0
136 153 0
148 168 0
144 164 0
145 162 0
140 159 0
147 165 0
152 171 0
143 162 0
145 165 0
152 172 0
145 164 0
151 172 0
147 169 0
147 167 0
149 169 0
157 176 0
149 168 0
148 167 0
146 166 0
149 168 0
154 175 0
150 172 0
157 178 0
152 170 0
152 172 0
157 177 0
154 175 0
152 172 0
157 178 0
148 167 0
145 166 0
154 172 0
143 163 0
148 168 0
150 169 0
147 167 0
156 177 0
154 173 0
153 174 0
152 172 0
154 173 0
161 181 0
162 181 0
157 177 0
157 176 0
152 172 0
158 179 0
157 177 0
154 174 0
162 182 0
157 178 0
158 179 0
156 176 0
150 170 0
162 181 0
157 178 0
156 177 0
158 180 0
154 173 0
155 175 0
160 181 0
158 178 0
166 187 0
165 186 0
155 175 0
155 173 0
161 181 0
160 180 0
159 179 0
160 181 0
162 183 0
161 183 0
160 181 0
154 173 0
159 180 0
164 183 0
157 175 0
158 178 0
153 173 0
158 177 0
162 184 0
161 183 0
165 185 0
162 181 0
158 179 0
164 184 0
163 184 0
156 178 0
161 181 0
163 184 0
167 188 0
161 181 0
158 179 0
164 183 0
159 180 0
165 186 0
166 186 0
164 185 0
162 183 0
167 189 0
156 177 0
158 180 0
166 187 0
166 187 0
165 184 0
163 183 0
170 190 0
159 180 0
163 183 0
163 184 0
164 185 0
164 185 0
167 190 0
167 188 0
169 191 0
168 192 0
165 185 0
165 187 0
163 184 0
165 186 0
165 186 0
167 189 0
166 186 0
159 178 0
169 192 76
169 191 62
169 193 92
170 193 102
172 195 95
171 195 92
175 198 102
167 191 84
175 198 105
171 195 72
172 195 92
174 197 102
172 195 99
170 194 117
172 195 102
172 195 102
165 188 80
170 192 92
165 188 88
171 194 95
172 195 114
171 194 88
173 197 122
167 189 99
168 191 84
166 189 114
173 197 111
171 195 108
164 188 84
166 189 80
174 197 105
169 192 102
168 192 111
166 189 102
168 191 105
165 189 92
169 193 102
167 191 72
163 187 102
163 187 76
162 186 84
170 194 105
170 193 95
169 192 88
163 186 95
168 191 105
167 190 111
161 184 88
164 188 94
163 187 105
166 189 84
165 188 102
169 192 130
168 191 102
157 181 84
164 187 110
162 185 114
161 185 88
159 182 95
162 185 84
162 185 111
165 188 122
162 185 90
162 184 88
162 185 111
162 185 99
159 182 108
152 174 90
156 178 95
165 187 120
165 187 102
154 176 95
157 180 88
148 170 97
155 177 97
161 184 105
159 181 88
154 177 111
149 172 80
163 184 114
149 170 76
165 187 84
155 177 102
152 173 105
153 174 99
148 168 105
147 167 92
154 176 88
151 172 88
152 173 84
155 176 108
136 156 92
159 179 105
137 156 84
158 179 102
143 162 99
155 175 105
141 161 84
139 158 95
142 160 92
135 155 84
147 166 88
132 151 92
150 169 105
143 162 95
136 155 76
146 164 99
126 143 84
132 150 92
119 136 72
125 142 67
111 128 67
129 146 76
126 142 80
114 129 67
128 144 92
124 139 78
103 118 78
101 118 57
115 132 92
103 122 67
109 127 88
84 104 74
108 128 80
103 123 76
107 127 86
104 122 86
107 129 84
109 130 74
107 127 51
116 136 72
126 145 58
113 132 54
131 149 57
126 144 70
121 138 44
140 158 40
125 143 36
120 137 40
128 148 25
127 147 40
124 142 44
116 133 36
119 135 25
109 128 36
106 124 18
111 129 31
91 106 18
106 123 18
113 131 18
103 120 0
112 129 0
112 127 0
99 115 0
102 118 0
98 114 0
101 117 0
110 126 0
106 121 0
97 113 0
103 119 0
87 103 0
96 112 0
98 114 0
91 106 0
93 108 0
100 115 0
88 103 0
84 98 0
89 104 0
85 99 0
94 108 0
91 106 0
83 99 0
94 108 0
90 105 0
103 117 0
100 115 0
91 106 0
96 110 0
72 86 0
94 109 0
103 119 0
93 108 0
94 109 0
84 100 0
87 102 0
81 95 0
91 104 0
94 110 0
107 123 0
111 128 0
93 110 0
94 110 0
103 118 0
91 107 0
99 114 0
100 116 0
101 117 0
104 119 0
107 124 0
105 120 0
102 119 0
112 128 0
109 126 0
109 126 0
101 115 0
120 137 0
110 127 0
105 123 0
104 121 0
98 113 0
122 139 0
110 127 0
110 127 0
105 123 0
115 132 0
122 139 0
116 134 0
114 131 0
110 127 0
128 147 0
113 131 0
131 149 0
120 138 0
118 137 0
138 157 0
122 140 0
116 135 0
124 141 0
133 151 0
122 140 0
115 131 0
111 129 0
112 131 0
120 139 0
123 142 0
133 152 0
121 139 0
126 145 0
130 149 0
114 133 0
133 152 0
132 149 0
134 155 0
132 150 0
126 143 0
138 157 0
131 150 0
129 149 0
138 156 0
131 148 0
122 140 0
140 157 0
133 153 0
136 155 0
141 160 0
134 154 0
130 150 0
136 155 0
123 142 0
140 159 0
142 161 0
135 154 0
142 163 0
139 156 0
139 158 0
134 153 0
139 157 0
137 157 0
139 159 0
147 167 0
144 163 0
140 158 0
141 159 0
144 165 0
146 165 0
158 178 0
154 175 0
142 160 0
148 168 0
145 166 0
145 162 0
149 168 0
148 168 0
150 170 0
146 166 0
142 160 0
149 171 0
146 165 0
146 168 0
157 178 0
156 176 0
151 172 0
141 159 0
145 165 0
151 171 0
145 164 0
149 168 0
152 173 0
151 171 0
149 169 0
153 175 0
151 173 0
156 176 0
143 161 0
157 177 0
148 168 0
156 177 0
155 175 0
152 172 0
155 176 0
147 168 0
149 168 0
147 166 0
156 175 0
157 178 0
149 168 0
159 180 0
154 172 0
155 176 0
153 173 0
157 177 0
157 178 0
157 177 0
157 175 0
156 175 0
154 175 0
162 182 0
158 179 0
159 179 0
156 177 0
156 177 0
158 179 0
158 178 0
159 179 0
160 179 0
163 184 0
162 183 0
161 183 0
159 179 0
156 177 0
165 186 0
158 179 0
159 178 0
163 183 0
162 182 0
160 180 0
163 183 0
163 183 0
163 184 0
163 186 0
160 180 0
156 176 0
160 178 0
160 180 0
165 188 0
159 180 0
164 183 0
165 186 0
166 186 0
164 185 0
168 190 0
165 185 0
165 187 0
168 190 0
159 180 0
160 182 0
163 185 0
165 186 0
161 182 0
164 185 0
167 188 0
162 182 0
161 177 0
170 192 0
161 179 0
163 184 0
163 185 0
164 184 0
162 182 0
162 183 0
165 188 0
159 178 0
163 183 0
167 188 0
168 190 0
161 181 0
161 182 0
166 186 0
167 187 0
170 192 0
162 183 0
166 187 0
167 188 0
165 186 0
164 186 0
167 189 0
166 185 0
167 186 0
174 196 95
171 195 84
175 198 105
170 192 88
172 195 105
176 199 122
170 195 84
171 195 88
172 196 95
171 195 99
171 194 99
170 194 111
175 199 108
172 195 105
172 196 95
174 196 108
172 195 95
174 197 117
171 194 105
172 195 95
172 196 99
172 195 95
169 192 84
173 197 102
166 191 108
170 193 99
167 190 84
169 192 72
173 196 120
168 191 99
166 190 92
166 188 67
166 189 95
168 192 88
166 189 72
163 187 72
167 191 99
173 197 80
163 187 95
170 194 111
163 186 88
167 189 99
161 185 88
169 193 88
163 187 111
168 191 105
158 182 108
167 190 99
163 187 111
169 193 111
160 184 88
170 193 88
164 186 76
165 189 102
157 179 108
161 184 88
162 185 100
166 188 114
165 189 95
162 184 92
159 182 110
165 187 92
160 184 118
155 178 99
165 188 105
166 189 95
163 186 105
156 179 92
159 181 76
163 185 80
165 187 99
154 177 72
167 190 108
156 178 72
157 179 88
156 179 72
157 179 76
155 177 108
159 181 111
160 182 67
153 175 99
158 179 95
159 181 111
163 184 102
155 176 105
155 175 99
154 175 102
155 176 99
161 181 111
154 174 108
154 175 92
148 168 84
147 168 102
153 174 72
146 166 92
151 171 108
152 170 122
150 170 99
153 172 92
141 160 95
141 160 88
134 152 80
139 157 99
135 154 92
142 160 92
149 168 105
136 154 92
147 165 122
127 145 80
121 139 62
123 141 76
126 143 84
117 133 62
128 144 67
128 145 88
135 151 80
118 134 57
109 124 80
117 132 67
110 126 82
120 136 57
103 122 80
104 121 70
100 118 74
103 121 74
111 129 74
110 129 74
112 131 65
106 126 65
121 139 57
130 149 72
140 157 36
129 146 31
123 141 31
131 149 31
139 155 31
134 151 40
132 149 36
124 142 31
128 145 0
125 143 0
122 139 0
122 137 0
122 139 0
118 135 18
106 125 18
110 127 0
112 129 0
122 140 18
114 131 0
110 126 0
115 131 0
109 126 0
113 130 0
104 121 0
101 117 0
103 118 0
111 129 0
100 115 0
106 121 0
101 116 0
109 126 0
81 96 0
112 128 0
94 109 0
100 115 0
83 97 0
95 110 0
97 114 0
85 100 0
89 105 0
96 113 0
89 105 0
92 106 0
89 104 0
104 121 0
96 112 0
99 116 0
89 105 0
92 107 0
94 109 0
95 109 0
93 110 0
97 114 0
98 115 0
91 107 0
92 107 0
93 108 0
106 122 0
96 111 0
112 128 0
106 122 0
105 121 0
86 101 0
107 123 0
106 122 0
105 121 0
99 115 0
107 123 0
105 122 0
96 112 0
105 122 0
98 115 0
106 123 0
97 113 0
117 134 0
107 123 0
110 127 0
93 111 0
109 126 0
111 128 0
108 126 0
105 121 0
114 132 0
123 141 0
113 131 0
109 128 0
112 130 0
118 137 0
108 126 0
104 122 0
121 139 0
126 143 0
115 133 0
132 149 0
127 145 0
127 146 0
121 138 0
120 139 0
123 141 0
120 138 0
122 140 0
126 145 0
126 145 0
122 140 0
127 145 0
130 149 0
131 149 0
126 146 0
127 146 0
129 149 0
135 154 0
135 154 0
124 144 0
127 146 0
131 152 0
137 154 0
136 156 0
133 152 0
135 154 0
133 151 0
131 149 0
141 160 0
134 152 0
142 161 0
140 159 0
139 157 0
138 158 0
137 155 0
136 153 0
135 156 0
147 166 0
130 149 0
144 163 0
149 170 0
138 158 0
144 166 0
140 159 0
141 161 0
143 163 0
146 166 0
138 158 0
140 162 0
153 173 0
149 169 0
134 152 0
142 163 0
147 167 0
155 175 0
141 161 0
156 176 0
156 177 0
150 168 0
150 171 0
149 170 0
142 163 0
141 159 0
148 168 0
157 178 0
153 174 0
153 173 0
148 169 0
148 169 0
152 172 0
159 180 0
146 166 0
151 173 0
155 174 0
157 179 0
156 177 0
155 176 0
153 174 0
149 169 0
142 162 0
146 166 0
151 170 0
149 168 0
157 176 0
155 175 0
155 175 0
145 165 0
157 179 0
154 176 0
150 172 0
155 174 0
151 172 0
153 173 0
150 171 0
159 180 0
152 171 0
151 170 0
152 171 0
156 177 0
160 181 0
156 177 0
165 185 0
150 169 0
153 173 0
154 173 0
149 167 0
160 181 0
154 175 0
155 175 0
154 173 0
150 170 0
154 174 0
154 174 0
158 178 0
153 173 0
155 175 0
165 186 0
163 184 0
164 186 0
154 175 0
162 183 0
160 181 0
162 183 0
154 174 0
156 174 0
158 180 0
157 178 0
160 179 0
159 180 0
159 180 0
164 186 0
162 182 0
159 179 0
159 179 0
159 179 0
163 183 0
163 183 0
164 185 0
161 181 0
162 182 0
165 185 0
162 182 0
165 187 0
164 183 0
162 182 0
165 185 0
167 189 0
163 184 0
160 183 0
165 186 0
162 183 0
165 186 0
163 184 0
160 181 0
162 183 0
165 187 0
167 188 0
165 187 0
163 184 0
164 185 0
164 185 0
167 189 0
165 185 0
162 183 0
165 186 0
161 181 0
165 185 0
168 189 0
167 187 0
165 186 0
166 188 0
170 192 0
164 184 0
167 188 0
164 185 0
169 192 0
173 196 102
181 204 120
172 196 84
176 198 84
176 198 108
175 200 105
173 196 102
172 195 92
171 194 95
171 194 99
174 198 108
177 200 108
169 193 80
173 197 84
166 189 76
171 194 95
170 194 95
168 191 92
167 190 88
170 194 114
173 197 108
172 194 92
172 195 88
168 191 111
153 177 62
173 196 99
173 196 92
162 186 72
167 190 84
163 186 72
168 191 105
167 190 92
170 193 102
170 194 114
165 190 88
162 185 95
171 195 111
162 186 80
170 194 111
164 189 88
168 191 92
169 194 95
161 184 88
166 189 102
162 185 102
170 193 105
171 194 108
168 191 84
165 188 102
158 182 84
165 188 80
167 190 102
170 194 117
165 188 95
163 185 105
162 184 57
158 181 82
165 188 105
162 185 95
164 186 80
163 186 117
162 185 95
162 186 105
158 181 114
158 180 76
164 187 95
163 186 113
161 184 99
162 184 108
160 183 94
155 178 84
169 191 105
161 183 102
154 177 108
156 177 95
150 172 102
163 185 105
157 178 102
151 173 76
162 182 120
159 181 114
155 176 95
157 178 99
154 176 84
154 175 76
149 171 92
158 180 108
152 173 95
154 175 80
152 173 99
147 167 88
158 178 102
148 168 92
148 168 99
144 164 111
154 174 102
152 172 88
144 163 80
144 164 95
156 176 99
147 168 88
146 164 114
149 167 99
142 161 88
132 151 76
124 144 62
132 151 67
133 151 88
140 157 72
131 149 88
135 153 72
116 133 51
123 140 80
122 140 62
135 152 80
134 150 88
132 149 80
110 125 80
122 138 80
108 124 47
92 107 54
114 130 72
109 126 76
101 119 31
107 125 54
108 126 62
117 135 57
121 140 65
119 138 74
123 140 47
122 138 42
126 146 36
133 152 18
129 148 31
138 154 25
134 151 40
143 161 36
141 160 18
131 148 25
136 153 0
126 143 18
121 139 0
125 143 0
118 134 0
121 138 0
111 129 0
118 135 0
116 133 0
117 133 0
124 142 0
103 118 0
124 141 0
118 135 0
105 122 0
94 111 0
123 141 0
103 120 0
106 125 0
100 115 0
102 118 0
94 110 0
96 113 0
94 110 0
92 109 0
100 114 0
105 122 0
101 117 0
93 108 0
94 110 0
93 108 0
106 123 0
82 97 0
102 118 0
101 116 0
95 109 0
101 116 0
106 121 0
101 117 0
99 114 0
107 122 0
91 107 0
100 116 0
105 121 0
104 121 0
97 113 0
106 120 0
96 111 0
94 110 0
100 117 0
91 108 0
103 119 0
104 120 0
109 127 0
99 116 0
108 125 0
111 127 0
100 117 0
93 109 0
114 131 0
111 126 0
122 140 0
101 117 0
117 134 0
106 123 0
108 125 0
109 127 0
99 116 0
109 127 0
118 137 0
106 123 0
118 137 0
106 122 0
112 130 0
123 141 0
127 145 0
110 127 0
118 136 0
112 131 0
103 121 0
125 143 0
126 145 0
121 139 0
106 124 0
120 136 0
116 132 0
124 143 0
120 139 0
106 125 0
124 143 0
113 131 0
129 148 0
125 143 0
133 153 0
120 139 0
125 144 0
133 154 0
129 149 0
129 149 0
131 150 0
127 146 0
126 144 0
132 152 0
139 157 0
134 154 0
140 157 0
133 153 0
130 150 0
136 155 0
135 155 0
136 154 0
130 150 0
135 155 0
129 150 0
143 162 0
140 160 0
133 153 0
137 158 0
142 162 0
140 160 0
124 144 0
135 154 0
150 169 0
144 164 0
142 162 0
146 166 0
141 160 0
142 161 0
143 162 0
137 156 0
137 157 0
142 162 0
136 155 0
143 164 0
137 158 0
148 170 0
148 169 0
140 159 0
148 169 0
149 169 0
152 172 0
152 171 0
138 159 0
143 162 0
156 176 0
144 164 0
150 170 0
145 166 0
145 165 0
149 169 0
146 165 0
153 173 0
156 176 0
151 172 0
150 168 0
152 171 0
145 164 0
151 170 0
149 170 0
153 172 0
153 172 0
149 168 0
147 167 0
151 170 0
155 175 0
154 175 0
161 182 0
154 174 0
151 171 0
157 178 0
148 169 0
153 171 0
156 177 0
150 170 0
150 172 0
160 180 0
155 174 0
147 169 0
155 177 0
156 177 0
159 180 0
157 178 0
163 184 0
151 172 0
154 173 0
160 181 0
155 175 0
156 177 0
159 179 0
156 175 0
154 174 0
156 177 0
163 185 0
153 172 0
161 183 0
153 173 0
158 179 0
156 177 0
158 178 0
161 181 0
153 174 0
160 181 0
157 177 0
157 177 0
153 173 0
163 184 0
157 178 0
161 181 0
158 179 0
165 187 0
159 178 0
157 176 0
155 174 0
162 182 0
167 188 0
160 180 0
162 181 0
156 176 0
159 180 0
162 181 0
154 174 0
162 181 0
162 182 0
167 188 0
163 184 0
163 184 0
159 179 0
158 178 0
167 187 0
166 187 0
165 186 0
163 182 0
165 186 0
162 182 0
161 180 0
165 184 0
162 182 0
162 185 0
162 183 0
165 185 0
168 189 0
166 186 0
167 188 0
163 185 0
168 191 0
164 184 0
165 185 0
164 185 0
160 182 0
165 186 0
166 186 0
165 186 0
166 188 0
167 188 0
164 185 0
166 187 0
167 189 0
166 188 0
164 185 0
167 190 0
164 186 0
171 194 92
176 198 95
176 200 99
167 191 72
169 192 76
171 194 99
172 196 84
175 198 111
170 193 92
172 196 108
178 201 120
169 192 76
173 197 120
174 196 102
166 189 92
173 196 95
174 198 105
173 196 108
171 193 102
167 190 67
168 191 99
173 196 84
165 189 95
164 188 67
172 196 105
170 193 111
166 189 95
162 186 76
169 192 117
169 193 117
165 188 84
163 186 99
169 192 95
170 192 80
161 185 102
164 187 62
168 191 72
167 191 105
169 192 95
169 192 95
164 188 84
158 182 88
160 183 111
164 187 76
166 189 88
162 185 88
160 183 88
165 189 103
165 188 92
161 184 99
161 184 102
162 185 88
159 182 92
169 192 111
156 180 95
162 185 88
166 188 99
160 182 70
158 181 99
157 180 74
161 184 95
162 184 92
160 184 107
158 182 92
158 181 76
162 184 84
155 177 94
162 184 102
162 183 88
156 178 76
162 184 95
160 182 110
157 180 102
159 182 76
162 184 102
166 188 122
156 177 108
160 183 99
155 176 95
154 175 102
158 180 88
147 168 84
161 182 102
156 177 105
156 177 114
154 175 92
161 182 92
149 170 88
161 183 120
156 177 111
156 176 99
144 164 76
149 170 84
152 172 95
153 173 114
160 180 117
146 166 108
149 169 105
148 168 117
142 161 72
147 167 88
153 172 111
141 161 84
141 161 76
153 172 102
142 161 95
133 152 80
133 150 84
127 145 62
115 133 67
125 143 57
129 147 80
133 151 84
118 134 62
117 134 62
132 150 80
116 133 67
129 145 80
119 135 62
117 132 72
119 135 57
119 136 72
115 131 74
121 137 57
108 125 62
120 138 54
123 143 57
121 139 44
122 138 51
123 141 25
128 145 31
134 151 57
140 157 54
139 157 25
135 152 0
132 151 25
133 150 25
137 156 0
142 161 0
130 147 0
128 145 0
128 145 0
129 147 0
134 152 0
117 135 0
114 132 0
110 127 0
115 132 0
123 141 0
116 133 0
111 129 0
118 136 0
101 119 0
116 133 0
111 127 0
118 135 0
103 119 0
102 118 0
107 124 25
112 129 0
130 147 0
98 115 0
110 126 0
106 123 0
97 114 0
102 118 0
113 128 0
91 106 0
99 115 0
98 115 0
99 114 0
102 118 0
89 104 0
100 114 0
81 97 0
88 104 0
105 120 0
96 113 0
96 112 0
97 112 0
100 115 0
98 117 0
97 113 0
99 115 0
100 116 0
104 121 0
98 115 0
93 111 0
112 129 0
109 126 0
97 114 0
112 130 0
103 119 0
99 114 0
104 121 0
109 126 0
116 133 0
111 129 0
107 123 0
123 141 0
109 127 0
104 120 0
96 114 0
109 126 0
115 133 0
107 125 0
111 128 0
107 125 0
108 124 0
112 131 0
118 135 0
117 136 0
111 129 0
121 139 0
121 139 0
120 138 0
117 135 0
107 124 0
128 148 0
126 145 0
120 137 0
120 139 0
128 146 0
118 136 0
126 144 0
116 136 0
119 137 0
123 141 0
129 146 0
128 147 0
126 144 0
132 151 0
121 139 0
132 150 0
132 152 0
115 132 0
128 148 0
136 156 0
130 149 0
123 144 0
127 145 0
136 155 0
124 143 0
133 151 0
139 158 0
134 153 0
138 157 0
133 153 0
139 159 0
137 156 0
134 153 0
140 160 0
145 166 0
133 153 0
142 162 0
136 156 0
146 167 0
144 164 0
136 156 0
147 167 0
138 156 0
135 155 0
152 171 0
140 160 0
133 152 0
139 159 0
149 168 0
139 157 0
145 165 0
138 157 0
145 165 0
136 157 0
143 162 0
143 162 0
150 169 0
140 159 0
146 165 0
146 166 0
154 175 0
143 164 0
140 160 0
144 163 0
143 164 0
142 163 0
151 171 0
147 168 0
150 172 0
147 167 0
151 172 0
153 174 0
148 167 0
148 169 0
149 171 0
148 169 0
140 160 0
151 170 0
160 180 0
155 177 0
156 177 0
161 182 0
154 172 0
154 174 0
147 169 0
161 181 0
148 170 0
154 175 0
152 171 0
156 177 0
148 171 0
151 170 0
154 175 0
154 174 0
148 168 0
152 173 0
161 181 0
157 179 0
154 175 0
149 168 0
152 173 0
158 177 0
155 175 0
155 175 0
149 168 0
159 179 0
155 174 0
156 176 0
156 176 0
157 176 0
159 178 0
158 178 0
158 179 0
161 182 0
156 178 0
154 174 0
159 179 0
160 181 0
159 179 0
159 179 0
167 187 0
156 176 0
159 179 0
161 180 0
157 177 0
157 179 0
161 181 0
161 181 0
160 180 0
161 182 0
160 180 0
166 187 0
158 180 0
162 180 0
163 184 0
161 183 0
159 180 0
159 180 0
162 183 0
159 180 0
164 185 0
158 178 0
162 183 0
159 180 0
161 183 0
155 176 0
160 181 0
164 183 0
163 184 0
162 183 0
156 177 0
162 182 0
169 190 0
166 188 0
164 184 0
161 181 0
163 183 0
165 186 0
164 183 0
167 189 0
164 185 0
164 184 0
169 190 0
163 185 0
161 181 0
164 183 0
159 179 0
164 186 0
168 188 0
164 184 0
163 183 0
162 182 0
162 184 0
163 185 0
162 185 0
168 189 0
163 185 0
160 181 0
163 185 0
162 183 0
167 190 0
160 180 0
174 197 102
169 192 80
172 195 84
173 197 88
170 193 114
175 198 99
174 198 108
173 197 95
167 190 105
171 193 99
179 201 99
174 197 88
172 196 95
169 192 84
171 194 72
171 194 105
168 191 111
171 194 102
170 194 92
168 192 102
171 195 108
167 190 102
168 191 95
171 194 105
172 195 92
170 193 80
172 195 95
166 189 92
169 193 114
171 194 88
169 193 88
166 189 72
172 196 102
168 191 92
165 189 95
165 188 99
165 189 72
164 187 92
165 188 88
168 191 95
172 196 114
171 194 105
168 191 102
164 188 99
162 185 92
163 187 108
167 190 95
159 182 117
161 184 86
161 185 84
167 190 114
163 186 108
167 191 99
163 187 88
162 186 80
164 187 108
156 179 88
162 186 97
164 188 88
165 188 111
159 182 62
161 184 80
170 193 105
162 185 102
157 179 92
161 184 76
159 181 102
159 182 84
159 182 88
162 184 76
156 178 99
154 176 105
154 177 95
162 185 99
164 185 88
161 184 88
158 180 99
156 178 99
159 181 95
155 176 80
157 179 105
160 181 102
156 177 99
156 177 88
149 171 84
157 179 88
164 184 108
153 174 120
150 171 92
148 169 88
159 179 108
152 173 99
148 169 88
147 167 99
151 171 84
149 168 99
159 178 120
151 171 99
137 156 67
147 167 99
139 158 72
148 167 108
148 167 92
143 162 95
152 170 108
159 178 128
152 171 111
137 156 67
127 144 67
130 147 95
128 147 72
137 155 84
129 147 57
146 164 95
132 149 95
127 144 62
119 136 36
117 134 51
117 134 72
118 134 25
119 135 67
114 131 57
102 116 57
114 131 60
117 134 57
129 145 44
111 127 51
124 143 65
121 138 44
132 148 67
132 149 25
128 147 36
136 153 36
137 154 0
131 149 25
127 146 0
130 150 0
141 161 0
129 147 0
136 153 36
133 152 0
132 149 0
135 153 0
136 153 0
132 150 0
116 133 0
122 139 0
114 130 0
110 126 0
107 125 0
120 136 0
120 137 0
111 129 0
112 128 0
103 120 0
103 122 0
109 126 0
111 127 0
113 129 0
100 117 0
118 135 0
93 111 0
113 128 0
91 106 0
111 128 0
97 112 0
104 119 0
103 119 0
107 124 0
104 119 0
101 118 0
105 121 0
110 128 0
107 124 0
97 113 0
96 113 0
109 125 0
100 118 0
109 124 0
97 113 0
95 111 0
102 119 0
94 108 0
95 111 0
110 125 0
99 116 0
117 133 0
107 123 0
105 120 0
105 121 0
95 111 0
109 125 0
110 128 0
102 119 0
110 127 0
114 130 0
114 131 0
115 132 0
122 140 0
113 132 0
105 123 0
97 114 0
97 115 0
112 130 0
116 133 0
120 138 0
115 132 0
114 132 0
112 131 0
108 128 0
118 137 0
109 128 0
126 145 0
116 132 0
118 135 0
122 141 0
126 145 0
121 139 0
119 137 0
118 137 0
124 142 0
121 140 0
123 141 0
119 138 0
126 146 0
130 149 0
134 153 0
121 140 0
117 136 0
124 143 0
128 147 0
125 143 0
135 154 0
133 153 0
122 140 0
126 146 0
127 146 0
119 137 0
137 156 0
142 161 0
132 150 0
130 150 0
131 150 0
135 154 0
132 152 0
128 149 0
134 154 0
127 147 0
139 158 0
137 155 0
136 155 0
137 157 0
136 155 0
139 159 0
135 154 0
136 156 0
136 154 0
142 162 0
141 160 0
140 159 0
138 158 0
144 165 0
134 155 0
143 163 0
141 161 0
149 169 0
149 169 0
145 166 0
151 171 0
149 170 0
138 157 0
147 168 0
147 166 0
149 171 0
140 160 0
147 166 0
148 168 0
142 162 0
139 159 0
146 165 0
152 174 0
149 170 0
147 166 0
149 168 0
146 166 0
143 164 0
143 162 0
140 157 0
154 174 0
149 169 0
148 168 0
149 169 0
149 168 0
150 169 0
148 168 0
153 173 0
146 165 0
145 165 0
148 169 0
150 170 0
158 178 0
161 182 0
151 171 0
153 173 0
149 169 0
148 169 0
156 176 0
158 178 0
154 174 0
155 174 0
154 174 0
153 174 0
155 174 0
157 177 0
159 181 0
158 178 0
153 174 0
165 186 0
165 186 0
161 182 0
155 177 0
160 180 0
156 177 0
159 179 0
158 178 0
161 180 0
154 175 0
157 176 0
156 176 0
159 181 0
159 178 0
161 181 0
162 181 0
158 178 0
154 173 0
157 179 0
156 176 0
160 181 0
157 178 0
162 183 0
156 177 0
159 179 0
156 177 0
161 182 0
164 184 0
158 179 0
154 173 0
160 181 0
162 182 0
160 181 0
156 177 0
160 180 0
156 176 0
159 180 0
162 183 0
162 183 0
163 185 0
159 180 0
163 182 0
164 185 0
160 180 0
163 184 0
165 186 0
164 185 0
164 184 0
162 183 0
161 183 0
162 183 0
159 181 0
165 186 0
165 187 0
166 187 0
163 184 0
161 181 0
167 189 0
162 183 0
164 185 0
162 183 0
164 187 0
163 183 0
160 181 0
162 182 0
161 182 0
168 191 0
166 187 0
162 183 0
165 185 0
163 187 0
162 183 0
165 188 0
163 184 0
167 188 0
165 186 0
161 182 0
167 189 0
169 191 0
168 191 0
165 187 0
170 191 0
166 187 0
172 195 84
176 199 108
171 194 92
168 191 80
173 195 122
173 196 92
172 195 92
174 197 117
172 195 105
172 196 114
166 190 84
171 195 102
168 191 99
175 198 102
170 193 80
169 192 99
168 192 95
173 196 111
175 198 120
173 198 95
169 192 95
168 191 95
167 191 92
166 190 80
169 192 99
168 192 84
173 196 99
168 192 84
172 196 102
165 189 88
170 194 95
162 186 80
168 192 88
167 190 88
168 191 88
174 197 88
167 192 102
170 193 84
165 188 88
163 186 76
173 196 108
171 194 117
173 196 114
168 191 102
171 194 76
169 191 99
165 189 108
161 184 110
165 189 111
165 188 102
167 191 111
163 187 76
169 192 108
165 189 99
157 180 88
158 181 88
168 190 88
163 186 99
166 189 88
160 183 80
160 183 76
168 190 105
156 179 95
158 180 51
162 185 102
157 179 102
165 187 88
163 186 117
161 184 67
163 185 80
163 187 114
163 185 82
148 170 80
161 184 92
151 173 99
166 188 95
156 178 105
161 183 88
164 186 108
159 180 95
156 178 72
155 177 80
154 175 95
157 178 105
158 180 114
157 179 88
152 173 111
151 172 88
150 171 84
157 179 99
147 168 95
147 167 92
151 172 95
148 168 80
155 176 88
153 173 99
159 178 95
160 179 88
141 161 92
151 171 95
155 175 84
152 171 111
144 163 102
142 161 88
153 171 128
156 175 95
138 157 80
142 161 108
144 162 80
124 142 67
131 149 67
142 159 105
134 152 72
136 153 80
120 138 76
130 148 62
129 146 72
120 137 44
109 126 36
131 149 62
116 132 36
117 134 67
118 134 51
118 134 36
112 129 62
114 130 25
132 151 51
128 143 57
121 138 36
134 152 57
129 146 25
134 152 25
133 153 0
143 162 44
133 152 0
150 169 0
136 155 0
136 157 25
134 153 0
132 151 0
138 156 0
130 148 0
121 138 0
125 142 0
125 144 0
128 147 0
127 145 0
126 144 0
120 140 0
116 132 0
118 136 0
120 137 0
117 136 0
115 133 0
110 128 0
123 140 0
108 125 0
118 135 0
115 131 0
112 129 0
110 126 0
103 120 0
99 117 0
108 124 0
104 121 0
108 125 0
116 133 0
102 119 0
97 114 0
106 123 0
103 120 0
114 131 0
109 126 0
112 128 0
105 120 0
99 116 0
113 130 0
101 118 0
106 123 0
107 124 0
114 130 0
115 132 0
119 137 0
110 126 0
114 131 0
117 134 0
98 115 0
107 124 0
108 127 0
113 130 0
115 133 0
105 122 0
97 114 0
92 109 0
102 118 0
101 118 0
105 123 0
105 122 0
102 119 0
112 128 0
113 131 0
119 137 0
116 134 0
107 125 0
117 135 0
108 126 0
116 133 0
117 134 0
124 142 0
117 135 0
125 142 0
112 130 0
118 136 0
122 140 0
109 127 0
114 133 0
115 134 0
130 148 0
122 141 0
124 143 0
130 150 0
127 147 0
132 151 0
124 141 0
121 139 0
136 156 0
111 129 0
135 154 0
127 144 0
134 153 0
124 143 0
122 141 0
132 151 0
127 145 0
128 149 0
135 155 0
119 139 0
133 153 0
129 147 0
130 150 0
125 144 0
131 150 0
129 149 0
149 169 0
131 150 0
141 161 0
136 156 0
136 155 0
133 153 0
138 158 0
136 155 0
135 156 0
143 164 0
144 165 0
139 159 0
135 156 0
137 156 0
133 154 0
142 164 0
145 166 0
138 159 0
144 164 0
144 163 0
146 167 0
144 164 0
145 164 0
139 158 0
148 169 0
143 164 0
150 171 0
146 167 0
143 163 0
150 171 0
143 163 0
143 164 0
141 161 0
140 161 0
145 165 0
146 166 0
148 167 0
151 172 0
145 165 0
148 169 0
147 168 0
146 166 0
149 169 0
153 174 0
145 165 0
156 176 0
147 167 0
156 175 0
147 167 0
149 169 0
149 169 0
152 172 0
150 171 0
149 169 0
147 167 0
155 176 0
152 171 0
150 169 0
155 176 0
157 179 0
160 179 0
149 170 0
155 176 0
157 178 0
145 164 0
155 175 0
146 168 0
153 174 0
156 176 0
154 174 0
160 181 0
156 178 0
153 174 0
154 175 0
155 176 0
150 169 0
149 169 0
157 178 0
160 180 0
153 173 0
154 175 0
155 175 0
161 181 0
159 179 0
158 178 0
161 184 0
156 176 0
154 175 0
163 184 0
156 175 0
160 181 0
151 172 0
157 178 0
161 181 0
155 177 0
158 178 0
164 184 0
158 179 0
160 180 0
167 188 0
161 183 0
167 189 0
158 177 0
164 185 0
164 185 0
163 184 0
160 183 0
162 183 0
169 191 0
157 178 0
159 181 0
162 184 0
157 178 0
164 184 0
162 181 0
165 186 0
160 180 0
164 184 0
165 185 0
163 184 0
167 188 0
160 181 0
159 178 0
162 182 0
168 189 0
160 182 0
162 184 0
157 176 0
162 184 0
163 183 0
166 186 0
162 183 0
167 188 0
158 180 0
164 185 0
162 183 0
167 188 0
164 186 0
165 186 0
165 188 0
161 181 0
165 187 0
166 187 0
161 181 0
169 191 0
162 183 0
169 190 0
165 186 0
168 188 0
159 181 0
165 186 0
162 181 0
168 191 0
167 189 0
161 185 0
165 186 0
165 186 0
172 195 92
169 191 84
172 195 76
175 198 114
171 194 95
174 197 80
172 195 92
166 190 102
173 196 105
172 195 88
168 192 88
175 199 108
171 195 84
170 193 108
170 194 108
171 194 76
172 195 99
173 197 102
167 190 92
173 197 92
173 196 111
166 190 72
172 195 108
175 199 114
170 193 92
168 191 88
165 189 95
170 193 84
168 191 102
172 195 105
170 194 92
169 192 102
166 189 95
171 194 57
169 194 92
164 186 84
163 186 88
169 193 95
159 183 92
169 192 84
169 192 105
168 192 95
162 185 84
170 194 92
161 185 67
159 183 84
166 190 105
172 195 99
161 184 80
162 185 92
168 189 95
163 186 99
166 190 95
166 189 105
163 187 95
163 186 84
160 183 80
163 186 92
168 191 105
163 185 99
164 186 88
164 187 114
160 183 76
166 189 95
160 184 84
158 181 95
155 177 86
160 182 95
162 184 102
161 184 84
156 178 76
157 180 102
163 185 102
164 187 120
156 178 102
155 176 88
154 176 95
162 184 88
158 179 114
157 179 92
154 176 99
150 172 84
164 186 102
158 180 99
158 179 117
151 172 80
154 174 84
145 166 92
152 173 95
153 174 76
158 178 120
161 181 99
160 180 120
156 178 84
156 175 88
153 173 84
147 166 67
157 177 105
158 179 114
153 172 105
147 166 111
148 167 99
156 176 99
143 161 102
158 177 105
143 162 105
148 168 88
144 162 108
144 163 84
140 158 99
133 150 76
145 163 99
139 157 88
132 149 72
129 147 72
126 143 88
129 147 62
136 154 72
126 144 67
125 143 57
114 132 25
121 138 62
126 144 62
119 136 57
122 140 36
111 128 51
122 139 36
130 148 36
131 149 44
132 151 44
138 158 44
140 157 0
136 155 36
143 162 36
134 154 0
138 158 25
146 166 0
131 148 25
141 160 0
144 163 0
133 152 0
141 161 0
125 144 0
116 135 0
126 145 0
124 142 0
120 139 0
124 142 0
118 137 0
118 136 0
104 121 0
121 140 0
102 120 0
115 134 0
111 130 0
108 126 0
125 143 0
122 138 0
114 132 0
123 141 0
103 120 0
106 122 0
99 117 0
115 133 0
108 126 0
101 117 0
110 127 0
105 123 0
101 117 0
113 130 0
111 129 0
102 119 0
110 127 0
102 119 0
105 121 0
100 117 0
117 133 0
105 123 0
110 128 0
92 109 0
109 127 0
104 122 0
104 120 0
107 125 0
102 120 0
109 126 0
115 132 0
126 143 0
115 131 0
108 125 0
97 114 0
109 127 0
116 135 0
109 127 0
109 126 0
106 123 0
102 121 0
114 131 0
114 131 0
119 137 0
101 118 0
124 141 0
106 124 0
114 131 0
115 132 0
120 138 0
124 142 0
114 133 0
110 126 0
119 136 0
121 138 0
128 146 0
127 146 0
128 146 0
114 133 0
122 141 0
123 143 0
124 142 0
116 136 0
116 134 0
123 141 0
113 132 0
121 140 0
119 137 0
118 139 0
126 145 0
131 150 0
123 143 0
127 146 0
137 157 0
130 150 0
130 149 0
133 152 0
132 151 0
136 156 0
126 147 0
141 160 0
142 163 0
126 145 0
132 152 0
126 146 0
136 156 0
128 149 0
133 152 0
143 161 0
140 159 0
136 156 0
136 156 0
132 151 0
134 155 0
141 160 0
143 163 0
147 169 0
139 160 0
143 163 0
140 161 0
146 165 0
138 160 0
137 158 0
140 161 0
143 161 0
141 160 0
143 163 0
143 165 0
143 164 0
143 161 0
132 153 0
138 159 0
136 156 0
147 166 0
144 164 0
146 165 0
141 163 0
154 174 0
144 166 0
143 163 0
151 172 0
156 176 0
151 171 0
148 168 0
152 173 0
143 164 0
146 167 0
152 175 0
146 166 0
155 176 0
155 176 0
149 169 0
146 166 0
154 175 0
154 176 0
157 178 0
151 172 0
154 175 0
152 173 0
145 165 0
159 180 0
155 174 0
152 173 0
152 171 0
154 175 0
159 179 0
153 175 0
164 184 0
156 177 0
156 176 0
159 180 0
154 172 0
155 174 0
158 177 0
156 178 0
157 179 0
159 179 0
157 175 0
156 177 0
153 174 0
153 175 0
154 174 0
153 174 0
159 179 0
157 178 0
162 182 0
162 184 0
161 179 0
158 180 0
155 177 0
157 179 0
159 180 0
154 175 0
158 179 0
155 175 0
161 182 0
162 183 0
162 184 0
156 176 0
161 182 0
158 177 0
162 183 0
160 180 0
158 177 0
154 173 0
163 184 0
159 181 0
164 186 0
154 175 0
153 173 0
162 183 0
159 179 0
166 187 0
163 185 0
153 174 0
166 186 0
160 181 0
160 181 0
167 189 0
164 185 0
161 183 0
159 180 0
156 178 0
162 184 0
163 184 0
164 184 0
156 177 0
161 182 0
167 187 0
165 184 0
152 172 0
164 185 0
160 180 0
158 179 0
162 183 0
162 184 0
166 187 0
161 181 0
166 188 0
164 186 0
164 184 0
162 184 0
165 186 0
164 185 0
164 186 0
164 185 0
167 189 0
164 186 0
164 186 0
164 183 0
159 180 0
165 186 0
166 187 0
165 187 0
163 185 0
165 186 0
165 187 0
166 188 0
163 184 0
164 185 0
164 185 0
162 185 0
166 188 0
168 189 0
172 196 76
170 193 102
168 191 84
173 196 88
174 197 108
179 202 114
170 192 88
174 197 108
168 191 88
176 200 120
176 199 111
170 193 92
176 200 114
167 191 95
172 195 102
172 196 102
173 197 84
167 191 102
166 189 92
172 196 105
172 195 99
167 192 92
169 192 84
168 192 84
168 192 99
171 194 99
166 189 105
167 190 80
168 192 108
166 189 88
164 188 99
167 191 105
169 191 99
166 190 111
168 192 92
171 195 117
169 193 102
165 189 84
167 190 92
167 190 92
169 192 102
166 189 92
169 192 95
165 188 102
168 192 114
162 185 80
166 189 102
168 191 111
163 185 76
163 186 88
169 192 95
157 181 92
169 192 105
170 194 103
169 193 114
166 189 99
166 189 102
162 185 99
165 189 108
164 187 95
161 184 100
169 191 130
162 185 84
167 189 99
163 187 92
162 185 76
158 180 95
162 185 97
163 184 102
152 174 80
157 180 99
162 184 120
160 182 120
161 183 102
154 176 76
154 176 100
156 178 84
162 184 88
161 182 108
157 178 105
153 175 76
159 180 92
158 180 92
153 174 105
154 175 102
156 177 114
157 178 99
151 171 80
158 179 125
157 177 114
164 185 105
151 171 117
156 177 92
142 162 76
151 172 114
154 175 92
155 175 108
151 170 105
154 174 105
151 172 92
150 169 102
152 171 111
140 159 80
152 172 114
150 168 95
143 161 95
145 165 88
141 159 84
145 163 102
135 153 80
137 156 76
141 160 80
132 150 88
119 137 76
129 145 76
135 153 72
127 144 76
129 146 72
139 156 84
121 138 25
133 150 62
137 154 72
124 141 51
122 139 57
131 148 67
123 142 44
140 158 51
137 157 44
141 160 51
133 151 36
139 157 44
148 167 36
134 153 36
131 150 0
143 163 0
147 168 0
135 153 25
147 164 0
135 154 25
136 155 0
129 148 0
145 164 0
138 158 0
136 156 0
137 156 0
128 147 0
119 137 0
125 142 0
123 141 0
117 134 0
123 140 0
121 138 0
124 143 0
130 148 0
113 132 0
103 122 0
103 122 0
115 132 0
114 132 0
109 127 0
99 115 0
117 135 0
108 125 0
104 121 0
109 125 0
120 138 0
109 126 0
101 117 0
99 117 0
102 118 0
97 113 0
111 129 0
109 126 0
101 118 0
103 120 0
103 120 0
117 134 0
112 130 0
110 128 0
104 122 0
107 126 0
101 119 0
111 127 0
100 118 0
109 127 0
120 138 0
119 137 0
111 128 0
110 128 0
115 134 0
106 123 0
110 128 0
105 122 0
106 124 0
108 127 0
127 144 0
107 126 0
104 119 0
109 127 0
119 138 0
119 136 0
122 140 0
135 153 0
119 138 0
117 136 0
114 131 0
112 130 0
121 139 0
122 141 0
115 133 0
102 120 0
126 145 0
131 150 0
129 148 0
124 143 0
126 145 0
119 138 0
123 142 0
118 136 0
111 129 0
117 135 0
119 137 0
122 140 0
126 146 0
127 147 0
114 133 0
130 148 0
128 147 0
132 152 0
135 155 0
132 153 0
135 154 0
134 154 0
119 139 0
129 149 0
118 137 0
125 144 0
134 155 0
115 134 0
137 156 0
129 150 0
140 160 0
136 157 0
123 143 0
134 154 0
138 158 0
142 161 0
135 156 0
139 159 0
146 167 0
146 165 0
125 145 0
137 157 0
137 156 0
138 159 0
135 155 0
136 156 0
138 158 0
138 158 0
140 161 0
147 167 0
148 168 0
142 161 0
137 157 0
149 169 0
140 160 0
143 163 0
153 174 0
144 164 0
152 172 0
146 167 0
148 169 0
148 169 0
142 163 0
145 166 0
145 161 0
141 162 0
140 161 0
147 169 0
138 159 0
149 170 0
153 173 0
145 164 0
145 165 0
155 174 0
160 182 0
143 164 0
145 168 0
151 172 0
147 166 0
150 171 0
151 171 0
153 173 0
141 162 0
148 169 0
158 179 0
148 169 0
153 175 0
155 176 0
155 176 0
146 166 0
159 179 0
156 177 0
150 169 0
150 169 0
149 170 0
154 174 0
144 165 0
151 171 0
148 169 0
155 173 0
152 172 0
159 180 0
154 175 0
154 175 0
154 173 0
159 181 0
163 185 0
155 175 0
158 178 0
157 176 0
158 178 0
154 176 0
155 175 0
158 180 0
159 180 0
161 181 0
157 178 0
163 185 0
159 180 0
157 178 0
158 179 0
155 176 0
160 179 0
160 181 0
158 181 0
157 178 0
159 178 0
161 183 0
158 178 0
162 183 0
156 175 0
158 178 0
158 178 0
166 186 0
155 175 0
163 183 0
161 181 0
164 183 0
165 188 0
162 183 0
159 180 0
166 188 0
159 179 0
160 181 0
162 184 0
158 179 0
158 179 0
167 190 0
162 183 0
166 188 0
161 183 0
156 176 0
161 182 0
163 184 0
166 188 0
163 185 0
163 184 0
164 184 0
167 188 0
160 182 0
168 188 0
164 185 0
164 185 0
168 188 0
164 187 0
162 184 0
162 185 0
163 184 0
170 190 0
161 183 0
162 185 0
166 187 0
160 181 0
167 187 0
168 191 0
164 185 0
167 188 0
158 177 0
168 189 0
163 185 0
167 187 0
164 184 0
166 188 0
165 186 0
168 188 0
164 185 0
171 194 0
166 187 0
167 189 0
172 195 102
172 196 102
174 198 120
170 193 67
171 193 99
175 198 95
175 197 95
167 191 92
174 196 102
167 191 99
170 194 88
176 199 114
170 193 84
177 200 114
170 193 88
171 194 92
171 195 99
170 194 102
169 192 88
175 199 111
168 191 99
168 191 88
167 190 88
173 196 88
172 195 105
171 194 102
165 188 72
166 188 72
161 184 51
169 192 102
159 182 72
162 185 99
166 189 84
165 189 88
166 189 84
170 194 105
165 188 99
171 194 114
163 187 99
162 185 111
165 189 105
165 188 99
166 189 92
168 191 95
168 191 95
162 185 84
172 195 117
167 191 120
164 188 102
167 191 108
164 188 80
160 183 95
166 189 105
157 180 88
163 186 88
167 191 111
166 189 99
166 189 80
167 189 95
169 192 102
160 183 95
165 188 105
166 189 99
158 181 84
170 193 128
156 180 92
163 186 92
167 190 99
163 186 105
156 178 84
159 181 88
153 174 76
156 179 80
161 183 99
163 184 105
159 181 99
155 178 99
156 178 108
156 179 88
159 181 95
145 166 51
160 183 105
154 176 88
160 181 128
154 175 92
161 182 108
155 177 92
138 160 67
159 180 111
148 169 80
153 175 88
154 174 84
145 166 99
154 175 102
149 169 111
155 175 105
156 177 88
153 173 95
158 179 105
141 161 88
140 159 88
152 172 111
148 167 111
140 159 72
147 166 84
144 163 99
135 154 80
147 166 88
149 167 88
139 158 67
133 151 80
143 162 80
141 160 72
132 150 72
135 154 51
128 146 67
131 150 67
127 143 62
137 153 92
127 145 62
124 142 57
134 151 57
119 136 44
123 140 67
136 155 67
130 149 36
126 143 51
130 148 25
122 140 36
134 153 36
129 146 25
139 158 44
147 168 44
141 160 36
148 165 36
134 153 36
137 157 0
129 150 0
132 152 0
135 155 0
145 165 0
140 160 0
126 146 0
131 150 0
129 149 0
122 143 0
137 157 0
120 137 0
131 149 0
124 142 0
123 142 0
114 132 0
121 138 0
121 140 0
118 135 0
118 137 0
112 130 0
113 130 0
114 132 0
103 121 0
102 121 0
114 131 0
101 118 0
105 122 0
106 123 0
117 134 0
112 130 0
122 140 0
113 132 0
103 120 0
109 125 0
115 132 0
107 125 0
112 130 0
106 122 0
119 138 0
106 123 0
113 132 0
102 120 0
126 144 0
110 127 0
112 131 0
100 118 0
116 133 0
113 130 0
122 140 0
111 129 0
118 137 0
107 125 0
100 118 0
113 131 0
105 123 0
106 124 0
100 118 0
105 120 0
120 138 0
116 134 0
128 146 0
117 135 0
121 139 0
133 152 0
115 134 0
102 120 0
122 140 0
122 141 0
124 144 0
117 134 0
127 146 0
120 139 0
119 138 0
123 140 0
116 133 0
123 142 0
127 145 0
113 132 0
123 143 0
125 143 0
122 140 0
132 151 0
125 143 0
126 145 0
116 134 0
116 135 0
129 147 0
122 141 0
127 147 0
138 157 0
135 155 0
125 144 0
129 148 0
135 153 0
134 153 0
118 137 0
142 162 0
130 151 0
133 152 0
140 160 0
134 154 0
123 142 0
128 148 0
139 159 0
135 156 0
137 158 0
136 156 0
142 160 0
132 152 0
150 170 0
132 152 0
134 154 0
143 163 0
138 158 0
136 155 0
140 159 0
144 164 0
134 154 0
149 169 0
143 162 0
135 154 0
142 162 0
140 160 0
137 158 0
147 168 0
144 164 0
147 167 0
135 153 0
147 168 0
144 165 0
144 165 0
147 167 0
147 168 0
143 165 0
146 168 0
143 162 0
139 159 0
148 167 0
148 170 0
146 166 0
153 174 0
153 173 0
149 171 0
141 162 0
151 173 0
144 163 0
142 162 0
154 175 0
153 174 0
155 177 0
155 176 0
153 173 0
146 168 0
152 171 0
147 167 0
149 170 0
149 169 0
157 177 0
161 184 0
143 162 0
150 169 0
145 165 0
156 176 0
151 172 0
157 179 0
155 176 0
153 172 0
153 173 0
154 174 0
148 167 0
156 178 0
158 180 0
154 174 0
158 179 0
154 174 0
152 171 0
152 169 0
147 167 0
152 173 0
154 173 0
158 179 0
156 176 0
160 182 0
157 180 0
156 175 0
156 177 0
162 183 0
159 178 0
156 179 0
160 180 0
154 177 0
162 182 0
160 179 0
163 183 0
157 178 0
157 178 0
158 178 0
159 181 0
161 182 0
153 171 0
163 184 0
153 175 0
159 179 0
160 180 0
157 178 0
161 183 0
160 181 0
164 185 0
161 182 0
157 176 0
161 183 0
161 182 0
159 180 0
163 186 0
160 181 0
161 183 0
163 186 0
164 185 0
162 184 0
156 177 0
153 173 0
159 180 0
162 184 0
162 182 0
165 186 0
163 184 0
164 185 0
166 187 0
163 185 0
160 181 0
160 180 0
163 184 0
167 187 0
157 180 0
161 183 0
164 185 0
164 185 0
161 182 0
164 185 0
166 188 0
165 186 0
164 187 0
168 189 0
170 192 0
160 182 0
166 187 0
165 187 0
162 183 0
160 182 0
163 183 0
170 192 0
162 183 0
163 184 0
168 189 0
166 187 0
165 187 0
164 185 0
161 182 0
168 190 0
163 183 0
163 184 0
166 187 0
171 193 0
173 196 99
169 192 80
175 198 102
178 200 111
173 195 102
173 196 102
173 196 95
174 198 105
170 193 99
172 196 84
173 197 114
172 196 111
170 194 92
168 191 80
173 196 92
169 192 102
172 197 114
172 196 92
171 195 92
173 196 120
167 190 80
169 193 95
168 192 99
164 188 80
170 193 88
170 193 95
167 191 95
172 195 88
163 187 76
162 185 80
170 193 108
174 198 108
165 189 88
172 196 108
165 189 102
168 192 84
162 185 84
163 186 99
167 191 108
165 187 76
170 193 88
164 187 99
167 189 105
169 193 117
164 187 88
166 190 95
162 186 84
161 184 117
169 191 76
165 188 95
164 188 111
161 184 99
162 186 88
160 183 99
164 187 117
171 194 108
160 184 105
167 190 114
168 191 105
161 184 80
169 193 111
163 186 99
165 188 99
160 183 76
161 185 102
168 190 92
156 178 95
157 179 76
160 182 88
154 176 95
164 185 114
157 179 95
166 188 99
155 178 88
161 184 80
155 177 88
155 177 117
149 171 67
152 174 84
149 171 99
168 189 122
155 177 99
158 180 99
147 168 102
158 179 80
162 183 108
158 180 111
158 180 111
158 178 105
157 178 108
155 176 105
157 177 99
158 179 120
158 178 120
152 173 114
148 169 84
155 176 95
155 175 105
150 170 105
159 179 111
147 166 99
148 167 108
145 166 76
146 166 99
148 166 105
154 173 105
144 163 108
140 159 95
144 163 95
143 161 84
144 163 76
140 157 92
139 157 88
146 165 88
127 146 57
145 162 88
148 166 88
142 162 62
123 142 36
127 145 57
132 150 72
127 145 44
126 145 51
119 136 44
117 135 36
128 147 44
132 150 67
131 151 36
132 150 57
141 161 44
136 157 25
126 146 0
145 166 25
143 162 36
133 152 0
134 152 25
141 160 0
144 163 0
147 168 0
147 167 0
141 161 0
134 152 0
136 156 0
129 148 0
127 146 0
127 146 0
130 147 0
119 136 0
126 147 0
131 149 0
119 138 0
124 143 0
122 140 0
114 133 0
108 127 0
119 138 0
129 149 0
112 130 0
123 142 0
112 130 0
122 140 0
111 129 0
116 134 0
111 129 0
115 133 0
119 136 0
90 109 0
105 124 0
125 143 0
115 134 0
111 128 0
112 129 0
125 142 0
111 129 0
114 133 0
109 127 0
121 139 0
105 123 0
124 141 0
114 133 0
115 133 0
106 125 0
104 122 0
114 132 0
109 126 0
113 131 0
108 126 0
99 116 0
107 125 0
118 135 0
117 135 0
108 124 0
114 133 0
105 123 0
99 117 0
111 130 0
106 124 0
116 134 0
124 141 0
113 131 0
123 141 0
119 138 0
110 127 0
110 127 0
117 134 0
118 137 0
118 136 0
109 128 0
125 144 0
130 149 0
128 147 0
126 145 0
128 147 0
122 139 0
114 132 0
125 144 0
123 142 0
127 145 0
128 147 0
111 129 0
121 140 0
124 144 0
134 154 0
131 151 0
127 145 0
115 134 0
128 147 0
134 152 0
129 150 0
126 145 0
135 154 0
124 144 0
141 161 0
131 151 0
130 149 0
136 156 0
137 157 0
138 158 0
139 160 0
138 158 0
132 152 0
137 155 0
137 159 0
134 154 0
131 152 0
144 163 0
129 148 0
139 159 0
131 150 0
135 156 0
142 163 0
140 162 0
143 164 0
144 166 0
146 166 0
143 164 0
140 159 0
135 155 0
145 165 0
138 157 0
150 171 0
143 163 0
147 167 0
143 165 0
143 164 0
144 164 0
143 164 0
149 170 0
145 164 0
150 171 0
141 159 0
152 171 0
145 167 0
155 177 0
144 165 0
139 158 0
153 175 0
142 162 0
144 164 0
148 168 0
154 176 0
155 176 0
159 179 0
151 171 0
149 169 0
152 172 0
154 176 0
151 170 0
155 175 0
150 172 0
156 176 0
145 165 0
150 172 0
154 175 0
151 170 0
154 176 0
147 167 0
152 173 0
145 167 0
152 173 0
151 172 0
159 182 0
155 177 0
151 172 0
147 167 0
151 172 0
163 183 0
152 173 0
155 176 0
152 172 0
154 176 0
154 172 0
157 177 0
150 169 0
156 177 0
162 184 0
159 179 0
155 175 0
162 183 0
165 185 0
157 181 0
157 179 0
158 179 0
158 179 0
158 179 0
160 180 0
159 181 0
153 175 0
165 187 0
162 183 0
165 185 0
164 186 0
161 184 0
159 178 0
159 180 0
155 176 0
158 180 0
157 179 0
158 180 0
164 186 0
164 186 0
160 181 0
162 182 0
157 177 0
157 179 0
152 171 0
163 184 0
160 180 0
158 179 0
162 184 0
161 184 0
165 186 0
165 187 0
162 183 0
164 185 0
159 181 0
163 183 0
159 179 0
162 184 0
162 184 0
166 188 0
157 178 0
164 186 0
164 186 0
157 178 0
166 188 0
163 184 0
161 183 0
166 187 0
166 187 0
164 185 0
164 185 0
165 186 0
163 185 0
166 188 0
162 182 0
160 179 0
167 187 0
163 185 0
165 186 0
160 184 0
166 187 0
167 190 0
164 184 0
167 189 0
165 188 0
167 190 0
165 185 0
167 190 0
162 185 0
167 189 0
168 187 0
167 189 0
166 187 0
166 187 0
168 192 0
168 190 0
167 189 0
166 186 0
165 186 0
177 199 92
172 194 95
172 195 99
173 196 111
171 194 102
173 197 99
174 196 105
172 196 76
178 200 114
174 196 95
170 193 84
168 190 80
173 195 80
169 193 99
172 196 102
168 192 72
174 197 108
169 193 88
176 199 102
172 195 84
171 194 95
173 196 88
175 198 111
167 190 95
166 189 99
170 193 84
171 195 95
171 194 88
170 194 108
165 188 84
167 191 88
167 191 99
161 185 88
158 183 92
169 193 99
163 187 99
162 185 92
163 187 92
165 188 67
168 191 108
168 191 102
164 188 105
168 191 99
159 182 99
163 187 92
168 191 88
167 189 95
163 187 72
165 188 88
158 181 84
164 187 99
161 184 88
166 190 95
165 187 99
157 179 84
167 190 105
164 187 99
162 184 102
164 188 102
156 180 95
156 179 80
161 183 105
164 187 105
164 187 84
162 185 105
156 178 88
167 189 95
161 184 108
161 183 102
166 188 88
155 177 88
164 186 76
153 175 72
159 181 88
158 180 102
160 183 105
161 182 108
154 176 80
154 176 99
165 186 117
160 181 108
164 186 108
160 182 117
156 177 80
157 179 72
157 179 67
160 182 111
157 178 95
154 176 99
164 184 108
147 167 95
151 171 95
155 175 99
155 176 114
146 166 105
143 163 80
155 175 92
145 164 95
154 174 92
150 171 92
160 180 137
145 164 92
144 163 84
149 168 72
147 165 114
149 169 99
156 174 122
147 167 88
135 153 67
135 153 76
149 168 67
143 162 84
140 159 92
147 165 92
138 157 72
128 147 36
129 147 62
125 143 57
134 152 67
127 147 62
123 141 51
129 147 51
129 146 62
137 157 44
117 135 51
133 153 25
131 150 36
134 153 25
136 155 36
139 159 25
127 147 25
140 160 44
137 156 25
144 165 25
142 161 0
148 169 0
146 166 25
138 157 0
135 155 0
141 160 0
147 165 0
128 147 0
131 151 0
136 155 0
128 146 0
119 138 0
126 145 0
129 148 0
133 152 0
131 151 0
124 143 0
113 133 0
122 141 0
124 144 0
126 145 0
126 145 0
134 152 0
124 143 0
128 147 0
118 135 0
124 143 0
119 138 0
122 141 0
121 139 0
116 133 0
113 132 0
119 137 0
117 136 0
99 117 0
120 138 0
110 128 0
115 134 0
124 142 0
113 131 0
110 128 0
101 120 0
113 130 0
109 126 0
111 130 0
116 135 0
108 125 0
118 134 0
108 124 0
118 136 0
114 133 0
119 137 0
111 129 0
124 143 0
111 131 0
119 138 0
124 143 0
110 127 0
112 131 0
121 140 0
111 129 0
124 144 0
109 127 0
109 128 0
127 144 0
120 139 0
116 135 0
134 153 0
116 135 0
115 133 0
117 136 0
131 151 0
115 133 0
108 127 0
120 139 0
120 138 0
124 143 0
117 136 0
137 157 0
131 150 0
118 138 0
124 144 0
131 151 0
118 137 0
129 148 0
124 143 0
114 132 0
133 152 0
118 137 0
129 149 0
128 148 0
122 142 0
138 157 0
136 156 0
136 155 0
126 146 0
124 144 0
126 145 0
134 153 0
131 150 0
130 149 0
132 152 0
135 153 0
135 155 0
138 159 0
124 143 0
129 149 0
136 157 0
145 165 0
138 158 0
136 156 0
137 157 0
131 150 0
134 156 0
136 155 0
145 164 0
140 161 0
148 169 0
144 165 0
144 163 0
145 165 0
146 167 0
133 155 0
139 158 0
145 166 0
147 168 0
140 160 0
149 169 0
139 160 0
136 157 0
149 171 0
145 165 0
132 151 0
135 155 0
142 164 0
142 163 0
143 165 0
144 164 0
144 164 0
147 167 0
147 167 0
147 166 0
151 172 0
149 170 0
153 174 0
152 172 0
149 169 0
149 171 0
151 172 0
152 174 0
156 178 0
156 176 0
146 167 0
155 176 0
152 173 0
154 175 0
151 172 0
147 168 0
148 168 0
157 179 0
151 171 0
150 168 0
152 174 0
151 172 0
150 170 0
149 168 0
160 181 0
146 167 0
154 175 0
156 178 0
154 175 0
161 182 0
148 169 0
155 176 0
154 174 0
155 177 0
152 171 0
157 180 0
152 174 0
154 175 0
153 173 0
158 181 0
154 175 0
155 177 0
157 179 0
158 179 0
158 178 0
156 177 0
155 175 0
163 185 0
159 181 0
154 174 0
155 176 0
157 177 0
160 180 0
158 178 0
164 184 0
158 178 0
162 183 0
159 181 0
157 179 0
156 173 0
162 184 0
162 183 0
158 178 0
162 184 0
160 182 0
158 179 0
161 182 0
157 178 0
161 182 0
160 181 0
167 188 0
161 183 0
160 179 0
160 181 0
164 186 0
164 186 0
155 176 0
164 185 0
151 173 0
162 182 0
157 178 0
162 185 0
168 189 0
161 181 0
162 183 0
164 185 0
161 181 0
161 182 0
164 183 0
163 183 0
167 188 0
160 182 0
162 183 0
164 185 0
162 185 0
167 190 0
166 187 0
165 186 0
167 189 0
163 185 0
164 186 0
166 187 0
161 182 0
166 189 0
165 186 0
163 184 0
164 186 0
164 184 0
171 192 0
166 189 0
169 191 0
163 185 0
165 186 0
166 188 0
168 191 0
164 184 0
165 186 0
162 186 0
166 189 0
165 185 0
166 188 0
168 189 0
165 186 0
165 188 0
173 196 80
173 197 92
172 195 111
170 194 62
175 199 111
174 197 111
177 200 108
175 198 99
167 191 92
173 196 114
171 194 95
172 196 84
169 192 88
170 193 102
170 194 95
166 190 102
172 196 105
168 191 80
173 196 122
170 193 92
174 198 122
173 196 92
168 192 92
168 191 95
164 187 92
167 190 99
168 191 84
164 187 67
164 188 108
170 193 84
167 191 102
171 194 92
168 191 92
168 191 99
174 197 114
168 191 111
167 189 76
163 188 105
165 189 92
171 195 125
162 186 108
164 187 95
170 193 88
165 187 72
165 188 105
160 182 84
163 186 105
161 184 102
165 189 102
168 191 80
163 187 92
162 185 84
165 188 111
160 183 114
158 181 76
162 185 105
162 185 88
163 185 95
170 193 111
161 184 108
162 184 92
162 184 80
160 183 95
164 187 95
164 187 102
163 185 84
159 182 92
152 174 80
163 185 88
161 183 88
165 188 114
160 182 95
158 181 102
156 179 95
158 179 108
155 177 88
154 176 88
158 178 84
158 179 92
158 180 92
161 183 88
152 174 80
155 178 102
157 178 105
155 177 67
148 170 92
153 174 105
155 177 88
156 177 92
149 170 102
159 180 92
166 187 99
153 174 105
149 169 102
156 178 99
154 175 95
156 176 108
162 183 99
160 180 102
141 159 88
156 176 80
144 164 88
150 171 84
152 171 114
149 168 102
139 159 62
139 158 84
151 171 95
147 166 99
154 172 120
144 163 84
141 159 76
153 172 99
143 162 88
138 156 76
132 151 57
141 160 72
133 152 67
132 150 44
131 150 51
143 162 51
140 159 51
137 156 51
127 145 44
128 146 51
136 155 67
135 155 25
128 148 44
133 153 25
132 152 25
129 148 0
130 150 0
144 163 0
140 160 0
145 165 25
144 164 0
139 160 0
138 159 0
140 161 0
139 158 0
135 155 0
129 148 0
140 160 0
139 159 0
129 148 0
132 151 0
125 143 0
136 154 0
127 147 0
134 153 0
123 142 0
126 146 0
132 150 0
133 152 0
130 149 0
111 129 0
120 139 0
110 130 0
128 146 0
123 141 0
129 148 0
112 131 0
111 129 0
116 134 0
126 145 0
131 150 0
117 136 0
116 135 0
121 140 0
124 142 0
120 138 0
110 128 0
115 132 0
116 135 0
121 139 0
116 134 0
110 127 0
123 142 0
117 136 0
117 136 0
128 146 0
123 142 0
109 127 0
116 134 0
120 138 0
117 135 0
117 135 0
127 146 0
114 132 0
120 139 0
112 131 0
123 141 0
113 130 0
111 129 0
118 137 0
115 134 0
122 139 0
99 119 0
114 132 0
119 137 0
121 140 0
119 138 0
122 141 0
118 137 0
130 148 0
115 133 0
126 145 0
134 153 0
117 136 0
132 152 0
124 143 0
126 146 0
130 150 0
127 147 0
130 147 0
120 140 0
130 149 0
127 146 0
126 145 0
126 145 0
125 144 0
131 150 0
130 151 0
122 141 0
132 152 0
133 152 0
131 150 0
139 158 0
134 154 0
140 161 0
136 156 0
134 154 0
132 151 0
139 158 0
134 154 0
127 146 0
132 151 0
132 153 0
145 166 0
135 156 0
140 161 0
132 152 0
136 156 0
134 153 0
139 160 0
141 161 0
143 162 0
147 168 0
144 165 0
142 163 0
140 161 0
147 168 0
136 154 0
146 167 0
140 159 0
142 163 0
138 158 0
145 166 0
146 168 0
150 172 0
145 166 0
146 165 0
142 162 0
146 167 0
149 169 0
140 161 0
144 164 0
140 161 0
146 167 0
143 162 0
144 164 0
143 162 0
143 164 0
145 165 0
138 159 0
145 167 0
147 168 0
142 163 0
141 161 0
150 172 0
154 174 0
148 169 0
157 179 0
150 172 0
155 176 0
144 165 0
150 172 0
149 170 0
143 164 0
148 169 0
149 169 0
147 166 0
153 176 0
145 164 0
153 175 0
157 178 0
153 174 0
153 174 0
151 172 0
151 172 0
156 177 0
160 181 0
156 177 0
141 160 0
163 184 0
156 177 0
158 178 0
155 175 0
154 176 0
154 174 0
154 176 0
153 175 0
148 169 0
152 172 0
155 176 0
153 174 0
164 185 0
157 179 0
159 181 0
155 177 0
152 174 0
160 180 0
157 178 0
157 179 0
158 178 0
158 179 0
162 183 0
161 182 0
156 176 0
161 181 0
164 185 0
161 182 0
164 186 0
159 180 0
160 181 0
163 184 0
157 178 0
165 184 0
160 181 0
161 182 0
164 184 0
158 176 0
163 184 0
158 180 0
156 178 0
157 178 0
160 181 0
158 180 0
158 179 0
161 182 0
162 183 0
162 184 0
161 182 0
161 183 0
164 185 0
159 180 0
158 179 0
159 180 0
162 181 0
161 181 0
156 178 0
164 186 0
166 187 0
154 175 0
165 187 0
161 184 0
167 188 0
165 186 0
163 185 0
165 188 0
165 187 0
166 187 0
171 193 0
168 190 0
167 189 0
163 185 0
167 187 0
168 190 0
166 186 0
163 182 0
161 183 0
171 192 0
168 190 0
163 185 0
164 185 0
164 186 0
169 192 0
166 188 0
166 188 0
167 189 0
168 189 0
169 191 0
170 192 0
170 191 0
164 186 0
167 189 0
169 190 0
165 187 0
166 186 0
166 187 0
174 197 102
171 193 99
173 196 114
172 195 84
170 193 84
175 198 105
168 191 76
174 197 88
170 193 117
170 192 88
171 195 88
174 197 108
170 195 99
169 192 84
171 194 102
167 190 88
169 193 105
170 193 92
172 196 108
173 196 102
170 194 80
170 194 102
172 195 102
165 187 114
169 192 105
170 193 120
172 196 111
168 192 99
168 191 80
167 191 92
169 191 92
168 191 95
167 190 84
170 194 102
169 192 120
169 192 99
162 186 102
171 194 108
169 193 88
165 189 88
168 192 84
172 195 99
165 188 84
170 193 102
171 194 88
167 190 84
162 185 72
162 186 88
163 186 102
164 187 95
162 186 92
160 183 92
164 187 92
159 182 92
160 183 88
159 183 99
161 184 102
171 195 105
164 188 95
162 185 108
168 191 88
162 186 114
163 186 95
163 185 67
156 179 102
157 180 84
158 180 80
159 182 88
155 177 102
160 183 92
159 180 102
165 187 108
158 181 105
162 184 95
154 176 102
161 183 84
162 184 111
150 171 99
153 175 84
151 172 80
160 181 95
158 180 114
157 180 102
153 175 88
165 185 108
155 176 102
156 178 76
164 185 108
151 173 80
154 175 76
152 173 92
149 170 84
158 180 105
150 170 84
158 178 105
157 177 95
150 170 102
150 171 84
143 164 72
151 171 102
147 167 80
154 173 99
158 177 108
153 172 95
140 159 102
149 168 92
147 166 76
147 166 108
138 157 88
138 157 76
150 170 84
139 158 80
142 162 84
136 154 80
129 148 62
146 164 76
129 148 44
130 149 62
142 161 67
137 157 67
136 156 62
131 150 44
132 151 51
126 144 57
137 156 36
131 152 36
134 153 25
131 149 25
140 159 44
144 164 25
136 156 36
144 164 25
143 165 0
149 170 25
142 162 0
144 164 0
135 154 0
138 159 0
140 159 0
141 160 0
140 159 0
140 160 0
136 155 0
136 156 0
136 157 0
130 150 0
125 145 0
130 149 0
126 145 0
129 148 0
128 148 0
125 145 0
125 145 0
118 137 0
117 137 0
131 150 0
123 143 0
122 141 0
125 144 0
123 142 0
119 138 0
120 139 0
126 145 0
118 137 0
119 139 0
115 133 0
120 139 0
124 143 0
115 134 0
112 130 0
123 141 0
128 146 0
115 134 0
110 128 0
119 138 0
126 144 0
112 131 0
109 128 0
109 128 0
119 137 0
102 120 0
124 143 0
107 125 0
121 139 0
127 145 0
113 133 0
114 131 0
127 146 0
108 125 0
120 139 0
115 134 0
119 139 0
117 136 0
123 141 0
121 141 0
114 134 0
118 134 0
123 143 0
125 143 0
105 124 0
124 143 0
121 139 0
115 134 0
120 140 0
120 138 0
128 146 0
124 144 0
135 153 0
136 156 0
111 129 0
118 137 0
121 140 0
127 145 0
138 158 0
142 160 0
125 143 0
126 146 0
128 148 0
120 140 0
128 147 0
127 147 0
133 152 0
121 140 0
127 147 0
133 154 0
140 159 0
137 157 0
136 156 0
138 160 0
122 141 0
129 148 0
133 154 0
128 148 0
134 154 0
134 153 0
138 158 0
133 153 0
136 155 0
131 150 0
136 156 0
145 166 0
131 151 0
136 157 0
137 158 0
142 162 0
139 160 0
128 148 0
140 160 0
146 168 0
150 170 0
145 165 0
136 157 0
143 163 0
144 164 0
138 160 0
133 153 0
142 163 0
142 162 0
144 164 0
139 160 0
147 168 0
150 171 0
141 161 0
146 167 0
145 165 0
148 170 0
140 159 0
146 166 0
146 167 0
144 166 0
151 171 0
149 169 0
148 169 0
147 168 0
146 168 0
150 171 0
147 169 0
149 170 0
148 169 0
148 169 0
148 169 0
156 177 0
150 171 0
150 171 0
155 177 0
153 174 0
156 177 0
149 171 0
149 171 0
149 171 0
150 169 0
152 174 0
147 166 0
154 175 0
156 176 0
146 167 0
156 177 0
153 172 0
154 175 0
153 174 0
155 176 0
157 179 0
160 181 0
155 176 0
161 183 0
162 185 0
156 176 0
154 177 0
156 175 0
153 176 0
154 174 0
153 175 0
150 171 0
165 187 0
160 181 0
157 178 0
159 181 0
157 179 0
158 178 0
167 188 0
158 178 0
162 185 0
157 178 0
156 177 0
163 185 0
158 180 0
159 181 0
162 183 0
162 181 0
160 179 0
156 177 0
155 175 0
158 178 0
163 185 0
159 179 0
165 187 0
155 175 0
164 184 0
163 184 0
158 179 0
162 184 0
164 185 0
163 186 0
157 177 0
157 177 0
160 182 0
158 180 0
161 184 0
162 185 0
160 181 0
169 191 0
162 184 0
165 186 0
161 182 0
161 182 0
165 185 0
162 183 0
164 184 0
164 185 0
166 187 0
163 185 0
159 179 0
168 189 0
167 190 0
162 183 0
167 189 0
160 181 0
165 187 0
158 179 0
161 181 0
164 185 0
162 184 0
161 184 0
163 186 0
164 185 0
166 186 0
167 189 0
168 190 0
166 188 0
162 184 0
163 184 0
167 189 0
166 187 0
164 185 0
166 188 0
166 189 0
167 189 0
165 188 0
165 187 0
164 187 0
167 188 0
165 185 0
168 189 0
166 187 0
166 190 0
168 190 0
165 188 0
163 185 0
162 182 0
165 187 0
170 193 99
181 204 117
170 193 102
170 193 76
171 194 105
174 197 67
174 196 102
171 194 88
174 197 105
176 199 99
169 193 105
169 192 80
172 194 95
171 194 62
171 195 105
174 197 122
168 192 88
171 194 88
168 191 80
173 196 117
171 195 108
167 190 72
168 192 80
170 193 84
167 190 92
171 195 114
164 188 80
165 189 111
170 193 111
171 194 84
169 191 92
160 183 99
163 186 92
162 186 102
170 193 80
172 195 108
163 185 76
166 189 99
170 194 102
169 192 108
169 192 102
164 187 80
167 190 95
166 189 95
161 183 84
164 188 111
163 187 95
166 189 102
169 192 120
169 193 95
162 185 102
165 187 88
165 187 114
162 186 122
162 185 95
161 183 99
162 184 95
161 183 92
165 188 88
159 182 84
160 182 80
162 185 92
163 185 114
155 178 92
163 186 88
156 178 95
159 181 95
163 185 99
156 179 51
153 175 94
161 184 84
162 184 99
163 184 105
154 176 76
162 183 111
168 190 117
160 182 80
159 181 108
157 179 95
156 177 105
162 184 80
162 184 88
166 188 114
155 177 92
160 182 99
155 176 117
158 179 108
156 178 92
152 172 84
153 174 80
161 182 102
159 180 105
158 177 105
147 168 84
158 179 92
152 173 99
156 176 95
160 181 102
155 175 108
153 172 99
153 174 111
152 173 92
152 172 105
146 167 76
146 165 102
153 172 95
151 170 99
142 163 76
153 173 88
157 176 99
147 167 62
146 165 88
144 164 62
147 167 67
144 162 80
132 151 57
145 164 84
140 158 57
145 164 72
148 168 62
129 149 36
144 162 62
133 152 51
133 153 0
132 152 0
134 153 25
130 151 36
138 158 36
135 154 0
131 149 44
133 154 36
134 154 25
137 157 25
139 159 0
134 153 0
142 162 0
148 168 0
140 160 0
141 161 0
143 164 0
148 168 0
150 172 0
145 164 0
134 155 0
139 159 0
139 158 0
131 151 0
136 155 0
120 141 0
132 152 0
135 155 0
121 141 0
113 132 0
124 143 0
123 142 0
125 144 0
117 136 0
129 149 0
119 138 0
116 135 0
123 141 0
118 138 0
114 133 0
117 135 0
110 129 0
124 143 0
124 142 0
122 140 0
109 128 0
114 133 0
113 132 0
112 131 0
117 134 0
110 128 0
110 129 0
136 154 0
120 139 0
124 143 0
113 131 0
116 134 0
126 144 0
111 130 0
114 134 0
117 136 0
126 144 0
129 146 0
120 139 0
128 147 0
115 135 0
127 146 0
123 141 0
114 133 0
123 141 0
116 133 0
121 140 0
109 128 0
120 140 0
124 143 0
123 143 0
124 143 0
145 165 0
129 149 0
121 139 0
122 142 0
130 150 0
124 142 0
116 134 0
117 137 0
127 147 0
116 135 0
122 142 0
122 141 0
126 145 0
128 147 0
126 146 0
128 149 0
122 141 0
128 148 0
129 149 0
134 153 0
132 152 0
132 151 0
138 157 0
129 148 0
130 149 0
132 153 0
134 154 0
122 142 0
135 154 0
134 154 0
133 152 0
132 151 0
137 159 0
131 151 0
136 156 0
138 158 0
137 157 0
138 158 0
138 156 0
146 166 0
126 145 0
134 155 0
135 156 0
138 158 0
137 157 0
134 154 0
138 158 0
136 156 0
137 157 0
139 160 0
146 167 0
146 167 0
144 164 0
137 156 0
141 162 0
153 174 0
145 166 0
144 165 0
139 158 0
144 163 0
151 171 0
147 167 0
146 167 0
141 162 0
143 163 0
147 167 0
150 170 0
152 173 0
152 174 0
142 162 0
151 173 0
143 164 0
146 168 0
147 166 0
144 164 0
144 164 0
155 176 0
138 159 0
153 175 0
156 178 0
151 170 0
148 169 0
150 170 0
151 172 0
145 165 0
154 173 0
141 163 0
156 179 0
154 174 0
146 167 0
150 171 0
154 175 0
154 175 0
149 170 0
155 178 0
149 170 0
153 174 0
161 183 0
152 174 0
153 174 0
156 177 0
154 176 0
148 168 0
153 174 0
152 172 0
155 175 0
151 172 0
150 170 0
160 182 0
148 168 0
151 170 0
156 178 0
158 180 0
148 168 0
160 181 0
158 177 0
161 182 0
161 181 0
157 178 0
152 174 0
155 175 0
160 182 0
156 178 0
160 182 0
156 177 0
163 184 0
160 180 0
156 176 0
160 180 0
163 185 0
159 180 0
160 180 0
165 187 0
162 184 0
159 180 0
157 178 0
157 180 0
162 182 0
157 179 0
165 186 0
158 180 0
154 175 0
157 179 0
164 186 0
164 186 0
159 181 0
160 180 0
160 181 0
159 180 0
162 182 0
162 183 0
162 185 0
160 180 0
166 187 0
167 188 0
157 178 0
161 184 0
161 182 0
162 182 0
167 188 0
168 189 0
165 187 0
152 172 0
161 183 0
163 185 0
162 184 0
164 187 0
164 186 0
165 187 0
164 185 0
161 182 0
165 187 0
161 182 0
165 187 0
164 187 0
163 186 0
160 180 0
167 188 0
162 184 0
165 187 0
166 189 0
170 191 0
165 186 0
160 182 0
161 183 0
168 189 0
167 189 0
166 189 0
166 188 0
166 186 0
166 189 0
165 189 0
166 190 0
165 187 0
168 191 0
165 187 0
167 188 0
166 189 0
165 187 0
168 189 0
168 192 92
170 193 92
175 197 92
176 200 117
170 193 95
171 194 88
180 203 125
166 190 92
171 194 105
168 192 95
174 197 102
168 192 102
168 192 67
172 195 95
169 192 95
166 190 88
168 190 72
171 194 108
175 198 111
171 195 99
174 197 105
171 193 99
165 188 99
171 195 117
169 192 88
165 187 99
171 194 99
173 195 114
169 192 84
169 193 84
171 194 99
163 186 80
166 190 102
165 188 80
169 192 102
163 187 80
167 190 105
167 190 92
163 186 84
166 189 84
169 192 105
165 189 99
168 190 72
167 190 92
164 187 102
165 189 99
161 184 95
163 187 84
163 186 88
161 184 111
168 191 99
171 194 80
170 193 102
166 190 102
166 189 95
168 191 108
162 185 92
157 179 88
158 181 99
157 180 92
160 183 105
167 190 88
167 190 84
164 188 105
167 190 92
160 183 92
167 189 95
163 186 111
165 187 111
161 185 114
157 179 92
158 180 108
166 188 105
155 177 95
154 176 76
158 180 76
159 181 99
162 184 88
154 176 95
158 181 92
163 186 105
160 182 80
155 177 88
160 182 99
160 182 105
165 186 111
161 183 117
156 176 95
151 172 102
156 177 114
160 180 102
163 183 92
152 173 99
156 176 117
154 175 95
158 179 102
154 175 95
156 176 99
153 174 95
159 178 111
154 173 99
167 187 125
150 169 95
156 177 92
141 161 80
151 170 95
155 174 99
153 172 99
150 170 95
152 172 80
139 157 80
143 162 76
150 169 80
140 159 67
142 161 51
143 161 80
132 152 51
136 155 51
139 158 76
139 159 51
127 146 62
135 154 51
142 162 44
131 151 36
130 148 57
134 155 25
145 166 36
137 159 36
145 165 44
132 153 36
140 160 25
143 163 0
149 170 44
152 172 25
145 166 25
144 164 0
137 157 0
149 170 0
142 163 25
142 162 0
145 165 0
153 174 0
137 158 0
135 155 0
135 157 0
145 166 0
134 154 0
135 154 0
129 150 0
129 149 0
128 146 0
128 149 0
126 145 0
119 140 0
123 142 0
122 141 0
132 151 0
121 141 0
128 148 0
124 144 0
133 151 0
124 143 0
121 140 0
117 136 0
126 144 0
127 146 0
130 150 0
127 147 0
118 137 0
129 148 0
113 132 0
122 140 0
119 137 0
118 136 0
116 134 0
115 135 0
118 137 0
118 136 0
113 132 0
129 148 0
122 141 0
118 136 0
121 140 0
124 142 0
126 146 0
124 143 0
118 137 0
125 143 0
119 138 0
138 158 0
119 138 0
126 145 0
128 147 0
130 150 0
122 142 0
123 142 0
129 148 0
125 144 0
126 145 0
127 147 0
126 146 0
121 141 0
120 139 0
125 145 0
115 132 0
131 151 0
135 154 0
134 153 0
123 141 0
128 148 0
128 147 0
125 145 0
121 140 0
136 155 0
125 144 0
136 156 0
131 151 0
140 160 0
126 146 0
120 141 0
130 151 0
136 155 0
136 156 0
124 143 0
124 144 0
133 154 0
134 154 0
125 145 0
143 164 0
143 162 0
136 157 0
142 163 0
131 151 0
135 155 0
142 163 0
144 163 0
138 160 0
132 152 0
131 152 0
135 156 0
134 155 0
135 155 0
137 159 0
141 162 0
141 161 0
153 174 0
145 165 0
144 165 0
148 170 0
142 162 0
144 164 0
144 165 0
145 166 0
143 164 0
142 162 0
144 164 0
145 166 0
144 163 0
140 162 0
144 166 0
142 163 0
153 174 0
145 165 0
151 170 0
147 168 0
143 164 0
144 164 0
154 176 0
146 166 0
146 168 0
150 171 0
148 170 0
143 163 0
149 170 0
142 163 0
147 169 0
149 170 0
146 166 0
153 174 0
150 170 0
157 179 0
155 175 0
156 177 0
150 171 0
154 176 0
154 176 0
157 179 0
143 165 0
156 178 0
158 178 0
148 167 0
154 175 0
158 179 0
160 182 0
152 173 0
159 181 0
144 165 0
144 165 0
159 182 0
149 170 0
155 175 0
159 179 0
159 180 0
153 174 0
157 178 0
154 176 0
160 182 0
151 171 0
154 175 0
153 174 0
152 171 0
153 173 0
160 181 0
161 184 0
157 178 0
156 178 0
154 174 0
158 179 0
161 182 0
158 179 0
156 178 0
154 175 0
163 184 0
160 180 0
155 176 0
162 184 0
162 183 0
153 174 0
157 177 0
161 183 0
162 182 0
161 183 0
162 183 0
159 180 0
161 182 0
160 182 0
157 178 0
159 178 0
161 184 0
161 181 0
162 183 0
163 184 0
161 183 0
158 180 0
161 181 0
165 186 0
161 182 0
164 186 0
157 177 0
162 185 0
162 184 0
160 182 0
162 184 0
160 179 0
164 185 0
155 177 0
160 181 0
166 188 0
163 183 0
163 185 0
165 187 0
163 185 0
163 185 0
166 188 0
163 185 0
163 185 0
168 189 0
161 180 0
158 179 0
163 185 0
162 183 0
158 180 0
166 187 0
166 188 0
160 182 0
165 186 0
168 191 0
163 186 0
165 186 0
163 185 0
161 181 0
163 184 0
162 182 0
162 182 0
163 185 0
166 188 0
168 191 0
165 186 0
168 191 0
168 187 0
164 186 0
164 184 0
168 190 0
166 189 0
168 189 0
165 187 0
172 193 0
169 192 0
163 184 0
165 186 0
177 200 99
173 196 67
177 200 111
169 193 88
168 192 84
175 198 114
172 195 105
171 195 92
172 194 84
177 200 99
173 196 102
170 193 72
171 194 114
163 186 88
170 193 72
168 191 95
170 194 99
169 192 95
169 193 99
171 195 122
171 195 92
173 196 108
168 191 76
169 193 84
169 194 114
164 188 105
169 193 99
169 193 105
170 194 117
169 192 95
168 191 80
171 194 95
160 182 88
168 190 88
168 191 92
169 193 102
169 193 99
168 191 105
166 189 76
167 191 80
162 185 84
161 184 80
159 182 76
173 196 99
163 187 95
156 180 102
165 188 105
165 189 88
167 190 111
166 189 114
164 188 105
160 183 92
168 191 95
167 190 108
160 182 88
172 195 120
158 181 105
157 179 67
158 181 84
164 188 108
163 186 99
146 169 67
162 184 92
161 184 92
159 182 88
157 180 99
159 182 95
162 185 84
164 187 108
162 184 92
159 180 84
157 179 111
162 184 92
164 186 105
157 179 95
161 183 92
157 179 80
163 185 102
165 187 105
162 184 88
162 183 95
150 172 88
157 178 95
150 171 80
162 184 108
153 174 111
157 178 84
147 168 76
162 183 92
159 180 105
156 177 117
153 174 102
151 172 108
166 186 125
153 174 92
151 172 80
166 186 125
151 171 102
155 175 92
151 171 92
157 177 114
160 181 102
156 176 88
157 177 102
152 172 80
158 179 92
152 171 88
157 176 95
155 174 105
152 171 102
147 166 95
148 167 84
141 160 67
145 164 62
146 165 67
144 164 57
138 159 57
145 163 92
147 166 57
143 163 44
138 157 57
133 153 25
138 158 36
132 153 36
125 145 25
143 165 36
141 161 36
144 165 36
136 156 25
142 162 25
142 161 25
143 165 44
137 156 36
149 171 25
148 169 25
147 167 0
142 162 25
153 173 0
149 170 0
147 167 25
143 164 0
142 162 0
142 163 0
135 156 0
139 159 0
138 158 0
126 147 0
130 149 0
136 155 0
129 150 0
133 152 0
138 158 0
136 157 0
133 152 0
124 143 0
120 141 0
129 149 0
126 146 0
129 148 0
120 140 0
127 146 0
124 142 0
113 132 0
123 144 0
118 136 0
109 128 0
125 144 0
121 140 0
120 139 0
122 142 0
129 147 0
128 147 0
120 139 0
123 142 0
120 139 0
116 135 0
121 140 0
123 142 0
121 142 0
126 146 0
113 133 0
118 138 0
124 144 0
130 149 0
136 155 0
130 148 0
114 133 0
125 144 0
121 141 0
123 142 0
124 144 0
120 139 0
121 140 0
124 143 0
126 144 0
120 139 0
119 138 0
131 151 0
120 140 0
122 142 0
121 142 0
127 148 0
129 148 0
133 153 0
117 137 0
126 145 0
131 149 0
137 158 0
124 143 0
118 139 0
126 144 0
128 148 0
117 137 0
135 154 0
122 142 0
135 155 0
138 159 0
118 138 0
128 148 0
129 149 0
131 152 0
122 141 0
141 161 0
138 159 0
135 154 0
130 151 0
135 155 0
128 148 0
147 168 0
148 169 0
127 147 0
134 155 0
130 151 0
127 148 0
131 151 0
139 160 0
132 152 0
138 158 0
139 159 0
138 158 0
139 161 0
135 156 0
145 166 0
137 158 0
141 162 0
139 160 0
134 153 0
149 170 0
145 166 0
142 163 0
135 155 0
141 163 0
128 149 0
147 167 0
148 168 0
152 173 0
148 170 0
146 167 0
143 163 0
150 171 0
150 171 0
144 164 0
139 159 0
146 166 0
149 171 0
146 166 0
138 158 0
140 162 0
144 165 0
147 169 0
142 162 0
150 170 0
148 170 0
152 175 0
149 171 0
145 164 0
150 171 0
155 177 0
153 176 0
151 172 0
155 176 0
153 174 0
152 173 0
147 169 0
158 180 0
162 184 0
156 178 0
145 165 0
148 168 0
153 175 0
152 173 0
154 176 0
150 171 0
147 169 0
152 173 0
149 170 0
149 170 0
156 177 0
158 179 0
152 173 0
158 180 0
161 183 0
151 172 0
159 180 0
158 179 0
153 173 0
157 179 0
151 170 0
149 170 0
161 181 0
155 175 0
158 178 0
159 181 0
157 177 0
151 172 0
155 177 0
156 178 0
159 180 0
154 175 0
154 176 0
157 179 0
158 179 0
162 183 0
157 179 0
158 178 0
162 183 0
154 174 0
158 180 0
163 185 0
157 176 0
156 177 0
161 181 0
165 185 0
165 187 0
158 178 0
160 183 0
161 182 0
156 177 0
163 184 0
152 174 0
160 180 0
164 185 0
160 181 0
157 177 0
165 185 0
161 184 0
157 177 0
165 187 0
163 185 0
154 175 0
163 184 0
161 183 0
161 183 0
162 183 0
162 183 0
163 184 0
162 185 0
158 179 0
164 185 0
162 184 0
161 183 0
166 187 0
170 191 0
165 188 0
168 190 0
168 188 0
161 182 0
163 184 0
164 184 0
164 186 0
165 187 0
164 185 0
167 187 0
166 187 0
159 180 0
163 185 0
165 187 0
165 187 0
165 187 0
165 187 0
163 186 0
159 180 0
169 191 0
168 189 0
166 187 0
161 180 0
164 187 0
164 185 0
160 182 0
167 187 0
162 184 0
169 191 0
167 189 0
169 191 0
166 187 0
164 185 0
170 192 0
166 186 0
168 192 0
162 183 0
175 199 108
173 196 102
170 194 84
174 196 99
169 194 72
175 198 117
171 194 114
172 196 88
172 195 88
173 194 88
166 190 72
175 198 95
168 192 111
167 191 72
169 193 102
170 193 88
172 196 114
172 195 117
173 196 92
162 185 57
171 195 99
173 197 108
167 190 76
171 194 99
168 191 95
164 188 95
165 188 92
166 190 99
169 192 92
170 193 67
165 188 88
170 194 111
163 186 84
168 192 114
167 190 62
167 190 95
165 189 84
167 190 105
162 185 67
167 191 95
170 194 95
164 188 76
166 189 108
164 188 80
165 188 99
165 188 99
172 194 105
164 188 108
168 191 92
164 188 102
160 183 99
164 188 114
169 192 95
169 192 105
163 186 76
165 188 102
167 190 102
168 191 117
166 188 99
167 189 88
165 188 84
163 185 111
161 184 105
159 181 92
156 179 88
165 188 95
163 186 114
156 178 99
159 181 105
164 186 111
163 186 80
158 181 95
164 186 88
167 190 102
161 182 67
157 179 95
164 187 92
161 184 102
160 181 84
163 184 88
161 184 99
154 175 95
161 182 88
161 182 102
158 179 114
158 178 84
158 179 114
157 178 102
160 181 102
156 178 88
158 179 88
156 177 88
159 179 102
156 177 111
154 175 95
165 186 114
160 180 114
151 172 62
150 170 117
153 173 95
154 174 99
161 182 99
148 169 88
152 172 108
147 166 72
148 168 99
155 174 108
152 171 92
138 157 76
149 170 44
156 175 84
148 168 84
152 171 95
134 154 36
148 167 80
149 169 57
151 171 80
150 170 51
134 153 57
153 173 51
141 162 36
129 150 36
125 145 0
135 156 25
143 163 44
132 153 25
144 166 0
144 163 51
143 163 44
138 159 25
148 169 36
148 169 36
142 162 0
145 166 25
140 161 0
157 178 0
145 165 0
145 167 0
156 178 0
148 169 0
142 164 0
143 163 0
143 163 0
142 162 0
135 157 0
144 165 0
134 155 0
135 155 0
127 148 0
135 156 0
132 151 0
128 149 0
128 147 0
120 140 0
129 149 0
128 148 0
120 139 0
132 150 0
119 138 0
121 139 0
125 144 0
130 150 0
129 147 0
132 152 0
122 140 0
124 144 0
131 152 0
131 152 0
126 145 0
122 142 0
131 150 0
123 143 0
127 145 0
122 141 0
126 145 0
123 143 0
119 139 0
121 140 0
125 145 0
112 130 0
115 135 0
127 145 0
127 146 0
130 150 0
122 142 0
119 138 0
126 146 0
122 141 0
124 144 0
122 141 0
118 137 0
113 132 0
127 147 0
120 140 0
127 146 0
123 142 0
123 144 0
125 144 0
125 144 0
121 141 0
129 149 0
130 149 0
124 144 0
121 142 0
118 138 0
120 139 0
133 153 0
124 143 0
120 141 0
122 142 0
124 145 0
121 139 0
130 150 0
115 134 0
132 151 0
144 165 0
138 160 0
125 143 0
133 153 0
136 155 0
131 151 0
137 157 0
132 151 0
130 150 0
139 159 0
129 149 0
147 167 0
131 150 0
136 156 0
127 147 0
137 159 0
145 166 0
137 159 0
154 174 0
138 158 0
137 157 0
134 154 0
136 156 0
144 165 0
130 150 0
135 153 0
138 159 0
147 167 0
141 162 0
144 166 0
142 163 0
142 160 0
140 162 0
146 167 0
135 156 0
134 152 0
137 157 0
148 169 0
145 165 0
147 168 0
145 167 0
138 160 0
154 175 0
145 163 0
144 164 0
145 166 0
145 166 0
143 163 0
152 172 0
145 165 0
144 165 0
145 165 0
145 166 0
148 169 0
147 168 0
149 171 0
146 166 0
153 173 0
150 171 0
149 170 0
156 176 0
147 168 0
153 174 0
149 170 0
151 172 0
150 172 0
154 174 0
148 170 0
153 172 0
153 174 0
158 181 0
151 172 0
153 174 0
151 172 0
152 174 0
157 177 0
149 170 0
151 174 0
154 175 0
157 179 0
154 175 0
153 175 0
162 184 0
148 170 0
153 175 0
149 169 0
161 183 0
156 177 0
158 180 0
152 172 0
161 182 0
156 177 0
158 180 0
155 175 0
154 175 0
148 168 0
163 185 0
152 173 0
158 180 0
158 179 0
153 175 0
159 179 0
158 177 0
154 176 0
158 179 0
158 179 0
155 175 0
162 183 0
157 178 0
157 177 0
158 178 0
159 178 0
152 172 0
157 179 0
161 183 0
156 177 0
163 185 0
163 184 0
162 184 0
159 179 0
159 178 0
159 182 0
164 185 0
160 181 0
160 182 0
160 182 0
160 181 0
159 179 0
163 185 0
163 184 0
162 184 0
165 187 0
159 181 0
159 180 0
163 184 0
155 175 0
163 183 0
161 183 0
165 185 0
167 189 0
164 185 0
164 187 0
159 182 0
163 184 0
163 184 0
161 183 0
164 184 0
167 189 0
162 185 0
163 185 0
166 187 0
163 184 0
163 185 0
166 188 0
164 187 0
167 189 0
164 186 0
164 188 0
161 182 0
165 187 0
159 179 0
163 184 0
165 187 0
165 186 0
165 187 0
171 194 0
166 189 0
166 187 0
163 186 0
167 188 0
167 188 0
165 188 0
168 189 0
164 186 0
162 184 0
166 188 0
167 190 0
166 187 0
166 187 0
168 191 0
167 189 0
165 186 0
166 188 0
164 185 0
164 187 0
178 200 111
168 192 88
177 200 102
171 194 99
167 190 99
173 195 72
175 197 102
163 186 80
174 197 102
173 196 108
172 195 88
167 191 80
173 196 84
169 192 84
165 188 92
171 194 95
171 193 95
172 196 117
173 197 114
171 194 108
166 189 84
176 198 105
175 198 111
165 188 88
170 193 99
166 190 105
168 191 92
168 190 76
170 192 92
167 191 99
165 189 80
173 197 111
170 193 80
166 190 105
170 192 99
164 187 95
165 188 95
169 193 102
163 187 76
169 191 99
162 184 95
160 184 95
167 191 84
168 190 95
166 190 102
166 189 117
167 190 95
167 190 108
164 188 95
163 187 80
163 186 105
164 188 130
164 187 88
165 189 88
168 192 114
172 195 120
166 190 88
166 189 108
160 183 92
164 187 117
154 177 92
159 180 84
163 185 95
166 189 102
167 190 80
167 189 105
162 185 99
155 177 84
167 188 76
157 178 67
164 186 80
162 184 105
163 185 95
160 182 102
162 185 92
154 176 76
163 185 99
155 176 88
161 183 102
153 174 92
164 185 99
156 178 72
159 180 92
160 182 99
158 180 95
158 180 92
151 173 92
161 182 99
162 183 114
157 178 102
162 183 102
159 180 84
150 171 102
159 181 102
166 186 117
152 173 88
151 171 95
150 170 102
166 186 111
151 172 80
152 173 76
143 163 72
149 168 88
153 172 95
153 173 108
143 163 76
153 173 88
153 173 92
150 170 67
151 170 108
151 171 76
148 167 80
144 164 67
149 169 84
150 169 76
131 151 51
140 159 51
145 164 67
142 161 72
139 159 51
138 157 62
145 166 25
138 158 57
141 161 51
141 161 57
144 164 57
130 150 36
145 165 51
149 170 36
141 162 0
151 173 0
153 175 51
145 166 0
141 163 25
144 166 0
147 167 0
148 169 0
146 168 0
149 170 0
151 171 0
146 168 0
146 168 0
139 160 0
138 159 0
136 157 0
134 155 0
129 148 0
141 161 0
137 156 0
126 146 0
128 149 0
126 147 0
135 155 0
128 147 0
137 158 0
138 158 0
131 150 0
132 152 0
133 153 0
134 154 0
130 149 0
118 137 0
127 146 0
129 149 0
117 137 0
118 137 0
118 137 0
125 143 0
124 145 0
118 138 0
133 152 0
116 136 0
108 127 0
131 149 0
115 133 0
126 145 0
115 134 0
124 144 0
129 148 0
128 147 0
118 138 0
131 151 0
133 152 0
120 140 0
123 142 0
116 137 0
133 153 0
120 140 0
126 143 0
125 145 0
113 133 0
128 149 0
119 137 0
133 153 0
113 132 0
129 148 0
122 142 0
120 140 0
139 159 0
136 155 0
127 147 0
130 149 0
127 147 0
127 148 0
130 149 0
139 160 0
133 152 0
131 151 0
145 166 0
116 135 0
136 157 0
137 156 0
125 145 0
134 154 0
120 139 0
124 144 0
136 156 0
135 155 0
136 156 0
134 153 0
137 157 0
134 155 0
125 143 0
135 156 0
138 159 0
143 163 0
136 157 0
137 158 0
138 158 0
138 157 0
145 165 0
141 162 0
146 168 0
137 156 0
139 159 0
145 165 0
134 155 0
140 160 0
136 157 0
141 162 0
143 164 0
134 153 0
143 164 0
137 157 0
142 163 0
137 157 0
151 172 0
135 154 0
141 160 0
143 163 0
141 161 0
135 155 0
142 163 0
144 163 0
144 164 0
144 165 0
149 171 0
145 163 0
147 168 0
155 175 0
152 173 0
144 164 0
140 159 0
144 164 0
145 166 0
142 163 0
150 171 0
146 167 0
150 172 0
152 173 0
140 161 0
150 172 0
154 174 0
146 166 0
156 178 0
145 165 0
151 173 0
152 174 0
153 175 0
152 173 0
154 176 0
146 168 0
157 178 0
149 170 0
158 180 0
153 175 0
151 172 0
150 170 0
154 175 0
152 173 0
148 170 0
150 172 0
149 171 0
146 166 0
156 177 0
154 175 0
159 180 0
147 166 0
157 177 0
146 167 0
152 173 0
150 171 0
154 175 0
159 180 0
155 176 0
159 180 0
158 177 0
161 184 0
161 183 0
158 178 0
161 183 0
168 191 0
154 175 0
160 181 0
163 185 0
158 180 0
162 183 0
161 183 0
153 174 0
160 181 0
154 176 0
157 179 0
156 175 0
162 184 0
156 178 0
160 180 0
161 183 0
160 182 0
158 180 0
161 182 0
160 181 0
157 179 0
164 188 0
156 176 0
161 183 0
163 184 0
160 181 0
158 179 0
162 182 0
160 181 0
163 186 0
160 179 0
162 184 0
154 177 0
164 185 0
164 187 0
162 183 0
162 184 0
160 180 0
164 185 0
159 182 0
166 189 0
163 184 0
165 186 0
164 185 0
164 186 0
163 185 0
161 182 0
166 189 0
165 186 0
162 184 0
162 185 0
162 183 0
162 184 0
163 185 0
166 187 0
165 188 0
166 188 0
167 188 0
160 182 0
169 189 0
166 188 0
163 185 0
164 187 0
167 189 0
164 184 0
167 189 0
166 187 0
160 181 0
161 184 0
162 183 0
166 188 0
165 187 0
165 188 0
166 188 0
168 190 0
162 183 0
162 182 0
163 184 0
169 191 0
167 190 0
167 187 0
165 187 0
164 188 0
164 187 0
164 187 0
163 184 0
169 191 0
162 183 0
165 188 0
170 193 76
173 196 99
175 198 105
176 199 95
174 196 76
174 197 84
175 198 92
169 193 80
174 197 102
174 197 114
173 195 92
168 191 102
172 196 92
171 193 102
169 193 99
166 190 95
167 189 92
172 194 88
169 192 102
175 198 105
170 193 105
173 197 99
172 196 114
170 193 95
167 191 84
171 194 114
168 190 67
170 193 88
171 193 99
171 194 105
167 190 84
167 191 99
167 190 95
170 192 125
165 188 80
171 194 88
171 195 130
167 190 95
170 193 108
166 188 80
163 187 99
169 192 88
172 195 102
168 192 92
162 184 72
167 189 95
167 190 102
173 196 111
168 191 88
164 187 95
168 192 108
165 188 80
165 187 108
165 187 76
162 185 67
161 183 102
166 190 102
164 187 108
168 191 99
162 186 114
159 182 102
161 184 67
164 186 114
161 184 108
162 186 111
164 188 84
160 183 99
157 179 57
163 186 99
162 185 99
167 190 105
160 182 102
157 179 102
164 187 102
156 178 102
157 179 88
157 178 105
166 188 99
162 184 88
161 183 114
164 184 108
155 177 84
160 182 95
165 187 108
157 177 84
162 183 102
160 181 92
145 165 84
150 171 88
153 173 92
153 173 80
163 183 108
154 176 99
164 186 88
157 178 99
148 169 88
143 163 80
158 179 92
154 173 92
155 174 111
146 166 80
160 180 99
152 172 84
153 174 95
164 185 99
158 178 99
155 175 88
149 168 84
150 170 80
142 162 76
143 163 76
151 172 72
149 168 88
151 171 67
145 166 76
152 173 62
146 166 67
140 160 44
139 160 36
145 166 36
143 163 51
135 155 51
141 163 25
131 150 25
145 167 25
141 163 51
148 168 36
133 154 36
144 166 25
150 170 36
147 168 25
148 168 25
150 171 25
155 177 0
146 168 0
141 163 25
149 170 0
147 168 0
154 175 0
143 164 0
139 160 0
140 161 0
148 169 0
140 160 0
137 158 0
138 159 0
140 161 0
141 162 0
135 154 0
130 150 0
133 154 0
130 151 0
134 154 0
138 157 0
133 153 0
135 155 0
136 156 0
123 143 0
127 146 0
136 156 0
136 157 0
121 141 0
129 149 0
132 151 0
128 147 0
134 153 0
120 140 0
120 139 0
131 150 0
127 148 0
124 144 0
126 146 0
131 149 0
127 147 0
123 144 0
136 156 0
122 142 0
135 154 0
122 140 0
133 152 0
128 147 0
124 145 0
131 150 0
128 147 0
118 138 0
129 148 0
123 141 0
126 146 0
118 137 0
131 150 0
131 151 0
130 150 0
132 151 0
133 152 0
133 152 0
128 147 0
118 138 0
129 149 0
135 155 0
137 158 0
130 150 0
128 147 0
132 152 0
140 161 0
130 150 0
125 146 0
136 156 0
142 162 0
128 148 0
137 156 0
141 161 0
134 155 0
123 143 0
126 147 0
131 151 0
133 152 0
133 154 0
132 152 0
129 149 0
133 154 0
139 158 0
144 165 0
134 154 0
138 159 0
133 154 0
130 151 0
134 155 0
135 154 0
134 155 0
130 150 0
142 162 0
133 154 0
123 144 0
141 162 0
140 160 0
135 155 0
136 156 0
141 161 0
139 160 0
143 164 0
144 165 0
142 163 0
131 152 0
141 161 0
142 162 0
142 162 0
141 161 0
143 165 0
141 162 0
137 158 0
135 157 0
148 169 0
147 167 0
150 170 0
149 170 0
143 164 0
145 166 0
146 168 0
153 174 0
150 170 0
148 170 0
146 168 0
141 162 0
150 171 0
147 168 0
142 164 0
148 168 0
153 174 0
147 166 0
143 165 0
149 169 0
148 169 0
153 174 0
145 167 0
153 174 0
148 169 0
152 172 0
153 176 0
155 176 0
153 175 0
146 166 0
147 168 0
159 180 0
155 178 0
148 169 0
144 165 0
159 180 0
147 167 0
151 172 0
145 165 0
147 169 0
152 172 0
153 175 0
152 173 0
158 179 0
147 168 0
155 177 0
154 176 0
157 178 0
159 181 0
155 177 0
162 184 0
157 178 0
154 176 0
157 178 0
156 177 0
156 178 0
159 179 0
153 175 0
159 181 0
152 172 0
157 177 0
163 184 0
161 181 0
158 179 0
155 179 0
155 177 0
159 181 0
160 182 0
162 183 0
163 184 0
158 179 0
158 179 0
162 183 0
161 182 0
161 183 0
156 176 0
162 184 0
155 177 0
165 188 0
159 180 0
157 177 0
155 176 0
158 181 0
157 177 0
164 186 0
158 179 0
157 180 0
159 181 0
160 182 0
156 177 0
159 180 0
163 184 0
160 180 0
156 177 0
161 184 0
160 181 0
164 185 0
154 176 0
165 187 0
166 188 0
161 183 0
160 182 0
160 183 0
163 183 0
161 184 0
161 183 0
162 184 0
163 186 0
163 185 0
162 183 0
165 186 0
165 187 0
163 184 0
165 187 0
159 182 0
165 188 0
163 184 0
163 186 0
165 187 0
163 183 0
161 182 0
169 192 0
164 187 0
165 188 0
171 192 0
165 188 0
167 188 0
164 186 0
162 184 0
169 190 0
167 189 0
167 188 0
166 187 0
164 186 0
168 189 0
167 188 0
168 190 0
162 184 0
169 190 0
166 188 0
167 189 0
162 182 0
167 189 0
166 190 0
169 190 0
170 191 0
161 181 0
166 188 0
166 186 0
174 197 102
169 192 76
171 194 88
180 202 128
173 195 99
174 197 88
171 193 88
174 197 84
167 190 88
169 192 92
170 193 84
173 197 88
169 192 88
167 190 92
168 190 102
174 198 114
171 194 99
171 194 84
168 191 105
163 187 92
170 193 92
168 191 88
167 190 99
173 197 105
170 193 99
170 194 95
170 194 88
169 192 105
169 192 114
170 193 99
164 188 108
168 192 88
166 190 111
168 192 80
174 197 120
170 193 108
165 187 84
167 191 95
172 194 108
164 188 84
171 194 117
167 191 99
162 186 84
169 192 111
163 186 102
167 189 92
161 184 99
162 185 92
166 189 92
167 190 99
166 189 108
166 189 111
168 191 108
160 183 76
161 185 76
165 188 92
168 190 108
165 187 88
169 192 95
160 183 108
158 180 92
156 178 88
163 186 62
167 189 88
162 185 102
171 193 95
156 178 84
157 179 99
167 190 102
166 189 102
161 183 99
167 189 84
167 189 92
158 181 92
159 181 95
167 189 102
156 177 99
156 177 88
153 175 88
153 175 95
168 189 105
160 182 108
164 185 105
159 180 99
159 181 88
161 182 120
158 180 102
159 180 88
156 177 105
161 181 102
157 178 99
151 172 88
153 174 95
159 179 105
153 174 95
157 178 92
156 177 99
158 178 99
158 181 76
156 177 99
156 177 102
154 175 92
147 168 92
152 172 76
149 169 92
152 171 95
156 177 80
150 169 92
144 164 76
154 174 84
152 173 84
146 166 67
156 177 76
156 175 92
153 173 80
152 172 67
142 162 51
151 171 62
139 159 67
145 165 51
153 173 51
132 151 0
136 156 51
144 165 51
145 166 36
145 166 36
139 160 44
142 163 25
140 162 36
152 173 25
141 162 0
147 169 25
141 163 0
156 176 0
147 169 25
147 168 0
144 165 0
150 170 0
144 164 0
149 171 0
135 156 0
137 157 0
134 154 0
132 152 0
135 155 0
142 163 0
132 152 0
144 165 0
141 163 0
132 152 0
132 151 0
125 145 0
141 161 0
125 145 0
139 160 0
125 145 0
124 144 0
143 163 0
120 140 0
140 159 0
136 155 0
127 147 0
124 144 0
132 152 0
128 147 0
134 154 0
125 145 0
130 150 0
134 154 0
129 151 0
135 154 0
132 151 0
126 147 0
128 148 0
126 146 0
134 153 0
129 148 0
120 140 0
126 146 0
128 147 0
132 152 0
137 157 0
119 139 0
132 152 0
126 145 0
133 153 0
123 143 0
129 150 0
130 150 0
120 140 0
122 142 0
134 154 0
128 147 0
128 148 0
120 139 0
122 141 0
118 138 0
129 150 0
126 147 0
127 148 0
133 153 0
131 150 0
131 152 0
140 161 0
129 149 0
137 157 0
126 145 0
129 149 0
130 149 0
130 150 0
137 159 0
138 158 0
130 150 0
133 153 0
135 155 0
128 147 0
128 149 0
131 152 0
133 152 0
119 138 0
130 152 0
140 161 0
140 160 0
133 154 0
140 159 0
142 162 0
141 161 0
144 166 0
141 160 0
131 153 0
144 165 0
140 160 0
135 156 0
145 166 0
142 163 0
137 158 0
138 159 0
141 162 0
142 162 0
137 157 0
140 160 0
133 153 0
138 158 0
149 169 0
142 163 0
141 161 0
139 159 0
144 165 0
155 177 0
138 160 0
145 166 0
140 161 0
146 167 0
145 167 0
138 158 0
147 167 0
149 172 0
145 167 0
143 164 0
141 163 0
142 162 0
147 168 0
146 168 0
148 169 0
154 175 0
152 173 0
153 174 0
143 165 0
155 176 0
145 164 0
152 173 0
156 176 0
149 171 0
151 171 0
153 173 0
158 180 0
144 166 0
145 165 0
148 168 0
152 175 0
154 175 0
154 175 0
156 177 0
154 175 0
149 170 0
159 181 0
154 177 0
147 169 0
155 177 0
151 173 0
152 173 0
149 170 0
155 176 0
151 172 0
156 176 0
158 179 0
158 180 0
157 178 0
165 186 0
159 181 0
163 185 0
161 182 0
156 177 0
153 174 0
154 174 0
153 175 0
157 178 0
151 174 0
153 174 0
155 176 0
160 181 0
157 178 0
158 181 0
157 176 0
156 178 0
166 187 0
161 183 0
156 178 0
157 178 0
161 182 0
159 180 0
154 177 0
165 187 0
156 178 0
159 179 0
151 172 0
164 186 0
161 183 0
158 180 0
153 174 0
162 183 0
155 175 0
159 180 0
157 178 0
162 182 0
167 189 0
161 181 0
157 180 0
159 181 0
158 179 0
167 188 0
162 184 0
162 185 0
165 187 0
161 183 0
162 184 0
162 181 0
167 189 0
164 185 0
160 181 0
163 185 0
162 183 0
163 185 0
162 183 0
158 180 0
163 184 0
161 183 0
162 185 0
161 183 0
162 184 0
165 185 0
163 184 0
164 186 0
168 189 0
165 186 0
163 185 0
164 186 0
168 189 0
167 189 0
166 187 0
165 187 0
164 185 0
158 180 0
166 187 0
172 194 0
167 189 0
166 189 0
165 186 0
166 187 0
167 189 0
163 185 0
162 184 0
162 183 0
167 189 0
166 189 0
167 189 0
167 190 0
166 187 0
161 182 0
165 187 0
163 185 0
164 186 0
167 188 0
169 192 0
170 192 0
168 190 0
163 185 0
170 192 0
168 189 0
167 190 0
176 198 105
171 194 88
173 196 95
173 196 105
173 196 108
175 197 88
172 194 92
173 196 95
175 198 111
172 195 108
166 189 95
174 198 108
171 195 108
170 194 105
171 195 92
168 191 92
173 196 108
173 196 114
171 194 84
170 193 76
170 193 95
172 195 102
167 191 102
169 192 102
170 194 88
169 192 95
172 195 105
168 191 88
174 197 95
167 191 80
172 195 117
164 187 76
167 191 95
167 190 102
169 192 111
160 183 102
171 194 99
166 190 99
169 191 80
173 197 88
166 188 80
162 185 84
164 187 76
173 195 102
163 187 105
168 191 117
162 185 92
165 188 105
166 189 111
159 182 84
164 186 88
160 184 102
161 184 95
160 183 80
165 188 92
167 188 95
160 183 88
163 186 111
164 186 102
162 185 102
163 185 111
160 183 111
163 186 88
167 189 102
164 186 80
164 187 102
160 182 92
158 181 117
162 185 108
163 185 102
158 181 105
160 182 72
160 182 114
161 184 76
169 190 108
164 186 108
162 184 92
161 182 92
162 184 102
157 177 80
162 184 92
162 184 92
159 180 76
162 183 122
151 173 102
160 182 88
158 180 102
158 180 92
158 179 92
160 180 102
159 180 114
160 182 99
161 182 95
163 183 99
159 179 102
156 176 88
159 180 108
150 171 80
160 181 99
166 186 108
157 178 92
147 167 102
147 167 84
149 169 84
148 168 76
157 176 105
160 180 102
158 178 84
153 173 80
149 168 76
153 172 99
146 167 57
141 162 62
151 172 51
156 176 62
146 166 44
150 169 67
145 166 25
144 164 36
138 158 36
150 170 51
140 161 51
135 154 44
142 164 51
140 160 44
152 173 44
146 167 25
143 164 0
141 161 0
146 167 0
148 170 0
150 171 0
153 174 25
145 165 0
142 165 0
156 178 0
149 171 0
149 171 0
145 166 0
141 163 0
140 162 0
145 167 0
131 152 0
137 158 0
136 157 0
140 161 0
137 158 0
127 148 0
137 157 0
140 160 0
138 158 0
134 154 0
129 149 0
147 167 0
132 152 0
139 160 0
136 155 0
141 161 0
126 147 0
124 144 0
130 148 0
118 136 0
124 145 0
133 152 0
119 139 0
130 150 0
119 138 0
124 144 0
127 146 0
119 138 0
140 161 0
137 156 0
129 149 0
109 128 0
130 150 0
134 154 0
135 155 0
126 146 0
119 139 0
117 137 0
125 145 0
129 149 0
132 151 0
135 155 0
128 148 0
130 151 0
126 146 0
128 148 0
124 143 0
132 152 0
134 154 0
139 159 0
127 146 0
129 149 0
125 145 0
126 146 0
128 148 0
135 155 0
135 156 0
133 155 0
128 148 0
129 148 0
123 142 0
126 146 0
134 154 0
137 158 0
137 157 0
140 160 0
137 157 0
130 151 0
131 151 0
127 147 0
142 163 0
129 149 0
139 160 0
128 148 0
128 149 0
140 160 0
139 159 0
132 153 0
138 159 0
136 156 0
141 162 0
129 150 0
145 166 0
138 158 0
136 156 0
140 161 0
135 155 0
144 165 0
130 150 0
149 171 0
132 152 0
141 163 0
139 159 0
149 171 0
137 158 0
150 171 0
151 171 0
149 171 0
141 162 0
142 163 0
140 160 0
139 160 0
148 168 0
144 165 0
149 170 0
151 172 0
143 164 0
143 163 0
141 162 0
146 168 0
139 159 0
139 159 0
140 160 0
145 166 0
146 169 0
138 160 0
149 170 0
149 171 0
150 172 0
140 160 0
148 169 0
153 174 0
152 174 0
151 173 0
146 168 0
152 171 0
149 171 0
146 167 0
144 164 0
149 171 0
150 173 0
152 175 0
146 168 0
148 168 0
152 172 0
149 171 0
149 170 0
151 173 0
152 174 0
155 177 0
150 172 0
152 173 0
148 170 0
157 179 0
156 177 0
156 179 0
151 171 0
152 174 0
155 177 0
154 176 0
156 179 0
160 182 0
156 177 0
159 181 0
149 170 0
150 171 0
152 174 0
158 179 0
159 181 0
159 180 0
161 183 0
156 178 0
157 178 0
155 176 0
159 181 0
152 172 0
156 177 0
156 177 0
154 175 0
158 178 0
161 183 0
150 172 0
157 179 0
157 179 0
160 182 0
157 178 0
155 177 0
164 185 0
156 178 0
155 178 0
157 178 0
155 176 0
163 185 0
163 184 0
163 183 0
160 181 0
161 183 0
159 180 0
164 186 0
158 179 0
167 188 0
158 180 0
155 177 0
158 179 0
160 180 0
163 185 0
163 185 0
160 181 0
158 181 0
160 183 0
164 184 0
164 188 0
160 179 0
161 181 0
160 182 0
165 187 0
156 177 0
159 181 0
158 180 0
161 183 0
164 186 0
160 181 0
164 185 0
162 184 0
165 186 0
159 181 0
160 182 0
164 184 0
161 184 0
163 185 0
162 184 0
164 187 0
166 188 0
166 189 0
167 189 0
169 191 0
163 185 0
165 186 0
166 189 0
165 187 0
160 182 0
161 184 0
165 188 0
161 181 0
161 183 0
168 190 0
170 192 0
165 187 0
164 186 0
168 191 0
170 192 0
164 187 0
167 188 0
166 190 0
170 193 0
165 187 0
167 188 0
166 188 0
167 189 0
169 190 0
165 185 0
167 188 0
167 189 0
167 188 0
171 194 0
166 188 0
165 187 0
165 187 0
172 195 95
172 195 88
172 194 111
167 191 80
173 196 95
175 199 105
174 197 114
178 201 102
172 195 105
170 193 105
172 195 114
173 196 99
175 198 125
172 196 102
169 192 95
173 195 95
168 191 80
169 192 88
171 195 99
174 197 95
170 193 99
166 190 88
165 188 88
173 197 105
170 194 99
168 191 108
170 193 88
170 193 76
165 188 95
174 197 92
172 195 95
164 187 102
163 185 72
167 190 105
170 194 117
168 192 102
160 183 84
167 190 88
164 187 67
167 190 92
162 185 99
166 189 114
160 184 92
167 190 102
163 186 92
162 185 84
165 189 92
165 187 105
158 181 88
165 188 84
169 192 108
167 190 84
161 184 92
169 192 102
157 180 76
165 187 84
161 184 92
170 192 92
164 185 57
165 188 111
159 182 62
164 187 120
165 188 111
163 186 84
159 182 108
165 188 111
158 180 105
167 189 111
167 189 80
164 186 108
155 177 99
155 177 88
161 183 76
163 186 117
167 189 88
158 180 88
156 177 80
158 181 76
155 177 99
164 186 114
164 185 95
161 182 120
159 180 99
161 182 108
157 179 88
151 173 88
151 172 92
161 182 120
158 178 111
161 181 102
155 176 92
157 179 102
157 178 117
159 180 92
155 176 88
158 178 99
150 170 92
160 180 108
157 178 102
157 177 122
158 178 95
156 176 88
155 176 88
157 177 105
159 181 88
158 178 84
157 177 95
154 175 84
145 165 76
151 170 84
159 178 99
154 173 92
148 168 67
158 179 67
154 175 57
142 162 67
136 158 25
147 168 67
144 165 44
142 162 51
146 167 51
149 169 44
149 169 25
145 166 44
135 157 25
154 175 36
147 166 44
137 157 25
152 174 0
147 167 36
154 175 25
153 175 0
150 172 25
147 169 25
155 177 25
141 162 0
150 172 0
150 172 0
147 169 0
140 163 0
148 171 0
145 165 0
147 168 0
144 165 0
146 167 0
137 158 0
141 162 0
138 158 0
142 163 0
151 171 0
133 154 0
132 153 0
140 161 0
136 156 0
132 152 0
135 154 0
130 150 0
138 159 0
143 164 0
130 150 0
131 151 0
130 150 0
134 153 0
127 147 0
118 138 0
136 156 0
131 151 0
110 132 0
138 158 0
123 143 0
129 148 0
131 150 0
126 146 0
135 155 0
124 143 0
136 155 0
127 146 0
125 145 0
131 150 0
127 147 0
139 158 0
133 153 0
135 155 0
127 148 0
125 145 0
133 154 0
134 154 0
128 149 0
129 149 0
133 153 0
131 151 0
130 151 0
133 154 0
130 151 0
134 153 0
131 151 0
138 158 0
131 151 0
125 146 0
132 153 0
131 153 0
124 144 0
144 165 0
134 155 0
129 149 0
134 155 0
124 144 0
134 155 0
140 161 0
138 159 0
133 153 0
132 152 0
132 152 0
137 157 0
137 157 0
131 151 0
121 140 0
144 165 0
136 156 0
135 156 0
128 150 0
131 151 0
132 152 0
131 152 0
131 151 0
143 164 0
142 163 0
138 159 0
137 159 0
134 156 0
149 170 0
144 164 0
144 166 0
141 161 0
141 162 0
134 155 0
129 150 0
145 166 0
135 154 0
140 159 0
144 163 0
136 157 0
149 171 0
146 167 0
147 168 0
150 170 0
142 163 0
151 171 0
140 160 0
146 168 0
138 159 0
143 164 0
151 171 0
140 162 0
145 167 0
151 172 0
145 165 0
145 166 0
141 162 0
146 167 0
153 175 0
144 166 0
150 170 0
149 171 0
158 181 0
147 168 0
152 174 0
146 169 0
154 175 0
145 164 0
154 176 0
148 170 0
148 168 0
156 178 0
150 170 0
152 173 0
153 173 0
146 167 0
153 175 0
152 173 0
156 179 0
151 172 0
147 168 0
153 173 0
156 177 0
156 178 0
155 176 0
154 175 0
151 172 0
149 170 0
151 173 0
154 176 0
154 175 0
153 175 0
151 171 0
159 181 0
153 174 0
157 177 0
159 180 0
158 180 0
152 174 0
158 179 0
156 177 0
159 181 0
161 182 0
155 177 0
158 181 0
158 180 0
159 181 0
160 181 0
159 182 0
155 177 0
156 178 0
157 179 0
154 176 0
161 183 0
158 178 0
158 180 0
153 175 0
165 186 0
153 174 0
162 185 0
161 184 0
159 182 0
153 173 0
157 178 0
162 183 0
156 177 0
164 187 0
161 182 0
163 185 0
162 183 0
161 182 0
162 183 0
166 188 0
163 184 0
163 185 0
160 180 0
161 182 0
163 186 0
161 183 0
160 181 0
166 188 0
166 187 0
167 188 0
170 192 0
161 184 0
163 186 0
168 190 0
161 182 0
165 186 0
157 178 0
161 182 0
157 178 0
164 186 0
160 183 0
162 184 0
166 187 0
159 180 0
164 186 0
167 189 0
161 183 0
164 185 0
166 187 0
167 189 0
161 184 0
165 187 0
163 185 0
160 180 0
169 191 0
168 191 0
165 188 0
165 187 0
160 181 0
162 185 0
162 184 0
164 185 0
163 186 0
163 185 0
168 191 0
159 181 0
166 188 0
167 186 0
165 186 0
164 184 0
165 187 0
168 190 0
165 188 0
166 189 0
167 188 0
170 192 0
165 187 0
163 184 0
164 186 0
166 187 0
166 187 0
161 184 0
169 190 0
160 182 0
169 193 0
176 199 108
172 195 99
176 199 92
173 196 111
173 196 99
174 196 92
172 195 95
169 193 72
176 199 99
173 196 76
172 196 88
172 195 95
166 189 72
177 200 114
173 197 95
174 197 111
169 192 102
165 187 88
170 194 102
168 191 88
165 189 76
172 195 88
169 193 114
170 192 102
167 190 105
170 193 105
171 194 102
174 197 102
167 191 114
166 190 88
165 189 76
166 190 108
168 191 80
164 187 92
167 191 102
168 191 111
166 189 72
167 191 88
166 189 95
166 188 84
165 188 99
168 191 95
165 188 88
168 190 95
168 191 108
166 188 67
161 184 88
170 194 108
170 193 95
164 186 76
161 184 99
158 181 102
171 194 111
164 188 84
162 185 111
155 178 99
171 194 99
163 187 102
167 189 84
164 187 84
161 183 88
162 184 92
164 186 95
161 183 84
166 188 95
159 181 105
160 182 105
162 184 99
169 192 108
161 183 114
166 188 99
163 185 102
164 186 99
159 182 92
156 178 84
151 172 67
160 182 92
158 180 99
161 184 88
161 183 111
159 179 80
162 184 102
163 184 72
163 185 84
152 174 76
160 181 122
152 173 84
160 181 99
163 184 95
158 180 99
154 175 80
155 176 84
153 175 95
159 180 84
167 188 95
150 171 108
154 174 117
157 177 76
162 182 95
155 175 108
162 181 102
160 181 92
149 169 76
152 172 95
155 174 105
152 172 108
162 182 108
159 180 84
162 183 88
145 164 62
149 169 80
146 166 57
150 170 88
157 177 67
149 169 76
159 179 88
141 161 57
139 161 25
146 167 36
157 178 51
145 166 25
137 158 44
141 163 0
145 166 25
144 166 51
146 166 36
147 169 0
146 166 25
146 167 0
144 165 0
147 169 25
152 174 25
155 176 0
154 176 25
154 177 0
150 172 0
148 170 25
152 174 0
142 163 0
157 179 0
143 164 0
145 167 0
144 164 0
142 163 0
140 161 0
131 153 0
140 163 0
139 160 0
139 159 0
144 165 0
143 164 0
134 154 0
139 159 0
136 156 0
127 148 0
138 159 0
125 145 0
138 159 0
137 157 0
135 154 0
135 155 0
118 139 0
131 151 0
135 155 0
130 151 0
127 148 0
129 149 0
134 154 0
126 146 0
130 149 0
125 145 0
146 165 0
128 148 0
127 148 0
134 153 0
128 147 0
141 162 0
140 160 0
133 153 0
139 160 0
126 145 0
137 158 0
134 154 0
121 142 0
134 154 0
136 156 0
125 145 0
131 151 0
137 156 0
120 140 0
125 146 0
130 151 0
132 152 0
135 155 0
131 151 0
130 151 0
140 160 0
133 154 0
132 152 0
137 157 0
127 148 0
133 153 0
127 148 0
137 157 0
131 151 0
130 151 0
140 161 0
131 152 0
133 154 0
136 157 0
130 150 0
134 156 0
141 161 0
132 154 0
134 155 0
137 157 0
137 158 0
141 161 0
143 163 0
135 156 0
147 169 0
132 153 0
136 156 0
145 164 0
140 161 0
141 162 0
130 151 0
139 160 0
132 152 0
147 168 0
134 154 0
144 164 0
134 155 0
144 166 0
131 151 0
148 167 0
140 161 0
145 167 0
145 166 0
145 165 0
140 161 0
146 168 0
145 165 0
148 171 0
145 167 0
146 168 0
144 166 0
148 170 0
144 165 0
140 160 0
145 166 0
149 170 0
151 172 0
147 167 0
141 162 0
143 164 0
144 167 0
148 167 0
157 178 0
153 174 0
154 176 0
157 178 0
155 174 0
142 164 0
141 161 0
148 168 0
153 174 0
148 168 0
150 171 0
149 171 0
152 174 0
151 174 0
146 168 0
157 178 0
154 177 0
147 169 0
139 159 0
152 173 0
154 174 0
155 175 0
155 174 0
150 170 0
154 175 0
153 175 0
155 177 0
147 168 0
150 171 0
155 178 0
150 172 0
156 177 0
150 171 0
157 177 0
153 174 0
154 175 0
154 176 0
156 176 0
163 185 0
152 173 0
155 174 0
159 181 0
160 180 0
155 175 0
150 171 0
153 174 0
157 180 0
156 178 0
157 177 0
158 180 0
156 176 0
155 176 0
158 181 0
161 181 0
157 178 0
157 177 0
163 185 0
162 183 0
158 179 0
161 182 0
163 183 0
160 181 0
160 182 0
162 183 0
154 175 0
163 185 0
159 180 0
165 188 0
157 180 0
157 179 0
161 182 0
163 184 0
165 187 0
162 184 0
163 185 0
161 183 0
163 183 0
159 181 0
162 184 0
167 190 0
159 179 0
166 187 0
158 180 0
160 182 0
163 186 0
162 184 0
159 181 0
161 183 0
164 185 0
161 182 0
163 185 0
156 177 0
162 184 0
167 188 0
159 181 0
162 184 0
157 180 0
162 185 0
164 187 0
164 186 0
166 188 0
163 185 0
168 191 0
168 191 0
169 190 0
168 189 0
163 186 0
171 191 0
163 186 0
167 188 0
165 189 0
164 185 0
161 183 0
166 188 0
164 186 0
165 186 0
166 189 0
167 189 0
168 190 0
163 184 0
167 189 0
166 188 0
164 186 0
167 190 0
166 188 0
169 190 0
163 185 0
166 189 0
169 193 0
165 186 0
169 191 0
167 190 0
169 192 0
163 185 0
168 190 0
168 190 0
170 192 0
166 189 0
167 190 0
169 191 0
166 189 0
163 184 0
172 195 95
170 194 95
167 190 92
172 195 95
170 193 84
172 196 88
170 193 102
170 193 111
173 196 114
171 193 108
168 191 67
171 194 76
171 194 84
165 189 84
175 198 105
174 198 95
171 195 84
171 193 88
169 192 80
168 191 92
166 189 92
160 183 80
166 190 114
169 192 92
173 197 105
173 195 102
171 195 117
171 195 80
169 192 108
165 188 88
168 191 102
167 191 105
170 194 95
165 188 95
161 185 99
165 188 99
167 189 105
169 192 76
160 182 67
163 186 88
159 182 62
168 191 102
164 188 80
165 187 95
170 193 102
166 190 111
165 188 99
170 193 120
171 194 102
170 193 99
163 186 102
159 182 111
166 189 111
167 190 108
165 188 120
169 192 99
166 189 99
168 189 95
165 188 99
169 192 95
165 188 108
163 185 114
161 184 105
171 193 105
167 189 84
159 182 95
161 183 108
170 192 108
166 187 99
170 191 108
162 184 102
159 182 80
161 183 111
158 180 105
150 172 84
158 180 92
159 180 88
164 186 95
160 182 95
161 183 76
159 180 99
166 188 99
164 185 99
155 176 84
159 180 117
160 182 111
159 180 95
165 186 95
160 181 84
159 180 105
157 177 102
166 186 95
155 178 84
162 183 95
160 181 88
161 181 99
160 180 102
161 181 84
155 175 95
159 179 102
155 177 88
160 181 95
149 169 88
159 179 99
154 173 99
147 167 95
152 173 72
161 180 95
151 171 80
161 181 84
154 174 88
152 173 84
145 165 51
159 180 76
145 167 67
148 168 57
145 165 57
159 180 67
147 167 62
152 174 36
155 177 51
150 171 36
138 159 51
148 169 36
141 163 25
149 170 36
153 174 36
147 168 25
149 170 44
147 169 0
153 175 25
148 170 0
156 178 0
150 173 0
154 174 0
153 174 0
150 172 0
155 176 0
146 167 0
151 173 0
142 163 0
144 166 0
144 165 0
146 168 0
145 167 0
152 174 0
141 162 0
147 168 0
146 167 0
139 161 0
132 154 0
134 155 0
130 151 0
148 168 0
123 142 0
134 155 0
133 153 0
135 154 0
139 160 0
132 152 0
140 160 0
131 152 0
135 155 0
133 153 0
132 152 0
136 157 0
138 158 0
129 149 0
140 161 0
127 148 0
132 153 0
137 157 0
120 140 0
126 147 0
129 150 0
123 144 0
130 151 0
121 141 0
139 158 0
139 160 0
142 162 0
133 153 0
124 144 0
122 143 0
120 141 0
138 159 0
129 149 0
134 154 0
136 156 0
135 154 0
140 161 0
141 161 0
133 154 0
130 150 0
128 149 0
136 156 0
140 161 0
137 156 0
126 148 0
131 151 0
140 161 0
130 150 0
139 160 0
126 147 0
140 161 0
122 143 0
133 154 0
131 151 0
137 157 0
137 158 0
132 151 0
140 160 0
138 159 0
140 161 0
131 151 0
138 160 0
134 155 0
133 155 0
134 154 0
139 158 0
138 158 0
142 164 0
139 161 0
137 157 0
137 158 0
146 168 0
140 160 0
136 155 0
133 154 0
134 155 0
149 171 0
146 167 0
137 158 0
146 166 0
145 166 0
130 151 0
144 167 0
141 163 0
144 165 0
146 168 0
145 164 0
147 169 0
135 155 0
134 154 0
147 170 0
148 169 0
136 157 0
144 166 0
147 168 0
149 170 0
146 166 0
149 171 0
146 167 0
148 170 0
148 169 0
153 175 0
150 171 0
145 168 0
145 166 0
151 173 0
152 174 0
151 173 0
145 167 0
148 169 0
148 170 0
147 168 0
150 172 0
145 166 0
149 171 0
150 171 0
153 174 0
148 169 0
150 171 0
150 171 0
155 176 0
154 174 0
153 174 0
151 172 0
153 175 0
151 174 0
150 171 0
143 164 0
153 175 0
158 180 0
158 179 0
153 174 0
144 165 0
153 173 0
148 168 0
152 173 0
161 183 0
161 182 0
156 177 0
156 178 0
154 175 0
158 180 0
160 182 0
159 182 0
160 181 0
155 176 0
156 177 0
162 184 0
154 177 0
154 177 0
162 185 0
161 182 0
151 172 0
162 184 0
154 175 0
161 183 0
154 175 0
162 184 0
154 175 0
160 180 0
160 182 0
155 177 0
155 177 0
155 177 0
156 179 0
160 182 0
166 188 0
156 179 0
158 178 0
160 181 0
163 184 0
162 184 0
162 185 0
164 185 0
157 178 0
163 183 0
159 181 0
164 186 0
156 178 0
152 174 0
162 183 0
165 185 0
163 185 0
160 182 0
156 177 0
161 182 0
162 185 0
162 184 0
163 184 0
158 178 0
164 184 0
161 181 0
156 176 0
164 186 0
163 186 0
165 187 0
163 185 0
164 186 0
169 190 0
164 185 0
163 185 0
160 180 0
165 187 0
164 185 0
167 189 0
167 190 0
166 188 0
162 182 0
164 185 0
168 190 0
165 187 0
166 188 0
166 188 0
163 187 0
168 188 0
164 186 0
167 189 0
159 180 0
161 183 0
165 187 0
161 184 0
166 187 0
169 192 0
165 186 0
165 187 0
161 183 0
163 186 0
166 189 0
165 187 0
166 188 0
165 187 0
165 187 0
167 189 0
166 188 0
167 189 0
167 188 0
170 192 0
166 190 0
164 186 0
166 188 0
166 188 0
167 190 0
162 186 0
166 187 0
170 192 0
169 191 0
173 196 76
179 202 117
177 200 108
179 201 102
172 195 88
173 196 95
173 195 102
173 196 92
177 200 95
170 193 105
173 196 95
177 199 122
165 188 76
170 193 102
174 196 99
168 191 105
173 196 105
169 192 88
175 197 88
172 196 102
173 196 99
167 191 92
172 195 80
168 192 92
167 191 88
171 194 92
171 194 111
170 193 80
169 193 107
168 191 76
167 190 95
173 196 117
166 189 92
168 192 99
166 189 88
166 190 95
167 191 105
168 190 105
168 190 108
167 190 80
168 191 92
159 182 88
173 196 95
164 186 95
174 198 117
165 188 80
163 184 111
164 186 76
169 193 102
167 189 92
172 194 111
168 191 95
164 187 108
170 192 105
163 185 95
167 189 84
159 181 88
159 182 92
159 181 114
166 188 114
163 185 88
166 189 92
167 189 95
163 185 80
162 185 102
160 181 72
162 184 99
166 189 102
166 188 92
160 182 120
161 183 102
156 178 84
162 184 92
163 185 88
164 185 108
164 186 108
157 178 95
162 183 102
149 171 99
162 183 105
155 177 92
158 179 99
166 188 95
168 189 111
153 174 92
161 182 99
159 180 105
155 176 102
153 175 76
163 183 108
162 183 88
150 171 88
160 181 92
158 179 105
158 179 99
158 179 80
159 180 84
159 180 67
163 184 108
165 186 95
162 183 102
156 177 80
165 186 105
155 176 88
158 178 84
165 184 111
147 168 67
154 174 80
153 173 84
148 168 72
151 170 72
153 174 76
153 173 72
145 165 62
156 176 76
145 166 62
153 173 76
149 170 51
140 161 57
152 173 57
141 162 36
145 166 44
151 172 36
156 177 36
160 181 51
149 171 36
152 174 0
146 168 0
149 170 36
148 168 25
153 176 0
152 174 25
148 171 0
146 167 0
147 169 0
150 171 0
148 171 0
157 180 0
153 172 0
150 172 0
150 173 0
151 174 0
147 170 0
149 170 25
144 167 0
139 162 0
138 158 0
137 158 0
135 156 0
132 154 0
138 159 0
142 163 0
139 161 0
139 160 0
135 155 0
133 154 0
141 162 0
142 163 0
140 161 0
135 156 0
136 156 0
127 148 0
134 154 0
147 168 0
131 151 0
132 151 0
127 148 0
142 163 0
135 155 0
133 153 0
140 161 0
133 154 0
134 155 0
131 151 0
137 157 0
129 148 0
128 149 0
135 156 0
132 151 0
143 164 0
137 159 0
134 153 0
140 160 0
134 154 0
137 156 0
129 149 0
128 148 0
142 162 0
131 152 0
134 154 0
139 160 0
127 147 0
128 147 0
134 152 0
130 150 0
134 154 0
140 160 0
131 151 0
141 161 0
137 158 0
133 153 0
136 156 0
131 151 0
142 162 0
137 157 0
132 154 0
136 157 0
133 154 0
133 153 0
144 164 0
130 150 0
148 169 0
129 149 0
132 151 0
137 157 0
138 157 0
143 164 0
137 158 0
134 154 0
147 168 0
142 163 0
144 166 0
137 159 0
145 165 0
141 162 0
137 159 0
139 160 0
146 167 0
140 162 0
145 166 0
145 166 0
149 170 0
142 163 0
140 159 0
142 163 0
141 162 0
143 164 0
144 165 0
143 164 0
145 165 0
140 162 0
148 170 0
143 165 0
141 161 0
148 170 0
153 174 0
141 163 0
148 169 0
152 173 0
143 163 0
148 168 0
143 163 0
145 166 0
152 174 0
146 168 0
150 171 0
153 174 0
150 171 0
150 172 0
150 172 0
150 172 0
153 175 0
146 168 0
150 171 0
152 173 0
152 175 0
152 174 0
154 175 0
156 178 0
150 172 0
158 180 0
152 173 0
152 173 0
151 172 0
150 171 0
159 179 0
150 172 0
147 169 0
151 172 0
150 172 0
154 176 0
155 177 0
149 170 0
156 179 0
157 178 0
151 171 0
158 180 0
157 179 0
152 173 0
154 174 0
153 175 0
156 178 0
154 176 0
159 180 0
157 178 0
155 177 0
156 177 0
155 176 0
157 178 0
160 183 0
158 178 0
153 174 0
153 175 0
162 184 0
153 174 0
163 185 0
160 182 0
155 176 0
161 183 0
156 177 0
159 182 0
161 184 0
160 180 0
166 186 0
160 181 0
163 185 0
156 176 0
160 181 0
158 179 0
157 178 0
159 181 0
161 184 0
157 178 0
163 183 0
151 172 0
161 183 0
162 184 0
164 187 0
158 181 0
161 184 0
164 186 0
158 177 0
158 181 0
154 176 0
163 184 0
162 184 0
159 181 0
162 185 0
168 190 0
162 184 0
162 183 0
158 180 0
166 188 0
159 180 0
169 192 0
166 187 0
157 179 0
164 186 0
164 186 0
166 187 0
165 187 0
165 188 0
162 185 0
158 180 0
162 183 0
164 186 0
162 184 0
161 184 0
162 183 0
162 184 0
166 188 0
164 186 0
161 183 0
168 189 0
160 182 0
170 192 0
164 185 0
165 188 0
169 192 0
167 189 0
166 187 0
166 188 0
158 181 0
161 183 0
164 186 0
161 183 0
162 184 0
167 190 0
164 185 0
165 186 0
163 185 0
166 188 0
166 189 0
168 190 0
168 191 0
167 190 0
168 191 0
169 190 0
167 190 0
166 187 0
164 185 0
163 185 0
169 192 0
166 188 0
170 193 0
166 188 0
167 188 0
166 188 0
168 191 0
166 190 0
175 198 103
177 199 105
177 199 108
174 197 88
177 200 120
176 199 88
174 196 92
177 200 108
171 193 105
171 194 72
172 196 95
171 194 62
170 193 92
172 195 76
175 197 84
167 189 92
171 194 80
164 187 84
170 194 114
170 193 105
174 197 92
172 195 108
172 195 80
170 192 102
170 194 95
173 197 117
168 191 102
173 195 117
166 189 99
173 196 111
166 190 102
166 187 62
171 193 95
172 195 103
171 195 99
168 191 92
170 194 111
168 191 105
164 187 84
168 192 108
165 189 88
164 187 99
163 187 88
164 187 72
162 184 80
169 192 105
162 185 105
165 187 80
168 191 92
163 186 72
167 189 99
162 184 99
166 188 108
171 194 111
165 187 92
166 189 99
160 182 95
160 182 72
151 174 80
161 184 102
163 185 105
165 187 111
164 187 92
168 191 105
162 183 84
157 180 108
169 191 111
163 186 88
155 177 72
164 186 102
154 176 80
168 190 67
163 184 92
163 184 105
155 176 88
162 183 117
165 187 95
160 181 88
155 177 102
165 185 95
165 186 92
164 186 67
162 183 95
162 183 95
157 179 88
162 183 105
167 187 102
154 175 99
163 184 92
160 181 111
167 189 99
170 190 120
162 182 92
161 182 99
156 176 80
156 178 72
150 171 88
158 178 99
158 179 99
154 174 84
148 168 67
157 179 67
160 181 76
164 184 102
162 183 95
154 175 76
146 167 76
161 181 84
164 185 76
153 173 80
163 184 84
153 173 76
148 169 72
161 182 84
149 169 62
149 171 80
150 171 44
148 169 51
141 162 44
147 168 44
152 173 36
158 179 51
143 165 44
147 167 36
147 168 25
148 170 36
147 168 36
149 172 0
154 175 25
153 173 25
152 173 25
152 174 0
147 169 0
148 170 25
159 181 0
149 171 0
150 171 0
156 178 0
153 175 0
147 169 0
152 174 0
150 171 0
139 161 0
144 166 0
145 165 0
142 163 0
147 168 0
142 163 0
148 169 0
138 160 0
132 154 0
140 160 0
136 155 0
136 157 0
138 158 0
139 160 0
136 156 0
130 150 0
128 149 0
128 149 0
142 161 0
130 150 0
138 159 0
138 158 0
132 152 0
135 156 0
145 166 0
138 158 0
138 158 0
134 156 0
126 146 0
130 150 0
135 155 0
130 151 0
134 155 0
140 159 0
136 157 0
133 154 0
137 158 0
129 150 0
146 167 0
135 155 0
128 147 0
144 164 0
130 150 0
128 148 0
132 153 0
133 153 0
130 151 0
143 163 0
133 153 0
130 151 0
132 153 0
127 147 0
145 166 0
135 155 0
129 148 0
138 158 0
139 159 0
130 151 0
133 153 0
130 150 0
139 159 0
136 157 0
124 145 0
141 162 0
139 160 0
133 154 0
137 159 0
145 165 0
140 162 0
137 157 0
134 155 0
127 148 0
144 165 0
139 161 0
136 156 0
142 163 0
140 161 0
138 159 0
137 159 0
136 158 0
144 165 0
142 162 0
140 161 0
145 166 0
137 158 0
141 162 0
144 166 0
138 159 0
137 158 0
147 167 0
147 168 0
145 166 0
141 163 0
149 171 0
149 170 0
151 172 0
141 162 0
151 172 0
143 164 0
134 156 0
145 165 0
137 158 0
143 164 0
144 165 0
147 169 0
151 174 0
147 169 0
135 156 0
145 165 0
148 171 0
148 170 0
146 168 0
144 165 0
143 164 0
151 172 0
144 166 0
148 170 0
149 173 0
151 172 0
153 175 0
146 166 0
146 169 0
151 172 0
144 164 0
150 172 0
153 176 0
150 172 0
150 172 0
148 171 0
142 164 0
150 171 0
149 170 0
156 177 0
150 170 0
151 172 0
157 179 0
157 179 0
158 178 0
148 168 0
155 175 0
158 181 0
152 172 0
152 172 0
146 167 0
157 178 0
155 178 0
157 179 0
155 177 0
157 178 0
155 176 0
156 179 0
152 175 0
152 172 0
156 178 0
151 172 0
155 176 0
159 181 0
151 173 0
158 180 0
159 180 0
161 184 0
158 180 0
158 179 0
158 179 0
160 182 0
162 184 0
155 178 0
155 177 0
152 174 0
161 184 0
157 179 0
157 180 0
157 180 0
154 177 0
156 177 0
157 177 0
158 180 0
157 179 0
161 184 0
162 186 0
163 184 0
159 180 0
163 184 0
157 178 0
159 181 0
158 179 0
156 178 0
157 179 0
154 174 0
161 183 0
161 183 0
165 187 0
164 186 0
166 187 0
166 190 0
167 187 0
162 183 0
159 181 0
164 185 0
159 181 0
161 184 0
160 183 0
161 182 0
161 181 0
158 180 0
159 181 0
166 188 0
159 180 0
169 191 0
165 186 0
164 187 0
167 189 0
168 192 0
169 189 0
160 182 0
158 179 0
166 188 0
166 188 0
161 183 0
157 179 0
160 182 0
167 189 0
163 185 0
166 188 0
164 186 0
162 185 0
168 191 0
167 188 0
159 180 0
159 180 0
167 189 0
164 185 0
166 189 0
163 184 0
166 187 0
165 187 0
167 191 0
166 188 0
165 187 0
165 187 0
162 184 0
168 190 0
170 192 0
166 188 0
165 187 0
167 189 0
167 190 0
165 186 0
164 188 0
167 190 0
168 190 0
167 189 0
165 187 0
167 188 0
168 189 0
164 186 0
168 190 0
166 188 0
176 199 114
175 197 99
173 195 88
172 194 105
176 199 92
172 195 80
170 192 102
172 195 88
170 194 92
173 195 102
172 195 95
173 196 102
176 199 125
172 195 95
173 196 105
174 197 99
172 195 111
166 189 84
175 198 108
170 193 95
172 195 99
170 193 120
167 190 102
173 197 111
170 193 99
168 191 80
170 193 111
170 193 88
170 193 88
164 187 99
166 189 102
164 186 84
168 192 108
166 190 102
170 194 108
168 191 99
167 190 84
167 190 88
167 189 62
174 197 102
164 187 80
167 191 95
164 187 88
164 187 80
169 191 92
166 189 95
159 181 105
167 190 105
163 186 95
167 190 80
167 189 102
171 193 108
169 192 111
170 192 99
168 191 92
163 185 114
160 182 92
166 189 99
169 191 95
162 185 102
169 191 102
165 188 105
162 183 88
156 178 102
167 189 111
170 193 114
158 180 72
169 191 108
166 188 92
161 183 108
163 186 102
164 186 80
162 183 95
160 181 88
162 184 114
161 182 111
160 182 84
161 182 108
164 186 105
168 189 84
166 188 99
171 194 120
163 184 108
163 184 88
157 178 105
165 186 88
161 182 108
161 183 105
159 180 105
161 182 99
157 178 102
158 178 120
151 172 88
157 178 92
157 177 88
159 180 95
155 176 92
159 179 99
164 185 92
162 183 84
146 168 72
154 175 80
155 175 76
160 180 99
161 180 99
157 178 88
161 180 88
160 180 80
151 172 67
160 181 76
154 174 67
151 172 67
154 175 51
148 168 72
156 176 57
149 170 36
151 171 51
148 169 62
143 165 25
156 177 36
148 169 62
142 163 25
149 170 36
149 170 51
157 179 36
144 166 0
149 169 36
155 176 51
144 166 25
145 167 25
156 178 0
152 174 0
150 172 0
141 164 0
154 176 0
157 179 0
153 174 0
147 169 0
152 174 0
145 167 0
140 161 0
139 160 0
151 173 0
144 165 0
142 164 0
146 167 0
148 170 0
146 167 0
146 167 0
140 160 0
140 161 0
140 161 0
146 167 0
141 162 0
136 156 0
143 164 0
131 151 0
134 154 0
129 150 0
137 158 0
140 162 0
138 159 0
143 162 0
144 165 0
136 156 0
125 146 0
133 154 0
140 162 0
138 158 0
143 162 0
133 153 0
127 147 0
143 165 0
130 150 0
139 160 0
134 154 0
124 145 0
139 160 0
124 145 0
125 146 0
124 144 0
141 162 0
137 157 0
135 156 0
124 144 0
136 157 0
129 150 0
135 157 0
140 161 0
136 157 0
148 168 0
138 159 0
137 158 0
130 151 0
129 149 0
143 164 0
128 149 0
133 154 0
135 155 0
134 156 0
139 158 0
133 152 0
145 165 0
153 174 0
137 158 0
134 154 0
132 152 0
135 155 0
138 158 0
140 162 0
134 156 0
135 157 0
144 166 0
139 159 0
139 158 0
139 160 0
143 165 0
142 163 0
143 164 0
148 170 0
148 168 0
142 164 0
141 164 0
138 158 0
144 165 0
137 158 0
139 159 0
149 171 0
148 168 0
148 169 0
141 162 0
140 161 0
140 161 0
139 159 0
147 166 0
148 168 0
145 165 0
146 167 0
146 167 0
138 160 0
151 173 0
149 171 0
145 166 0
127 147 0
153 175 0
146 168 0
152 174 0
156 177 0
146 168 0
142 164 0
136 159 0
142 163 0
147 168 0
142 163 0
149 171 0
146 166 0
147 167 0
150 171 0
149 172 0
153 175 0
146 168 0
151 172 0
144 165 0
152 174 0
149 171 0
148 169 0
146 169 0
147 169 0
153 174 0
147 169 0
151 173 0
151 172 0
148 170 0
149 171 0
155 177 0
148 169 0
158 180 0
152 173 0
156 178 0
156 177 0
156 178 0
155 178 0
151 174 0
153 176 0
156 176 0
155 177 0
153 175 0
151 173 0
162 186 0
154 176 0
149 171 0
156 178 0
156 178 0
156 179 0
151 173 0
157 179 0
155 176 0
161 183 0
155 176 0
155 176 0
156 178 0
160 183 0
157 178 0
154 176 0
151 173 0
161 183 0
159 180 0
157 179 0
156 178 0
154 176 0
160 180 0
163 184 0
159 182 0
160 181 0
161 184 0
163 186 0
158 178 0
157 178 0
162 185 0
161 183 0
161 184 0
165 188 0
161 183 0
160 182 0
159 180 0
165 187 0
159 180 0
162 183 0
165 186 0
160 183 0
160 182 0
163 186 0
159 181 0
163 186 0
160 182 0
166 187 0
166 188 0
159 181 0
163 184 0
162 185 0
164 185 0
162 182 0
157 179 0
161 183 0
163 184 0
166 188 0
160 183 0
157 178 0
164 184 0
165 187 0
163 185 0
162 184 0
170 192 0
159 179 0
164 186 0
166 188 0
166 189 0
169 192 0
165 187 0
166 188 0
160 182 0
163 186 0
163 183 0
164 186 0
155 176 0
166 188 0
163 185 0
165 187 0
168 189 0
163 185 0
168 191 0
163 185 0
170 191 0
168 190 0
169 191 0
161 183 0
165 188 0
169 192 0
161 183 0
165 187 0
168 189 0
166 189 0
168 190 0
168 189 0
168 189 0
166 188 0
168 190 0
167 189 0
165 186 0
165 188 0
170 193 0
169 191 0
169 192 0
167 187 0
171 193 0
169 190 0
167 188 0
169 193 0
164 186 0
165 186 0
175 197 102
176 199 102
177 199 95
170 193 88
171 193 80
173 196 95
173 196 114
171 194 102
169 192 67
171 194 99
170 193 80
174 198 99
164 187 72
173 197 114
168 191 84
170 193 92
168 191 76
171 194 111
173 196 114
172 195 99
168 191 99
166 190 99
168 192 111
163 187 72
166 190 88
170 194 117
166 189 102
170 192 84
165 189 67
170 193 117
167 191 95
166 189 117
171 194 117
169 192 102
166 189 72
166 189 88
165 187 76
174 196 117
165 188 95
167 190 102
168 191 88
167 189 72
168 191 99
164 187 111
163 187 72
164 186 99
164 188 99
163 186 105
164 186 72
164 186 95
166 189 95
163 185 88
168 191 105
163 185 80
163 186 88
161 183 92
163 186 92
166 187 88
163 185 92
159 181 80
165 187 105
163 185 102
159 181 76
167 189 102
161 184 105
162 185 76
166 187 88
157 178 102
163 185 76
163 184 72
167 189 111
162 183 99
166 188 102
155 176 67
166 188 102
163 185 105
162 184 99
152 174 88
164 185 95
157 178 84
158 180 105
153 174 80
159 180 84
151 172 72
150 172 67
156 177 108
160 180 92
157 178 80
164 185 99
160 182 88
160 180 95
165 186 95
154 176 76
163 183 102
158 179 95
152 174 72
156 177 76
168 189 105
153 175 84
160 180 108
164 184 95
158 178 84
160 181 92
158 179 92
147 168 76
151 172 84
151 173 92
158 179 84
155 175 76
148 170 44
156 176 84
157 178 67
157 178 67
157 178 72
155 176 62
148 169 67
150 171 51
145 166 36
153 175 51
154 176 51
154 177 57
155 176 51
152 173 25
149 170 25
155 177 0
157 178 36
153 175 25
144 166 25
152 174 25
153 175 0
146 168 0
145 167 25
153 176 0
149 170 25
152 174 0
147 168 0
157 178 0
155 178 0
151 172 0
143 164 0
152 174 0
153 175 0
149 171 0
145 167 0
135 156 0
145 166 0
147 168 0
137 159 0
146 168 0
148 169 0
142 164 0
137 158 0
140 160 0
146 167 0
151 172 0
137 158 0
132 152 0
137 157 0
143 164 0
129 149 0
125 147 0
135 155 0
137 158 0
139 161 0
138 159 0
145 166 0
142 162 0
136 157 0
131 150 0
137 158 0
135 156 0
135 155 0
133 154 0
145 166 0
140 161 0
134 155 0
130 150 0
144 165 0
129 150 0
135 155 0
137 158 0
135 156 0
133 154 0
137 158 0
130 149 0
133 155 0
130 151 0
130 151 0
142 164 0
143 164 0
137 156 0
141 163 0
139 160 0
135 156 0
130 151 0
131 150 0
134 154 0
132 153 0
131 151 0
143 163 0
139 159 0
139 160 0
143 165 0
141 162 0
139 159 0
134 154 0
128 151 0
138 159 0
139 159 0
148 170 0
139 160 0
137 158 0
138 159 0
143 163 0
132 154 0
145 166 0
146 167 0
144 165 0
143 163 0
142 163 0
135 156 0
144 164 0
137 158 0
142 162 0
145 166 0
142 163 0
139 159 0
144 165 0
148 169 0
142 163 0
151 172 0
142 164 0
144 165 0
152 175 0
140 163 0
145 167 0
147 167 0
137 157 0
145 167 0
141 161 0
141 162 0
148 170 0
144 165 0
151 173 0
148 170 0
150 171 0
142 163 0
143 164 0
148 169 0
149 171 0
151 172 0
148 169 0
150 171 0
145 167 0
149 170 0
153 175 0
150 173 0
147 169 0
154 176 0
151 173 0
158 181 0
149 170 0
149 170 0
151 172 0
158 180 0
147 168 0
155 177 0
148 171 0
157 180 0
149 172 0
148 171 0
149 170 0
153 175 0
158 181 0
158 180 0
150 172 0
157 178 0
158 179 0
149 170 0
155 177 0
153 174 0
158 180 0
156 177 0
149 170 0
154 177 0
159 181 0
153 176 0
154 176 0
155 178 0
151 172 0
152 173 0
157 180 0
153 174 0
151 173 0
154 175 0
160 182 0
153 172 0
153 174 0
153 176 0
161 185 0
153 174 0
157 179 0
159 181 0
159 181 0
157 178 0
157 178 0
160 183 0
153 175 0
154 174 0
158 179 0
156 179 0
162 185 0
159 180 0
163 185 0
157 180 0
161 184 0
156 177 0
164 187 0
156 179 0
159 181 0
153 175 0
152 174 0
155 176 0
163 185 0
161 183 0
162 185 0
164 185 0
159 181 0
162 186 0
162 184 0
161 183 0
166 187 0
163 183 0
163 186 0
160 180 0
164 185 0
157 178 0
163 185 0
157 180 0
159 180 0
155 175 0
168 188 0
162 184 0
161 183 0
163 185 0
166 186 0
165 185 0
164 186 0
165 189 0
165 188 0
162 184 0
169 190 0
164 185 0
167 190 0
163 186 0
167 189 0
163 184 0
166 186 0
168 191 0
160 181 0
166 187 0
163 185 0
166 189 0
166 188 0
168 191 0
165 188 0
167 190 0
161 183 0
163 187 0
164 186 0
164 186 0
165 188 0
166 187 0
163 186 0
163 184 0
162 185 0
169 189 0
162 185 0
163 187 0
161 183 0
165 186 0
168 190 0
163 186 0
171 193 0
166 187 0
162 184 0
169 191 0
162 187 0
166 187 0
169 191 0
166 188 0
165 186 0
168 191 0
169 191 0
166 189 0
167 189 0
167 190 0
168 191 0
168 191 0
167 190 0
175 197 80
170 193 84
172 195 84
170 192 105
174 196 99
177 200 125
170 193 108
170 192 88
167 190 84
172 194 84
167 189 80
174 197 99
168 191 92
171 194 84
169 192 76
170 194 99
171 195 99
168 191 95
165 188 76
171 194 99
170 193 95
171 194 92
167 190 84
170 192 102
174 197 102
169 192 92
166 190 99
168 191 95
173 196 108
167 190 99
166 189 72
161 185 99
168 192 105
164 187 76
170 192 92
167 190 111
167 189 99
168 191 80
165 188 84
165 188 88
170 193 111
166 188 102
166 188 95
171 194 117
165 188 108
169 191 84
169 191 111
165 188 92
164 186 95
172 195 105
161 183 102
168 191 84
167 190 84
159 181 67
168 191 108
167 189 108
163 186 102
169 192 102
164 186 114
158 180 72
166 188 117
167 189 117
159 181 84
167 189 114
165 188 84
168 190 122
168 190 92
158 179 95
168 190 92
165 188 120
154 176 102
166 189 99
163 184 88
164 185 105
158 180 95
159 181 80
164 186 111
170 191 120
164 185 105
168 190 111
165 187 95
167 188 117
161 182 111
163 184 99
162 183 114
155 175 67
159 180 99
155 177 72
163 184 88
162 183 111
159 179 102
170 191 105
160 181 102
160 182 88
155 175 95
169 190 117
158 178 105
156 176 102
157 178 76
157 178 84
163 183 108
160 181 67
161 181 95
152 173 67
160 180 88
161 181 99
161 181 88
159 179 62
157 177 88
153 174 76
151 171 62
159 180 72
154 174 76
153 174 72
149 170 36
155 176 67
158 178 67
153 175 51
159 180 51
149 170 36
151 172 44
146 168 36
156 176 25
155 177 25
142 164 0
150 172 0
147 169 25
149 171 0
157 180 0
146 168 0
152 174 0
153 175 25
156 179 25
149 171 0
150 172 0
142 163 0
149 170 0
151 172 0
150 172 0
147 170 0
148 169 0
147 169 0
148 170 0
150 172 0
145 167 0
143 165 0
138 160 0
145 167 0
146 167 0
136 158 0
147 168 0
136 157 0
132 153 0
134 155 0
142 163 0
141 162 0
149 169 0
141 163 0
135 156 0
148 169 0
135 156 0
134 153 0
140 161 0
134 153 0
138 159 0
139 160 0
133 154 0
129 149 0
129 149 0
128 149 0
134 154 0
130 152 0
140 161 0
140 161 0
139 160 0
135 156 0
135 156 0
146 167 0
141 162 0
136 157 0
141 161 0
136 156 0
133 154 0
135 156 0
137 158 0
138 159 0
140 160 0
141 162 0
131 152 0
142 162 0
141 162 0
139 159 0
143 162 0
136 157 0
133 154 0
140 161 0
132 153 0
140 161 0
136 157 0
141 163 0
146 167 0
135 156 0
135 155 0
132 151 0
140 162 0
145 167 0
141 162 0
136 157 0
128 150 0
145 166 0
131 154 0
143 163 0
149 170 0
139 160 0
132 152 0
136 155 0
147 168 0
139 160 0
149 171 0
139 160 0
151 172 0
141 162 0
133 154 0
155 175 0
136 157 0
143 164 0
144 165 0
144 165 0
140 162 0
138 159 0
140 161 0
140 162 0
139 161 0
147 169 0
141 163 0
142 163 0
145 166 0
152 172 0
140 162 0
138 160 0
144 166 0
150 171 0
146 167 0
148 169 0
149 169 0
149 171 0
147 168 0
148 169 0
141 162 0
147 167 0
149 171 0
149 170 0
141 161 0
157 179 0
154 176 0
151 170 0
149 170 0
152 174 0
148 169 0
155 176 0
149 169 0
154 175 0
150 172 0
143 164 0
148 169 0
145 167 0
151 174 0
157 178 0
150 171 0
151 173 0
150 171 0
155 177 0
153 174 0
151 174 0
158 180 0
154 176 0
145 167 0
162 184 0
149 171 0
158 180 0
156 178 0
161 183 0
149 171 0
147 168 0
158 181 0
151 173 0
156 177 0
162 183 0
157 180 0
153 174 0
155 178 0
150 171 0
157 179 0
155 176 0
160 182 0
153 175 0
163 183 0
152 173 0
158 181 0
159 180 0
158 180 0
165 187 0
160 182 0
157 179 0
161 183 0
160 182 0
158 181 0
157 178 0
156 178 0
158 180 0
166 188 0
160 181 0
164 185 0
160 182 0
162 184 0
155 175 0
161 182 0
162 183 0
157 180 0
166 188 0
164 185 0
162 183 0
155 176 0
160 182 0
161 182 0
159 181 0
158 180 0
161 182 0
159 182 0
157 178 0
161 183 0
161 183 0
154 175 0
165 187 0
153 174 0
160 182 0
165 188 0
162 184 0
161 183 0
166 188 0
162 184 0
163 186 0
160 182 0
165 187 0
161 181 0
167 190 0
165 188 0
164 187 0
158 179 0
162 185 0
164 186 0
160 181 0
163 185 0
165 188 0
164 186 0
166 189 0
159 182 0
166 188 0
166 188 0
161 184 0
169 191 0
167 188 0
165 186 0
161 183 0
172 194 0
164 187 0
163 185 0
163 184 0
166 189 0
162 184 0
164 186 0
169 192 0
162 185 0
167 188 0
165 186 0
164 186 0
169 191 0
162 183 0
164 186 0
164 186 0
165 188 0
167 189 0
168 191 0
167 191 0
171 194 0
165 187 0
169 190 0
167 190 0
163 186 0
168 190 0
166 188 0
167 190 0
165 187 0
165 187 0
167 188 0
165 187 0
168 191 0
166 189 0
167 188 0
164 188 0
171 194 90
178 199 114
177 199 108
173 195 105
175 198 88
175 197 111
175 198 105
173 196 99
171 194 88
165 189 80
167 190 84
172 195 92
169 193 92
171 194 99
168 190 99
169 192 111
169 193 99
174 197 99
170 192 105
174 197 108
167 190 76
174 197 122
173 195 102
172 195 88
169 192 92
170 192 84
170 194 99
169 192 99
175 197 111
165 188 99
171 193 102
167 190 92
166 190 102
173 196 108
172 194 88
173 196 111
172 196 117
168 191 95
173 194 105
170 192 95
164 186 92
160 183 95
161 184 99
163 185 72
166 190 102
165 188 76
169 192 72
172 194 114
169 191 122
167 190 102
162 184 92
166 188 117
167 189 111
171 193 111
164 186 95
166 189 105
168 190 88
167 189 105
167 189 84
161 183 84
164 186 88
170 192 108
159 181 102
156 178 76
161 184 92
166 188 117
167 189 105
158 180 88
166 189 114
157 178 76
161 183 99
158 179 84
161 183 76
158 180 92
162 183 108
158 179 80
161 183 102
158 180 92
160 182 84
164 185 99
157 178 80
164 185 105
164 186 95
163 185 99
154 175 84
156 177 99
160 181 99
155 176 51
164 184 117
160 180 84
159 180 99
159 180 80
164 185 84
163 183 95
166 186 114
159 180 99
147 167 72
163 184 84
155 176 95
162 183 102
161 182 88
158 179 92
160 180 72
159 179 108
151 171 88
169 190 92
158 179 88
158 179 76
157 178 62
151 173 72
155 176 76
151 172 62
164 184 76
151 172 57
141 162 0
146 167 51
146 166 36
149 170 36
148 170 36
152 173 0
149 171 36
147 168 25
155 177 25
153 175 36
148 169 51
159 180 36
146 168 36
146 168 0
153 175 36
147 168 25
157 178 44
158 180 0
157 180 25
154 176 0
155 177 0
157 178 36
151 173 0
155 179 0
152 173 0
151 173 0
154 176 0
155 178 0
143 165 0
147 168 0
153 176 0
151 172 0
151 173 0
148 170 0
147 168 0
138 160 0
136 157 0
135 158 0
145 165 0
150 171 0
142 162 0
136 157 0
138 160 0
140 160 0
145 166 0
133 155 0
144 167 0
132 153 0
135 155 0
131 151 0
136 156 0
142 163 0
140 160 0
130 151 0
129 150 0
141 162 0
146 167 0
142 162 0
123 144 0
136 157 0
131 152 0
140 161 0
142 163 0
136 156 0
126 147 0
134 156 0
128 149 0
130 151 0
140 162 0
133 153 0
143 165 0
138 159 0
144 164 0
134 154 0
143 165 0
135 156 0
139 160 0
145 166 0
133 153 0
138 158 0
134 154 0
134 155 0
137 158 0
149 170 0
138 158 0
147 169 0
144 166 0
139 161 0
135 155 0
148 170 0
135 156 0
138 159 0
142 165 0
128 147 0
147 168 0
149 170 0
151 173 0
144 165 0
139 162 0
136 157 0
140 161 0
140 162 0
144 164 0
142 164 0
141 163 0
140 161 0
143 164 0
147 169 0
138 160 0
132 153 0
149 170 0
140 161 0
151 172 0
137 159 0
133 153 0
144 164 0
143 165 0
146 169 0
150 172 0
139 159 0
145 166 0
151 172 0
142 162 0
146 167 0
145 167 0
143 165 0
135 157 0
143 164 0
151 173 0
151 173 0
152 174 0
142 162 0
153 175 0
147 168 0
150 172 0
150 172 0
144 167 0
157 180 0
149 170 0
148 170 0
153 174 0
149 169 0
147 167 0
153 176 0
145 167 0
150 172 0
157 180 0
150 171 0
157 179 0
150 173 0
155 177 0
147 168 0
148 171 0
156 178 0
160 183 0
150 173 0
156 179 0
160 182 0
155 176 0
154 176 0
155 177 0
154 175 0
158 179 0
153 174 0
155 177 0
155 176 0
150 171 0
156 178 0
151 171 0
154 177 0
154 174 0
156 178 0
149 170 0
152 173 0
155 178 0
155 177 0
163 185 0
155 178 0
158 181 0
154 176 0
163 185 0
157 178 0
158 181 0
158 180 0
156 178 0
156 178 0
156 178 0
154 176 0
159 181 0
161 183 0
162 183 0
156 178 0
152 174 0
157 179 0
161 183 0
163 184 0
163 185 0
153 175 0
157 179 0
159 182 0
158 180 0
162 183 0
159 180 0
158 179 0
165 186 0
159 181 0
161 183 0
159 181 0
164 187 0
165 187 0
160 182 0
158 179 0
166 189 0
159 181 0
156 177 0
163 186 0
153 176 0
164 187 0
161 184 0
155 177 0
157 177 0
164 186 0
162 183 0
163 184 0
164 186 0
160 181 0
158 180 0
164 187 0
165 186 0
160 181 0
162 184 0
167 189 0
165 188 0
166 188 0
160 182 0
160 180 0
162 184 0
165 185 0
158 179 0
167 190 0
162 184 0
165 187 0
159 181 0
160 183 0
164 186 0
165 186 0
165 188 0
162 183 0
163 184 0
163 185 0
163 185 0
162 184 0
166 188 0
166 188 0
165 188 0
168 189 0
165 186 0
166 189 0
165 187 0
164 186 0
166 188 0
168 190 0
166 188 0
166 189 0
164 186 0
167 189 0
166 188 0
169 191 0
165 187 0
167 190 0
165 187 0
164 186 0
165 188 0
169 192 0
168 190 0
161 183 0
167 190 0
166 189 0
167 189 0
168 191 0
171 193 0
165 188 0
165 188 0
164 186 0
166 188 0
163 185 0
173 196 100
172 195 82
175 198 108
176 199 95
174 196 105
172 195 108
174 197 105
172 195 76
172 195 95
175 198 114
168 191 92
174 197 120
171 195 84
172 195 117
177 200 92
172 195 99
163 187 84
165 188 80
168 190 95
172 195 84
169 192 99
169 193 105
171 193 102
173 196 111
171 194 92
173 196 108
162 185 90
169 192 72
174 196 99
173 196 88
170 193 114
172 195 88
168 191 114
170 192 92
167 191 99
164 187 88
164 187 92
164 187 95
162 185 88
167 190 92
167 190 99
168 190 102
166 188 108
166 189 99
166 188 88
157 180 76
167 190 92
168 191 99
166 189 108
165 187 72
168 190 117
165 188 95
170 193 84
164 186 95
161 183 99
163 185 95
165 188 117
164 187 92
168 192 108
167 189 108
167 190 108
165 187 84
158 181 84
165 186 99
167 189 99
160 182 88
160 182 88
162 184 92
163 185 84
166 188 114
168 189 84
159 181 88
166 188 117
164 186 80
157 179 88
162 184 99
164 186 95
164 185 88
153 175 80
160 181 108
161 183 84
158 179 80
162 183 111
159 180 84
163 184 92
156 176 88
161 182 105
163 184 88
163 185 105
156 176 105
154 174 95
166 186 95
162 182 76
162 183 92
155 175 84
164 185 62
160 181 80
164 185 120
161 181 84
160 181 88
156 177 76
163 184 95
166 187 105
165 185 92
157 178 95
163 183 92
160 181 62
154 175 62
150 170 80
155 177 76
151 172 67
159 179 88
156 177 36
150 171 44
157 179 57
159 180 62
153 174 51
148 170 44
164 185 51
158 180 25
149 171 25
149 172 25
155 176 36
146 168 36
159 180 25
148 169 25
147 170 25
153 175 0
154 176 25
154 177 0
150 173 0
153 173 0
152 174 25
154 176 0
152 174 25
153 176 0
156 178 0
156 179 0
150 171 0
152 174 0
145 167 0
155 176 0
145 168 0
142 164 0
146 168 0
144 166 0
149 171 0
145 166 0
137 158 0
137 158 0
135 156 0
136 157 0
141 162 0
144 166 0
135 157 0
144 165 0
141 163 0
146 167 0
143 164 0
146 167 0
141 163 0
141 163 0
133 155 0
139 159 0
144 166 0
138 160 0
132 152 0
143 164 0
140 162 0
129 150 0
140 161 0
139 161 0
133 153 0
147 168 0
148 169 0
140 161 0
133 154 0
139 160 0
136 156 0
141 162 0
131 152 0
134 155 0
140 162 0
132 153 0
133 154 0
138 160 0
140 160 0
139 160 0
135 157 0
142 163 0
129 150 0
138 160 0
146 168 0
135 156 0
146 167 0
138 158 0
141 163 0
137 157 0
143 163 0
145 166 0
137 158 0
146 168 0
140 161 0
142 163 0
146 167 0
149 168 0
131 152 0
143 165 0
143 164 0
148 169 0
137 158 0
133 154 0
145 168 0
144 165 0
141 162 0
141 162 0
148 169 0
136 156 0
138 159 0
142 164 0
149 170 0
138 158 0
145 165 0
146 169 0
137 159 0
144 165 0
149 172 0
143 163 0
149 171 0
151 173 0
147 168 0
142 164 0
137 158 0
152 173 0
140 162 0
145 166 0
148 170 0
146 167 0
142 163 0
149 170 0
147 169 0
148 169 0
139 160 0
151 172 0
149 170 0
144 167 0
151 173 0
150 171 0
154 176 0
151 172 0
149 172 0
145 166 0
147 169 0
151 172 0
147 168 0
148 169 0
134 154 0
145 167 0
156 178 0
154 176 0
149 171 0
146 166 0
159 181 0
156 177 0
156 179 0
154 176 0
155 179 0
154 176 0
151 172 0
154 177 0
159 180 0
164 185 0
154 176 0
158 181 0
147 169 0
155 177 0
162 184 0
155 178 0
159 179 0
156 176 0
156 178 0
159 182 0
154 176 0
158 180 0
151 174 0
158 182 0
155 176 0
159 182 0
156 179 0
149 171 0
158 180 0
163 185 0
159 181 0
158 179 0
158 181 0
157 179 0
154 176 0
157 179 0
152 173 0
155 177 0
164 186 0
160 184 0
163 186 0
155 176 0
164 186 0
155 177 0
158 180 0
153 176 0
153 174 0
155 176 0
155 179 0
157 179 0
161 182 0
161 182 0
157 178 0
154 176 0
162 184 0
160 182 0
160 182 0
156 177 0
158 180 0
167 189 0
161 183 0
153 175 0
161 183 0
163 185 0
162 185 0
161 182 0
161 183 0
168 191 0
163 185 0
159 181 0
160 183 0
164 185 0
159 181 0
161 182 0
165 187 0
163 184 0
161 184 0
164 187 0
166 189 0
166 187 0
160 182 0
163 185 0
164 186 0
159 182 0
161 183 0
162 184 0
161 184 0
165 187 0
163 186 0
160 183 0
162 185 0
163 185 0
159 181 0
163 184 0
166 189 0
161 182 0
163 185 0
161 183 0
163 184 0
165 188 0
165 188 0
164 186 0
161 183 0
160 181 0
165 187 0
164 188 0
165 187 0
162 183 0
164 186 0
164 186 0
164 185 0
165 186 0
168 190 0
168 190 0
166 188 0
165 186 0
163 186 0
166 187 0
166 189 0
166 189 0
166 188 0
165 186 0
165 188 0
165 186 0
162 184 0
166 188 0
167 190 0
159 180 0
165 187 0
167 190 0
166 189 0
160 182 0
167 190 0
163 185 0
166 189 0
172 195 0
163 185 0
166 189 0
168 191 84
174 197 102
175 197 95
174 195 103
173 197 92
172 196 80
167 190 95
172 194 84
176 198 114
171 193 84
176 199 105
167 190 88
171 193 99
173 196 99
174 198 102
168 191 72
167 190 88
174 196 92
172 194 72
169 192 92
172 195 99
174 196 95
169 192 76
169 192 102
170 193 84
166 189 105
166 190 108
166 189 99
167 190 99
169 192 100
175 198 108
168 191 114
174 197 102
171 194 108
169 192 92
167 189 102
169 192 114
170 192 99
168 191 95
167 191 95
165 188 99
168 190 111
166 188 72
165 187 95
164 187 95
173 196 114
166 188 92
165 187 108
168 190 92
165 187 105
162 183 76
167 190 92
157 180 80
173 196 114
162 184 99
169 192 102
157 179 76
172 193 108
171 194 111
161 183 105
162 184 92
161 183 102
160 182 105
168 191 114
167 189 88
163 184 88
168 189 95
154 176 76
167 188 102
166 188 111
161 184 108
160 182 88
158 180 76
168 190 95
163 183 95
164 186 108
168 189 105
167 188 102
158 179 80
163 185 102
164 187 88
174 196 128
161 181 92
169 190 102
162 183 99
162 183 105
166 187 92
153 174 99
154 176 72
159 179 84
159 180 80
166 187 92
167 188 95
157 177 102
151 173 76
167 188 92
160 180 95
168 188 102
156 177 88
159 180 102
160 180 76
157 178 92
157 178 88
155 175 80
154 175 67
165 185 99
164 185 80
146 167 72
151 171 62
163 184 92
151 171 72
153 174 57
148 170 67
150 171 57
149 171 51
154 174 44
162 184 67
155 177 57
156 177 0
156 178 51
152 174 0
145 167 44
151 172 36
141 163 0
151 174 0
153 175 25
156 178 25
152 174 25
142 165 0
156 179 36
153 174 0
159 181 25
157 180 0
156 178 0
151 174 0
144 167 0
158 179 0
153 175 0
161 184 0
155 176 0
152 174 0
147 168 0
149 171 0
151 172 0
153 176 0
150 171 0
145 166 0
152 173 0
141 163 0
146 167 0
150 171 0
138 159 0
145 166 0
134 156 0
135 156 0
139 160 0
149 169 0
142 163 0
135 155 0
142 163 0
145 166 0
146 167 0
137 159 0
143 165 0
136 156 0
141 162 0
143 164 0
140 161 0
137 157 0
146 167 0
143 163 0
139 160 0
138 159 0
145 166 0
142 163 0
143 165 0
138 159 0
143 164 0
132 154 0
131 152 0
136 157 0
133 154 0
140 161 0
144 165 0
136 157 0
138 159 0
137 159 0
136 157 0
142 164 0
136 157 0
137 158 0
133 153 0
142 162 0
141 162 0
142 162 0
139 159 0
142 163 0
139 160 0
142 163 0
137 159 0
137 157 0
142 164 0
150 172 0
144 166 0
144 165 0
138 159 0
135 156 0
138 159 0
138 159 0
144 165 0
139 162 0
138 160 0
145 167 0
136 158 0
136 157 0
141 163 0
146 168 0
145 167 0
150 172 0
149 171 0
141 162 0
150 171 0
144 166 0
144 165 0
141 163 0
149 170 0
144 166 0
158 179 0
149 170 0
146 167 0
146 167 0
150 172 0
136 157 0
141 164 0
145 167 0
152 174 0
142 163 0
154 176 0
153 172 0
146 168 0
144 165 0
153 174 0
153 174 0
151 172 0
142 164 0
149 171 0
148 170 0
151 173 0
148 168 0
154 176 0
149 171 0
151 173 0
149 171 0
153 175 0
145 167 0
146 166 0
151 173 0
150 172 0
148 169 0
152 173 0
154 175 0
148 169 0
150 172 0
159 181 0
146 167 0
148 171 0
156 179 0
146 168 0
151 173 0
158 180 0
156 178 0
154 175 0
152 174 0
150 171 0
152 173 0
153 174 0
155 177 0
162 184 0
157 179 0
153 174 0
156 178 0
155 177 0
156 178 0
155 176 0
148 170 0
160 183 0
153 175 0
162 183 0
159 182 0
152 175 0
158 179 0
159 180 0
154 176 0
154 175 0
157 179 0
157 179 0
164 186 0
159 180 0
156 177 0
161 183 0
160 181 0
161 183 0
160 182 0
159 181 0
156 178 0
157 179 0
157 181 0
158 181 0
160 183 0
165 188 0
164 186 0
163 184 0
158 180 0
157 179 0
154 177 0
163 185 0
158 181 0
159 181 0
157 179 0
164 188 0
159 181 0
153 174 0
157 178 0
165 187 0
163 185 0
161 182 0
159 181 0
163 184 0
159 179 0
167 189 0
154 175 0
163 185 0
163 184 0
165 187 0
164 187 0
163 187 0
159 180 0
160 182 0
162 184 0
166 188 0
161 183 0
166 188 0
162 184 0
162 183 0
163 184 0
164 186 0
166 190 0
161 183 0
165 185 0
163 186 0
162 182 0
159 182 0
165 187 0
166 190 0
163 185 0
162 184 0
167 189 0
158 180 0
160 181 0
168 190 0
162 184 0
163 184 0
165 188 0
166 188 0
165 187 0
164 186 0
166 188 0
166 190 0
158 179 0
167 188 0
160 182 0
167 188 0
166 189 0
162 185 0
163 188 0
167 188 0
169 191 0
164 186 0
166 189 0
164 187 0
164 187 0
163 184 0
165 187 0
168 190 0
167 190 0
163 184 0
165 187 0
166 187 0
167 189 0
168 190 0
166 188 0
163 186 0
170 193 0
166 188 0
167 189 0
167 188 0
168 189 0
164 186 0
166 188 0
169 191 0
175 197 99
175 198 107
173 195 80
175 198 80
173 195 100
170 193 80
173 196 105
176 199 114
176 199 92
170 194 102
173 195 99
176 198 117
169 192 95
171 195 80
172 195 88
174 196 114
174 197 128
172 195 95
174 196 95
168 191 72
168 191 80
171 194 99
168 191 80
173 196 111
171 194 99
169 192 88
169 191 84
162 185 88
168 192 92
179 201 120
165 187 111
169 192 105
169 192 84
170 192 92
172 195 95
172 195 92
167 189 92
173 196 102
167 188 76
168 190 84
170 192 105
167 189 105
164 187 95
169 192 102
168 191 92
163 185 95
167 189 102
165 188 72
165 187 105
169 192 84
168 190 120
162 185 76
164 186 76
163 186 92
168 192 111
161 183 105
170 192 99
164 186 95
159 182 84
170 191 92
165 188 108
162 184 88
172 193 105
164 186 99
167 190 102
165 187 99
166 188 95
166 187 111
162 185 95
165 187 95
163 185 102
165 186 99
166 188 111
167 187 92
162 183 76
159 181 88
156 177 84
164 185 88
160 181 105
162 183 105
162 184 92
164 186 111
158 179 99
159 180 76
155 176 88
164 185 88
161 182 92
161 182 92
162 183 84
163 183 95
153 174 72
164 185 80
157 179 84
154 174 84
150 170 76
158 179 102
152 172 72
160 181 80
159 179 88
158 180 88
156 177 84
157 178 67
157 178 84
160 180 80
156 175 84
158 178 92
156 177 88
154 175 80
151 173 67
162 183 72
158 180 80
156 176 76
158 178 76
147 168 51
159 179 67
147 167 67
153 176 44
143 165 36
162 184 36
158 180 44
154 176 44
152 174 36
147 169 25
150 173 36
146 167 0
155 177 0
153 176 0
159 182 0
153 175 36
157 179 25
152 175 0
149 171 0
153 175 0
150 171 0
159 181 0
157 178 0
149 171 0
160 183 0
144 167 0
142 165 0
146 167 0
154 177 0
149 171 0
142 164 0
155 178 0
150 173 0
145 168 0
141 164 0
146 168 0
142 163 0
147 168 0
141 162 0
158 179 0
136 157 0
139 161 0
138 160 0
148 168 0
140 160 0
142 162 0
143 165 0
144 166 0
137 158 0
145 166 0
138 158 0
143 164 0
139 160 0
142 163 0
142 163 0
145 166 0
138 158 0
146 167 0
142 162 0
151 173 0
143 164 0
149 170 0
141 162 0
141 162 0
149 170 0
132 153 0
136 157 0
125 147 0
150 170 0
133 154 0
139 161 0
135 155 0
141 162 0
147 169 0
140 161 0
146 167 0
137 156 0
140 160 0
143 164 0
140 160 0
145 167 0
147 167 0
134 156 0
139 160 0
147 169 0
143 165 0
133 154 0
149 170 0
146 167 0
135 156 0
138 159 0
148 169 0
135 156 0
143 165 0
130 151 0
150 171 0
146 167 0
144 165 0
139 161 0
152 174 0
141 163 0
150 170 0
144 166 0
138 160 0
147 169 0
135 156 0
144 166 0
147 168 0
138 160 0
152 173 0
141 163 0
142 164 0
148 170 0
145 166 0
142 163 0
149 171 0
150 171 0
160 181 0
147 169 0
141 163 0
145 167 0
139 161 0
150 173 0
147 169 0
149 172 0
154 175 0
148 169 0
148 168 0
144 166 0
152 174 0
148 171 0
147 170 0
149 171 0
146 167 0
152 175 0
150 173 0
146 168 0
148 170 0
153 174 0
144 167 0
141 161 0
152 174 0
155 177 0
150 171 0
154 175 0
148 169 0
149 170 0
150 171 0
150 172 0
153 176 0
150 172 0
154 177 0
147 169 0
151 172 0
157 179 0
153 175 0
156 179 0
161 183 0
155 178 0
151 172 0
151 173 0
155 177 0
159 180 0
149 171 0
160 183 0
164 186 0
160 183 0
151 174 0
157 179 0
154 176 0
148 170 0
157 178 0
155 178 0
156 179 0
163 185 0
157 179 0
156 177 0
153 176 0
155 176 0
162 185 0
154 175 0
160 182 0
152 173 0
155 176 0
162 183 0
163 186 0
156 178 0
158 179 0
153 175 0
158 180 0
162 182 0
159 181 0
160 182 0
159 181 0
161 183 0
161 183 0
159 181 0
159 181 0
153 174 0
156 178 0
161 184 0
163 185 0
149 170 0
161 184 0
154 177 0
161 184 0
162 185 0
162 185 0
161 182 0
156 178 0
159 181 0
161 183 0
160 182 0
163 185 0
160 181 0
157 178 0
161 184 0
167 190 0
158 180 0
163 184 0
163 184 0
157 179 0
160 181 0
151 172 0
166 188 0
163 183 0
161 181 0
159 181 0
159 182 0
160 181 0
160 183 0
160 182 0
163 184 0
159 180 0
163 185 0
164 185 0
164 185 0
163 186 0
164 186 0
161 183 0
168 189 0
168 190 0
163 186 0
161 183 0
164 188 0
167 189 0
164 185 0
160 183 0
164 187 0
165 187 0
164 186 0
165 187 0
161 184 0
164 186 0
166 188 0
166 187 0
162 183 0
163 186 0
160 182 0
165 188 0
161 182 0
168 190 0
166 189 0
170 192 0
165 187 0
167 189 0
164 186 0
165 187 0
168 190 0
167 190 0
168 189 0
167 189 0
166 189 0
165 187 0
164 187 0
167 190 0
167 189 0
170 192 0
167 189 0
168 191 0
169 191 0
166 189 0
170 192 0
166 187 0
165 188 0
170 193 0
166 189 0
171 193 103
168 191 94
175 198 94
172 194 88
171 193 126
174 197 84
170 192 95
175 198 92
174 197 105
175 198 99
178 201 105
174 197 95
163 186 80
172 195 92
172 195 102
172 194 95
174 197 99
167 190 80
170 192 102
165 188 99
171 194 80
173 195 105
171 194 102
174 197 99
169 191 99
176 197 122
176 199 99
168 191 102
169 192 108
166 188 88
174 197 108
167 190 99
167 191 99
168 191 99
169 190 76
165 188 80
170 193 95
166 188 84
165 188 95
170 193 80
164 187 102
163 186 88
168 191 99
173 196 111
160 183 84
169 190 95
163 186 72
163 186 99
163 186 84
169 191 72
166 188 80
163 185 84
167 190 84
168 190 88
168 191 84
167 190 102
161 184 84
152 174 76
163 186 84
167 189 92
162 184 84
166 188 102
165 185 95
169 191 120
163 185 105
166 188 102
168 191 117
175 197 111
170 192 92
158 180 92
161 183 111
164 186 105
166 187 88
157 178 80
171 192 105
161 183 67
161 182 84
158 178 88
172 193 117
156 177 102
157 179 99
159 180 102
164 186 92
160 182 72
161 183 88
167 187 95
168 190 99
169 190 102
157 177 76
159 180 84
154 175 88
163 183 88
156 176 88
158 179 84
166 187 88
161 182 80
157 179 88
166 187 88
158 179 92
165 186 105
159 179 92
162 183 72
155 176 72
163 183 84
163 184 84
162 182 84
166 186 95
149 170 44
168 188 84
153 174 76
158 179 80
160 181 57
149 170 62
157 178 80
148 170 0
158 179 44
150 170 36
155 176 36
151 172 57
154 175 36
152 174 0
155 176 36
159 181 36
148 171 0
156 178 51
153 175 25
150 173 0
159 182 0
157 178 0
156 178 25
158 180 25
153 175 0
152 174 0
150 173 0
157 179 0
162 186 0
156 178 0
154 176 25
158 182 0
146 168 0
149 172 0
151 173 0
143 165 0
152 174 0
146 168 0
156 178 0
143 165 0
152 173 0
146 167 0
139 161 0
140 162 0
144 165 0
143 165 0
147 168 0
152 174 0
145 166 0
139 160 0
139 160 0
147 168 0
135 156 0
150 172 0
142 164 0
134 155 0
139 160 0
152 172 0
143 164 0
136 158 0
138 159 0
138 159 0
139 160 0
142 165 0
141 162 0
135 157 0
139 160 0
146 167 0
139 160 0
142 163 0
137 158 0
139 161 0
144 164 0
138 158 0
141 161 0
140 161 0
143 164 0
142 164 0
138 159 0
144 164 0
143 165 0
143 164 0
140 161 0
140 162 0
134 154 0
143 165 0
146 168 0
147 168 0
145 167 0
143 164 0
142 163 0
143 163 0
137 158 0
149 170 0
137 158 0
145 166 0
134 155 0
144 165 0
138 159 0
139 161 0
148 168 0
140 161 0
141 162 0
141 162 0
152 173 0
151 172 0
148 170 0
140 161 0
148 170 0
143 165 0
141 160 0
144 166 0
139 161 0
148 170 0
150 172 0
140 161 0
144 165 0
141 163 0
147 169 0
149 171 0
147 168 0
144 165 0
148 170 0
148 169 0
148 168 0
151 172 0
154 175 0
142 163 0
142 163 0
145 166 0
143 165 0
149 171 0
146 168 0
151 172 0
147 168 0
155 178 0
149 172 0
152 173 0
145 165 0
148 169 0
146 168 0
149 169 0
153 176 0
151 173 0
148 170 0
149 170 0
154 176 0
157 178 0
156 178 0
150 170 0
152 174 0
147 168 0
159 182 0
151 173 0
151 172 0
151 173 0
150 172 0
154 176 0
162 186 0
154 176 0
151 173 0
150 172 0
149 170 0
154 175 0
153 176 0
163 185 0
159 181 0
156 178 0
157 178 0
163 185 0
157 179 0
154 176 0
149 170 0
156 178 0
160 183 0
163 184 0
155 177 0
157 180 0
155 177 0
153 174 0
155 177 0
154 176 0
154 176 0
157 177 0
161 183 0
159 181 0
155 176 0
162 184 0
160 184 0
156 178 0
150 171 0
160 183 0
157 179 0
155 179 0
159 180 0
159 182 0
153 175 0
154 176 0
161 182 0
158 180 0
161 181 0
154 177 0
159 180 0
163 185 0
161 184 0
158 182 0
159 181 0
160 182 0
157 179 0
152 172 0
157 179 0
163 183 0
160 182 0
162 186 0
163 185 0
163 186 0
162 185 0
161 184 0
155 177 0
156 177 0
166 188 0
157 179 0
162 184 0
167 189 0
157 179 0
160 181 0
161 184 0
163 184 0
163 184 0
162 184 0
166 189 0
166 187 0
163 185 0
164 186 0
158 179 0
160 182 0
162 186 0
165 187 0
161 183 0
164 185 0
161 182 0
166 189 0
159 181 0
165 188 0
163 186 0
163 185 0
163 185 0
160 181 0
161 183 0
166 188 0
164 185 0
164 186 0
165 186 0
166 186 0
163 186 0
167 190 0
162 184 0
161 183 0
166 188 0
161 183 0
170 192 0
165 187 0
167 189 0
164 187 0
167 189 0
171 192 0
166 187 0
163 186 0
167 189 0
167 191 0
163 184 0
168 191 0
165 188 0
163 186 0
164 185 0
165 189 0
158 181 0
165 188 0
165 187 0
168 190 0
169 191 0
163 185 0
167 189 0
166 187 0
169 191 0
168 190 0
165 187 0
164 187 0
168 189 0
166 189 0
164 185 0
169 192 0
165 189 0
